( pcb2gcode 1.3.2 )
( Software-independent Gcode )

G94 ( Millimeters per minute feed rate. )
G21 ( Units == Millimeters. )

G90 ( Absolute coordinates. )
S10000 ( RPM spindle speed. )
F100.00000 ( Feedrate. )

F100.00000 ( Feedrate. )
M3 ( Spindle on clockwise. )
G04 P1.00000
G04 P0 ( dwell for no time -- G64 should not smooth over this point )
G00 Z3.00000 ( retract )

G00 X8.62923 Y12.76700 ( rapid move to begin. )
F50.00000
G01 Z-0.15000
G04 P0 ( dwell for no time -- G64 should not smooth over this point )
F100.00000
X8.62923 Y12.76700
X8.64970 Y12.56570
X8.71384 Y12.35542
X8.82903 Y12.14790
X8.97358 Y11.98222
X9.13357 Y11.85836
X9.34668 Y11.75384
X9.55996 Y11.70048
X9.76202 Y11.69022
X9.99664 Y11.72616
X10.20218 Y11.80419
X10.38780 Y11.92199
X10.54594 Y12.07475
X10.66154 Y12.24081
X10.74985 Y12.44216
X10.79763 Y12.67439
X10.80276 Y14.27550
X10.78186 Y14.48587
X10.71079 Y14.71233
X10.61259 Y14.88925
X10.47073 Y15.05722
X10.28305 Y15.20253
X10.08488 Y15.29773
X9.87160 Y15.35109
X9.65196 Y15.36047
X9.45196 Y15.32983
X9.24518 Y15.25513
X9.05768 Y15.14035
X8.89710 Y14.99018
X8.76149 Y14.79537
X8.67645 Y14.59262
X8.63393 Y14.37718
X8.62923 Y12.76700
X8.54269 Y12.75819
X8.57025 Y12.52240
X8.64470 Y12.29702
X8.74290 Y12.12011
X8.92032 Y11.91343
X9.11021 Y11.77094
X9.29187 Y11.68183
X9.55555 Y11.61358
X9.79278 Y11.60510
X9.99278 Y11.63573
X10.24820 Y11.73035
X10.44775 Y11.85892
X10.59441 Y11.99832
X10.73294 Y12.19110
X10.82981 Y12.40787
X10.88463 Y12.67411
X10.88976 Y14.27523
X10.86839 Y14.49468
X10.78686 Y14.75455
X10.68866 Y14.93146
X10.53675 Y15.11388
X10.32136 Y15.28063
X10.10667 Y15.38195
X9.87602 Y15.43799
X9.67396 Y15.44825
X9.40469 Y15.40700
X9.18336 Y15.32122
X8.98382 Y15.19265
X8.83716 Y15.05325
X8.69863 Y14.86047
X8.60175 Y14.64370
X8.54694 Y14.37746
X8.54269 Y12.75819
X8.45613 Y12.74940
X8.48725 Y12.49636
X8.54783 Y12.30332
X8.66685 Y12.07790
X8.86708 Y11.84462
X9.02707 Y11.72077
X9.25356 Y11.60373
X9.49898 Y11.53469
X9.80594 Y11.51912
X10.05709 Y11.56299
X10.24683 Y11.63327
X10.50766 Y11.79588
X10.68874 Y11.97533
X10.80434 Y12.14140
X10.90975 Y12.37355
X10.97162 Y12.67383
X10.97675 Y14.27495
X10.95496 Y14.50347
X10.86291 Y14.79676
X10.73456 Y15.01701
X10.60276 Y15.17055
X10.40449 Y15.33080
X10.12847 Y15.46618
X9.93258 Y15.51688
X9.67838 Y15.53512
X9.37447 Y15.48858
X9.18473 Y15.41830
X8.96563 Y15.28800
X8.77724 Y15.11630
X8.62723 Y14.91017
X8.52182 Y14.67802
X8.45994 Y14.37774
X8.45613 Y12.74940
X8.36959 Y12.74058
X8.40424 Y12.47030
X8.46482 Y12.27726
X8.59078 Y12.03568
X8.81381 Y11.77584
X9.03358 Y11.61473
X9.21524 Y11.52562
X9.54673 Y11.43982
X9.81912 Y11.43312
X10.01912 Y11.46375
X10.34025 Y11.58270
X10.51196 Y11.68973
X10.71427 Y11.87221
X10.87574 Y12.09171
X10.98755 Y12.34018
X10.98435 Y14.71815
X10.93898 Y14.83898
X10.84079 Y15.01589
X10.66878 Y15.22722
X10.45775 Y15.39958
X10.21633 Y15.52595
X9.95438 Y15.60108
X9.68277 Y15.62201
X9.34427 Y15.57014
X9.09131 Y15.46887
X8.91961 Y15.36184
X8.71729 Y15.17936
X8.55583 Y14.95986
X8.44186 Y14.71231
X8.38006 Y14.44698
X8.36959 Y12.74058
X8.28303 Y12.73179
X8.30350 Y12.53050
X8.41651 Y12.17038
X8.56497 Y11.92123
X8.69677 Y11.76769
X8.99527 Y11.53662
X9.25951 Y11.41696
X9.45539 Y11.36627
X9.74437 Y11.34269
X10.11752 Y11.39984
X10.38628 Y11.50889
X10.55798 Y11.61592
X10.83154 Y11.87594
X10.98742 Y12.11463
X10.98412 Y14.93690
X10.86659 Y15.13034
X10.73479 Y15.28388
X10.51099 Y15.46837
X10.25463 Y15.60405
X9.97617 Y15.68531
X9.68719 Y15.70888
X9.39928 Y15.67380
X9.04528 Y15.54269
X8.80404 Y15.38180
X8.60002 Y15.17563
X8.44170 Y14.93258
X8.33558 Y14.66270
X8.29484 Y14.46451
X8.28303 Y12.73179
G04 P0 ( dwell for no time -- G64 should not smooth over this point )
G00 Z3.00000 ( retract )

G00 X11.16923 Y12.76700 ( rapid move to begin. )
F50.00000
G01 Z-0.15000
G04 P0 ( dwell for no time -- G64 should not smooth over this point )
F100.00000
X11.16923 Y12.76700
X11.18970 Y12.56570
X11.25384 Y12.35542
X11.36903 Y12.14790
X11.51358 Y11.98222
X11.67357 Y11.85836
X11.88668 Y11.75384
X12.09996 Y11.70048
X12.30202 Y11.69022
X12.53664 Y11.72616
X12.74218 Y11.80419
X12.92780 Y11.92199
X13.08594 Y12.07475
X13.20154 Y12.24081
X13.28985 Y12.44216
X13.33763 Y12.67439
X13.34276 Y14.27550
X13.32186 Y14.48587
X13.25079 Y14.71233
X13.15259 Y14.88925
X13.01073 Y15.05722
X12.82305 Y15.20253
X12.62488 Y15.29773
X12.41160 Y15.35109
X12.19196 Y15.36047
X11.99196 Y15.32983
X11.78518 Y15.25513
X11.59768 Y15.14035
X11.43710 Y14.99018
X11.30149 Y14.79537
X11.21645 Y14.59262
X11.17393 Y14.37718
X11.16923 Y12.76700
X11.08269 Y12.75819
X11.11025 Y12.52240
X11.18470 Y12.29702
X11.28290 Y12.12011
X11.46032 Y11.91343
X11.65021 Y11.77094
X11.83187 Y11.68183
X12.09555 Y11.61358
X12.33278 Y11.60510
X12.53278 Y11.63573
X12.78820 Y11.73035
X12.98775 Y11.85892
X13.13441 Y11.99832
X13.27294 Y12.19110
X13.36981 Y12.40787
X13.42463 Y12.67411
X13.42976 Y14.27523
X13.40839 Y14.49468
X13.32686 Y14.75455
X13.22866 Y14.93146
X13.07675 Y15.11388
X12.86136 Y15.28063
X12.64667 Y15.38195
X12.41602 Y15.43799
X12.21396 Y15.44825
X11.94469 Y15.40700
X11.72336 Y15.32122
X11.52382 Y15.19265
X11.37716 Y15.05325
X11.23863 Y14.86047
X11.14175 Y14.64370
X11.08694 Y14.37746
X11.08269 Y12.75819
X10.99613 Y12.74940
X11.02725 Y12.49636
X11.08783 Y12.30332
X11.20685 Y12.07790
X11.40708 Y11.84462
X11.56707 Y11.72077
X11.79356 Y11.60373
X12.03898 Y11.53469
X12.34594 Y11.51912
X12.59709 Y11.56299
X12.78683 Y11.63327
X13.04766 Y11.79588
X13.22874 Y11.97533
X13.34434 Y12.14140
X13.44975 Y12.37355
X13.51162 Y12.67383
X13.51675 Y14.27495
X13.49496 Y14.50347
X13.40291 Y14.79676
X13.27456 Y15.01701
X13.14276 Y15.17055
X12.94449 Y15.33080
X12.66847 Y15.46618
X12.42044 Y15.52485
X12.16562 Y15.53245
X11.91447 Y15.48858
X11.72473 Y15.41830
X11.50563 Y15.28800
X11.31724 Y15.11630
X11.14160 Y14.86397
X11.04602 Y14.62765
X10.99994 Y14.37774
X10.98722 Y12.33342
X11.03258 Y12.21259
X11.13078 Y12.03568
X11.35381 Y11.77584
X11.57358 Y11.61473
X11.75524 Y11.52562
X12.08673 Y11.43982
X12.35912 Y11.43312
X12.55912 Y11.46375
X12.88025 Y11.58270
X13.05196 Y11.68973
X13.25427 Y11.87221
X13.41574 Y12.09171
X13.52755 Y12.34018
X13.52435 Y14.71815
X13.47898 Y14.83898
X13.38079 Y15.01589
X13.20878 Y15.22722
X12.99775 Y15.39958
X12.75633 Y15.52595
X12.49438 Y15.60108
X12.22277 Y15.62201
X11.88427 Y15.57014
X11.63131 Y15.46887
X11.40395 Y15.31876
X11.21142 Y15.12592
X11.06164 Y14.89826
X10.98402 Y14.71139
X10.98744 Y12.11468
X11.10497 Y11.92123
X11.23677 Y11.76769
X11.46057 Y11.58321
X11.71693 Y11.44752
X12.08231 Y11.35296
X12.37228 Y11.34714
X12.57228 Y11.37777
X12.84726 Y11.47013
X13.09798 Y11.61592
X13.37154 Y11.87594
X13.52742 Y12.11463
X13.52412 Y14.93690
X13.40659 Y15.13034
X13.27479 Y15.28388
X13.05099 Y15.46837
X12.79463 Y15.60405
X12.51617 Y15.68531
X12.22719 Y15.70888
X11.93928 Y15.67380
X11.58528 Y15.54269
X11.34404 Y15.38180
X11.14002 Y15.17563
X10.98414 Y14.93695
X10.98404 Y12.74815
G04 P0 ( dwell for no time -- G64 should not smooth over this point )
G00 Z3.00000 ( retract )

G00 X14.45879 Y11.74556 ( rapid move to begin. )
F50.00000
G01 Z-0.15000
G04 P0 ( dwell for no time -- G64 should not smooth over this point )
F100.00000
X14.45879 Y11.74556
X14.45879 Y10.65486
X13.86631 Y10.06180
X13.82574 Y10.00973
X13.78190 Y9.90389
X13.77332 Y8.31799
X13.67375 Y8.28486
X13.49684 Y8.18667
X13.31673 Y8.03206
X13.18355 Y7.85713
X13.09445 Y7.67547
X13.03499 Y7.44567
X13.02562 Y7.22604
X13.06067 Y7.00900
X13.13870 Y6.80346
X13.25650 Y6.61784
X13.40926 Y6.45970
X13.59072 Y6.33557
X13.79346 Y6.25053
X14.00476 Y6.20811
X14.11911 Y6.20331
X14.33765 Y6.22734
X14.54687 Y6.29485
X14.72378 Y6.39305
X14.89175 Y6.53491
X15.02775 Y6.70765
X15.13227 Y6.92076
X15.20687 Y7.28139
X15.16437 Y7.55367
X15.08967 Y7.76046
X14.97489 Y7.94796
X14.82472 Y8.10854
X14.64530 Y8.23561
X14.44728 Y8.32248
X14.44728 Y9.69022
X15.03407 Y10.27701
X15.10062 Y10.37208
X15.13275 Y10.51531
X15.13275 Y11.74701
X15.28218 Y11.80419
X15.45388 Y11.91122
X15.62594 Y12.07475
X15.75007 Y12.25620
X15.82985 Y12.44216
X15.87585 Y12.65714
X15.88276 Y14.27550
X15.86186 Y14.48587
X15.79772 Y14.69615
X15.68253 Y14.90367
X15.53798 Y15.06936
X15.37799 Y15.19321
X15.18139 Y15.29163
X14.95160 Y15.35109
X14.73196 Y15.36047
X14.53196 Y15.32983
X14.32518 Y15.25513
X14.13768 Y15.14035
X13.97710 Y14.99018
X13.85002 Y14.81076
X13.75645 Y14.59262
X13.71393 Y14.37718
X13.70880 Y12.77607
X13.72970 Y12.56570
X13.80077 Y12.33924
X13.89897 Y12.16233
X14.04083 Y11.99436
X14.22851 Y11.84904
X14.45879 Y11.74556
X14.37179 Y11.68189
X14.37179 Y10.69090
X13.81053 Y10.12964
X13.72592 Y10.00752
X13.68632 Y9.82987
X13.68632 Y8.38187
X13.45462 Y8.26274
X13.24794 Y8.08532
X13.10545 Y7.89543
X13.01635 Y7.71377
X12.94810 Y7.45009
X12.93961 Y7.21286
X12.97908 Y6.97877
X13.06486 Y6.75744
X13.19343 Y6.55789
X13.35955 Y6.38830
X13.55643 Y6.25561
X13.77593 Y6.16531
X14.00034 Y6.12122
X14.12793 Y6.11677
X14.36371 Y6.14433
X14.58909 Y6.21878
X14.76600 Y6.31697
X14.94842 Y6.46889
X15.09653 Y6.65439
X15.21649 Y6.89896
X15.26719 Y7.09485
X15.29374 Y7.28596
X15.25035 Y7.56686
X15.17126 Y7.79068
X15.04873 Y7.99398
X14.88779 Y8.16848
X14.69501 Y8.30701
X14.53428 Y8.37983
X14.53428 Y9.65418
X15.09559 Y10.21549
X15.17707 Y10.33055
X15.20580 Y10.40960
X15.21975 Y10.51531
X15.21975 Y11.68641
X15.32820 Y11.73035
X15.49991 Y11.83738
X15.69734 Y12.02504
X15.81294 Y12.19110
X15.90981 Y12.40787
X15.96463 Y12.67411
X15.96976 Y14.27523
X15.94839 Y14.49468
X15.88073 Y14.72221
X15.74855 Y14.96034
X15.59125 Y15.13814
X15.43125 Y15.26199
X15.21969 Y15.36974
X14.95602 Y15.43799
X14.71878 Y15.44647
X14.51878 Y15.41584
X14.29496 Y15.33672
X14.09165 Y15.21419
X13.91716 Y15.05325
X13.77863 Y14.86047
X13.67123 Y14.61015
X13.62694 Y14.37746
X13.62181 Y12.77635
X13.64317 Y12.55689
X13.72470 Y12.29702
X13.84301 Y12.09123
X14.00032 Y11.91343
X14.19021 Y11.77094
X14.37179 Y11.68189
X14.28480 Y11.62766
X14.28480 Y10.72695
X13.74901 Y10.19116
X13.64919 Y10.04851
X13.61540 Y9.95438
X13.59933 Y9.82987
X13.59933 Y8.44130
X13.36908 Y8.30864
X13.17913 Y8.13856
X13.05528 Y7.97857
X12.93824 Y7.75207
X12.86123 Y7.45451
X12.85363 Y7.19970
X12.89750 Y6.94854
X12.99105 Y6.71141
X13.13039 Y6.49797
X13.30984 Y6.31690
X13.52211 Y6.17567
X13.75843 Y6.08009
X13.99595 Y6.03435
X14.13671 Y6.03021
X14.38975 Y6.06132
X14.58279 Y6.12190
X14.80821 Y6.24093
X15.00509 Y6.40288
X15.16534 Y6.60115
X15.30072 Y6.87717
X15.35142 Y7.07306
X15.38060 Y7.29053
X15.33636 Y7.58004
X15.25284 Y7.82091
X15.12254 Y8.04001
X14.95084 Y8.22840
X14.74471 Y8.37841
X14.62127 Y8.43716
X14.62127 Y9.61814
X15.15711 Y10.15397
X15.25353 Y10.28905
X15.28855 Y10.38275
X15.30674 Y10.51531
X15.30674 Y11.62585
X15.54593 Y11.76357
X15.76874 Y11.97533
X15.88434 Y12.14140
X15.98975 Y12.37355
X16.05162 Y12.67383
X16.05675 Y14.27495
X16.03496 Y14.50347
X15.96374 Y14.74825
X15.81456 Y15.01701
X15.64448 Y15.20695
X15.48449 Y15.33080
X15.25800 Y15.44784
X14.96044 Y15.52485
X14.70562 Y15.53245
X14.45447 Y15.48858
X14.26473 Y15.41830
X14.04563 Y15.28800
X13.85724 Y15.11630
X13.70723 Y14.91017
X13.60182 Y14.67802
X13.54528 Y14.42945
X13.53481 Y12.77663
X13.55660 Y12.54810
X13.62783 Y12.30332
X13.77700 Y12.03456
X13.94708 Y11.84462
X14.10707 Y11.72077
X14.28480 Y11.62766
X14.19780 Y11.57343
X14.19780 Y10.76299
X13.66453 Y10.22733
X13.59557 Y10.13274
X13.54637 Y10.02654
X13.51233 Y9.82987
X13.51233 Y8.49378
X13.31241 Y8.37465
X13.15887 Y8.24285
X12.94924 Y7.97206
X12.83570 Y7.72434
X12.77433 Y7.45891
X12.76407 Y7.25685
X12.81594 Y6.91834
X12.91721 Y6.66539
X13.02425 Y6.49368
X13.26016 Y6.24550
X13.42623 Y6.12990
X13.66793 Y6.01845
X14.55269 Y6.02129
X14.67352 Y6.06666
X14.90821 Y6.20506
X15.11027 Y6.38789
X15.23412 Y6.54789
X15.30230 Y6.67069
X15.34431 Y6.86589
X15.38360 Y7.34301
X15.35515 Y7.64303
X15.30232 Y7.91608
X15.15330 Y8.14168
X15.01390 Y8.28834
X14.79440 Y8.44981
X14.70827 Y8.49452
X14.70827 Y9.58209
X15.24299 Y10.11951
X15.31126 Y10.21305
X15.35518 Y10.30620
X15.39374 Y10.51531
X15.39374 Y11.56969
X15.59196 Y11.68973
X15.79427 Y11.87221
X15.95574 Y12.09171
X16.06719 Y12.33342
X16.06435 Y14.71815
X16.01898 Y14.83898
X15.92079 Y15.01589
X15.69775 Y15.27573
X15.47799 Y15.43684
X15.29633 Y15.52595
X14.96483 Y15.61175
X14.69244 Y15.61845
X14.49244 Y15.58782
X14.17131 Y15.46887
X13.99961 Y15.36184
X13.79729 Y15.17936
X13.63583 Y14.95986
X13.52437 Y14.71815
X13.52722 Y12.33342
X13.57258 Y12.21259
X13.67078 Y12.03568
X13.84279 Y11.82435
X14.05381 Y11.65199
X14.19780 Y11.57343
X14.11081 Y11.51920
X14.11081 Y10.79903
X13.59727 Y10.28250
X13.51883 Y10.17374
X13.46313 Y10.05179
X13.42534 Y9.82987
X13.42534 Y8.54499
X13.25574 Y8.44067
X13.10220 Y8.30887
X12.87113 Y8.01037
X12.75147 Y7.74613
X12.70078 Y7.55025
X12.67721 Y7.26127
X12.71228 Y6.97336
X12.84340 Y6.61936
X12.95043 Y6.44766
X13.14368 Y6.23145
X13.44914 Y6.01822
X14.77144 Y6.02152
X14.96488 Y6.13905
X15.11842 Y6.27085
X15.21533 Y6.38152
X15.28601 Y6.60049
X15.34431 Y6.86589
X15.38360 Y7.34301
X15.35515 Y7.64303
X15.31888 Y7.84537
X15.24502 Y8.11636
X15.21540 Y8.20259
X15.07695 Y8.34826
X14.79526 Y8.54831
X14.79526 Y9.54605
X15.31058 Y10.06477
X15.38769 Y10.17153
X15.43791 Y10.27935
X15.48073 Y10.51531
X15.48073 Y11.51788
X15.70753 Y11.66977
X15.85419 Y11.80916
X16.06742 Y12.11463
X16.06744 Y14.86588
X16.06412 Y14.93690
X15.99686 Y15.05810
X15.75099 Y15.34451
X15.51629 Y15.51495
X15.33463 Y15.60405
X15.05617 Y15.68531
X14.67928 Y15.70443
X14.47928 Y15.67380
X14.20430 Y15.58145
X13.88404 Y15.38180
X13.68002 Y15.17563
X13.52414 Y14.93695
X13.52744 Y12.11468
X13.64497 Y11.92123
X13.77677 Y11.76769
X14.00057 Y11.58321
X14.11081 Y11.51920
G04 P0 ( dwell for no time -- G64 should not smooth over this point )
G00 Z3.00000 ( retract )

G00 X16.99879 Y11.74556 ( rapid move to begin. )
F50.00000
G01 Z-0.15000
G04 P0 ( dwell for no time -- G64 should not smooth over this point )
F100.00000
X16.99879 Y11.74556
X16.99879 Y8.37686
X15.65030 Y8.37686
X15.57799 Y8.33818
X15.56331 Y8.28987
X15.56331 Y6.28987
X15.57799 Y6.24154
X15.63333 Y6.20453
X17.65030 Y6.20288
X17.69863 Y6.21753
X17.73564 Y6.27288
X17.73729 Y8.28987
X17.72264 Y8.33818
X17.67275 Y8.37351
X17.67275 Y11.74701
X17.82218 Y11.80419
X17.99388 Y11.91122
X18.15446 Y12.06139
X18.28154 Y12.24081
X18.37511 Y12.45895
X18.41763 Y12.67439
X18.42276 Y14.27550
X18.40186 Y14.48587
X18.33772 Y14.69615
X18.23259 Y14.88925
X18.09073 Y15.05722
X17.90305 Y15.20253
X17.70488 Y15.29773
X17.49160 Y15.35109
X17.27196 Y15.36047
X17.05492 Y15.32541
X16.84938 Y15.24739
X16.66376 Y15.12958
X16.50562 Y14.97682
X16.39002 Y14.81076
X16.30171 Y14.60941
X16.25571 Y14.39443
X16.24880 Y12.77607
X16.27326 Y12.54846
X16.34077 Y12.33924
X16.43897 Y12.16233
X16.58083 Y11.99436
X16.76851 Y11.84904
X16.99879 Y11.74556
X16.91179 Y11.68189
X16.91179 Y8.46386
X15.65030 Y8.46386
X15.55365 Y8.43452
X15.50565 Y8.38651
X15.47631 Y8.28987
X15.47631 Y6.28987
X15.50565 Y6.19320
X15.55365 Y6.14519
X15.61637 Y6.11921
X17.65030 Y6.11588
X17.74697 Y6.14519
X17.79497 Y6.19320
X17.82096 Y6.25591
X17.82429 Y8.28987
X17.81105 Y8.35644
X17.75975 Y8.42403
X17.75975 Y11.68641
X17.86820 Y11.73035
X18.03991 Y11.83738
X18.21441 Y11.99832
X18.35294 Y12.19110
X18.46033 Y12.44142
X18.50463 Y12.67411
X18.50976 Y14.27523
X18.48839 Y14.49468
X18.42073 Y14.72221
X18.30866 Y14.93146
X18.15675 Y15.11388
X17.94136 Y15.28063
X17.72667 Y15.38195
X17.49602 Y15.43799
X17.25878 Y15.44647
X17.02469 Y15.40700
X16.80336 Y15.32122
X16.60382 Y15.19265
X16.45716 Y15.05325
X16.31863 Y14.86047
X16.22175 Y14.64370
X16.17049 Y14.41195
X16.16181 Y12.77635
X16.19025 Y12.52240
X16.26470 Y12.29702
X16.36290 Y12.12011
X16.51481 Y11.93769
X16.70031 Y11.78958
X16.91179 Y11.68189
X16.82480 Y11.62766
X16.82480 Y8.55085
X15.59940 Y8.54582
X15.50532 Y8.50686
X15.40920 Y8.38974
X15.38932 Y8.28987
X15.38932 Y6.28987
X15.43331 Y6.14486
X15.50532 Y6.07285
X15.59940 Y6.03389
X17.65030 Y6.02889
X17.79531 Y6.07285
X17.86731 Y6.14486
X17.90628 Y6.23894
X17.91128 Y8.28987
X17.89142 Y8.38974
X17.84674 Y8.45990
X17.84674 Y11.62585
X18.08593 Y11.76357
X18.27432 Y11.93528
X18.42434 Y12.14140
X18.54554 Y12.42392
X18.59162 Y12.67383
X18.59675 Y14.27495
X18.57496 Y14.50347
X18.50374 Y14.74825
X18.38471 Y14.97367
X18.22276 Y15.17055
X17.97966 Y15.35874
X17.74847 Y15.46618
X17.50044 Y15.52485
X17.24562 Y15.53245
X16.99447 Y15.48858
X16.80473 Y15.41830
X16.58563 Y15.28800
X16.39724 Y15.11630
X16.24723 Y14.91017
X16.14182 Y14.67802
X16.08528 Y14.42945
X16.07481 Y12.77663
X16.10725 Y12.49636
X16.18865 Y12.25481
X16.31700 Y12.03456
X16.48708 Y11.84462
X16.64707 Y11.72077
X16.82480 Y11.62766
X16.73780 Y11.57343
X16.73780 Y8.63785
X15.58243 Y8.63114
X15.45698 Y8.57920
X15.36097 Y8.48319
X15.32881 Y8.42301
X15.30232 Y8.28987
X15.30232 Y7.91608
X15.35515 Y7.64303
X15.38497 Y7.29076
X15.34431 Y6.86589
X15.30232 Y6.67074
X15.30903 Y6.22198
X15.36097 Y6.09653
X15.40425 Y6.04380
X15.45698 Y6.00052
X15.58243 Y5.94857
X16.03100 Y5.94189
X16.36313 Y6.00303
X16.66399 Y6.01969
X17.00925 Y5.99389
X17.27656 Y5.94189
X17.71819 Y5.94857
X17.84364 Y6.00052
X17.89637 Y6.04380
X17.93965 Y6.09653
X17.99160 Y6.22198
X17.99828 Y8.28987
X17.97181 Y8.42301
X17.93374 Y8.49038
X17.93374 Y11.56969
X18.13196 Y11.68973
X18.33427 Y11.87221
X18.49574 Y12.09171
X18.60719 Y12.33342
X18.60435 Y14.71815
X18.55898 Y14.83898
X18.46079 Y15.01589
X18.23775 Y15.27573
X18.01799 Y15.43684
X17.83633 Y15.52595
X17.50483 Y15.61175
X17.23244 Y15.61845
X17.03244 Y15.58782
X16.71131 Y15.46887
X16.53961 Y15.36184
X16.33729 Y15.17936
X16.17583 Y14.95986
X16.06437 Y14.71815
X16.06722 Y12.33342
X16.11258 Y12.21259
X16.21078 Y12.03568
X16.38279 Y11.82435
X16.59381 Y11.65199
X16.73780 Y11.57343
X16.65081 Y11.51920
X16.65081 Y8.72484
X15.56546 Y8.71646
X15.48385 Y8.69172
X15.34273 Y8.59744
X15.24845 Y8.45631
X15.22371 Y8.37470
X15.21533 Y8.20277
X15.31888 Y7.84537
X15.36270 Y7.58405
X15.38497 Y7.29076
X15.33298 Y6.80282
X15.21533 Y6.38149
X15.22371 Y6.20501
X15.24845 Y6.12340
X15.34273 Y5.98228
X15.48385 Y5.88799
X15.56546 Y5.86325
X15.74243 Y5.85490
X16.16082 Y5.97204
X16.42058 Y6.00890
X16.66399 Y6.01969
X17.07003 Y5.98456
X17.34448 Y5.92426
X17.56262 Y5.85490
X17.73516 Y5.86325
X17.81677 Y5.88799
X17.95789 Y5.98228
X18.05218 Y6.12340
X18.07691 Y6.20501
X18.08527 Y8.28987
X18.07691 Y8.37470
X18.02073 Y8.51512
X18.02073 Y11.51788
X18.24753 Y11.66977
X18.39419 Y11.80916
X18.60742 Y12.11463
X18.60412 Y14.93690
X18.48659 Y15.13034
X18.35479 Y15.28388
X18.13099 Y15.46837
X17.87463 Y15.60405
X17.59617 Y15.68531
X17.21928 Y15.70443
X17.01928 Y15.67380
X16.74430 Y15.58145
X16.42404 Y15.38180
X16.22002 Y15.17563
X16.06414 Y14.93695
X16.06744 Y12.11468
X16.18497 Y11.92123
X16.31677 Y11.76769
X16.54057 Y11.58321
X16.65081 Y11.51920
G04 P0 ( dwell for no time -- G64 should not smooth over this point )
G00 Z3.00000 ( retract )

G00 X18.78923 Y12.76700 ( rapid move to begin. )
F50.00000
G01 Z-0.15000
G04 P0 ( dwell for no time -- G64 should not smooth over this point )
F100.00000
X18.78923 Y12.76700
X18.80970 Y12.56570
X18.87384 Y12.35542
X18.98903 Y12.14790
X19.13358 Y11.98222
X19.29357 Y11.85836
X19.50668 Y11.75384
X19.71996 Y11.70048
X19.92202 Y11.69022
X20.15664 Y11.72616
X20.36218 Y11.80419
X20.54780 Y11.92199
X20.70594 Y12.07475
X20.82154 Y12.24081
X20.90985 Y12.44216
X20.95763 Y12.67439
X20.96276 Y14.27550
X20.94186 Y14.48587
X20.87079 Y14.71233
X20.77259 Y14.88925
X20.63073 Y15.05722
X20.44305 Y15.20253
X20.24488 Y15.29773
X20.03160 Y15.35109
X19.81196 Y15.36047
X19.61196 Y15.32983
X19.40518 Y15.25513
X19.21768 Y15.14035
X19.05710 Y14.99018
X18.92149 Y14.79537
X18.83645 Y14.59262
X18.79393 Y14.37718
X18.78923 Y12.76700
X18.70269 Y12.75819
X18.73025 Y12.52240
X18.80470 Y12.29702
X18.90290 Y12.12011
X19.08032 Y11.91343
X19.27021 Y11.77094
X19.45187 Y11.68183
X19.71555 Y11.61358
X19.95278 Y11.60510
X20.15278 Y11.63573
X20.40820 Y11.73035
X20.60775 Y11.85892
X20.75441 Y11.99832
X20.89294 Y12.19110
X20.98981 Y12.40787
X21.04463 Y12.67411
X21.04976 Y14.27523
X21.02839 Y14.49468
X20.94686 Y14.75455
X20.84866 Y14.93146
X20.69675 Y15.11388
X20.48136 Y15.28063
X20.26667 Y15.38195
X20.03602 Y15.43799
X19.83396 Y15.44825
X19.56469 Y15.40700
X19.34336 Y15.32122
X19.14382 Y15.19265
X18.99716 Y15.05325
X18.85863 Y14.86047
X18.76175 Y14.64370
X18.70694 Y14.37746
X18.70269 Y12.75819
X18.61613 Y12.74940
X18.64725 Y12.49636
X18.70783 Y12.30332
X18.82685 Y12.07790
X19.02708 Y11.84462
X19.18707 Y11.72077
X19.41356 Y11.60373
X19.65898 Y11.53469
X19.96594 Y11.51912
X20.21709 Y11.56299
X20.40683 Y11.63327
X20.66766 Y11.79588
X20.84874 Y11.97533
X20.96434 Y12.14140
X21.06975 Y12.37355
X21.13162 Y12.67383
X21.13675 Y14.27495
X21.11496 Y14.50347
X21.02291 Y14.79676
X20.89456 Y15.01701
X20.76276 Y15.17055
X20.56449 Y15.33080
X20.28847 Y15.46618
X20.04044 Y15.52485
X19.78562 Y15.53245
X19.53447 Y15.48858
X19.34473 Y15.41830
X19.12563 Y15.28800
X18.93724 Y15.11630
X18.76160 Y14.86397
X18.66602 Y14.62765
X18.61994 Y14.37774
X18.60722 Y12.33342
X18.65258 Y12.21259
X18.75078 Y12.03568
X18.97381 Y11.77584
X19.19358 Y11.61473
X19.37524 Y11.52562
X19.70673 Y11.43982
X19.97912 Y11.43312
X20.17912 Y11.46375
X20.50025 Y11.58270
X20.67196 Y11.68973
X20.87427 Y11.87221
X21.03574 Y12.09171
X21.14755 Y12.34018
X21.14435 Y14.71815
X21.09898 Y14.83898
X21.00079 Y15.01589
X20.82878 Y15.22722
X20.61775 Y15.39958
X20.37633 Y15.52595
X20.11438 Y15.60108
X19.84277 Y15.62201
X19.50427 Y15.57014
X19.25131 Y15.46887
X19.02395 Y15.31876
X18.83142 Y15.12592
X18.68164 Y14.89826
X18.60402 Y14.71139
X18.60744 Y12.11468
X18.72497 Y11.92123
X18.85677 Y11.76769
X19.08057 Y11.58321
X19.33693 Y11.44752
X19.70231 Y11.35296
X19.99228 Y11.34714
X20.19228 Y11.37777
X20.46726 Y11.47013
X20.71798 Y11.61592
X20.99154 Y11.87594
X21.14742 Y12.11463
X21.14412 Y14.93690
X21.02659 Y15.13034
X20.89479 Y15.28388
X20.67099 Y15.46837
X20.41463 Y15.60405
X20.13617 Y15.68531
X19.84719 Y15.70888
X19.55928 Y15.67380
X19.20528 Y15.54269
X18.96404 Y15.38180
X18.76002 Y15.17563
X18.60414 Y14.93695
X18.60404 Y12.74815
G04 P0 ( dwell for no time -- G64 should not smooth over this point )
G00 Z3.00000 ( retract )

G00 X21.32923 Y12.76700 ( rapid move to begin. )
F50.00000
G01 Z-0.15000
G04 P0 ( dwell for no time -- G64 should not smooth over this point )
F100.00000
X21.32923 Y12.76700
X21.34970 Y12.56570
X21.41384 Y12.35542
X21.52903 Y12.14790
X21.67358 Y11.98222
X21.83357 Y11.85836
X22.04668 Y11.75384
X22.25996 Y11.70048
X22.46202 Y11.69022
X22.69664 Y11.72616
X22.90218 Y11.80419
X23.08780 Y11.92199
X23.24594 Y12.07475
X23.36154 Y12.24081
X23.44985 Y12.44216
X23.49763 Y12.67439
X23.50276 Y14.27550
X23.48186 Y14.48587
X23.41079 Y14.71233
X23.31259 Y14.88925
X23.17073 Y15.05722
X22.98305 Y15.20253
X22.78488 Y15.29773
X22.57160 Y15.35109
X22.35196 Y15.36047
X22.15196 Y15.32983
X21.94518 Y15.25513
X21.75768 Y15.14035
X21.59710 Y14.99018
X21.46149 Y14.79537
X21.37645 Y14.59262
X21.33393 Y14.37718
X21.32923 Y12.76700
X21.24269 Y12.75819
X21.27025 Y12.52240
X21.34470 Y12.29702
X21.44290 Y12.12011
X21.62032 Y11.91343
X21.81021 Y11.77094
X21.99187 Y11.68183
X22.25555 Y11.61358
X22.49278 Y11.60510
X22.69278 Y11.63573
X22.94820 Y11.73035
X23.14775 Y11.85892
X23.29441 Y11.99832
X23.43294 Y12.19110
X23.52981 Y12.40787
X23.58463 Y12.67411
X23.58976 Y14.27523
X23.56839 Y14.49468
X23.48686 Y14.75455
X23.38866 Y14.93146
X23.23675 Y15.11388
X23.02136 Y15.28063
X22.80667 Y15.38195
X22.57602 Y15.43799
X22.37396 Y15.44825
X22.10469 Y15.40700
X21.88336 Y15.32122
X21.68382 Y15.19265
X21.53716 Y15.05325
X21.39863 Y14.86047
X21.30175 Y14.64370
X21.24694 Y14.37746
X21.24269 Y12.75819
X21.15613 Y12.74940
X21.18725 Y12.49636
X21.24783 Y12.30332
X21.36685 Y12.07790
X21.56708 Y11.84462
X21.72707 Y11.72077
X21.95356 Y11.60373
X22.19898 Y11.53469
X22.50594 Y11.51912
X22.75709 Y11.56299
X22.94683 Y11.63327
X23.20766 Y11.79588
X23.38874 Y11.97533
X23.50434 Y12.14140
X23.60975 Y12.37355
X23.67162 Y12.67383
X23.67675 Y14.27495
X23.65496 Y14.50347
X23.56291 Y14.79676
X23.43456 Y15.01701
X23.30276 Y15.17055
X23.10449 Y15.33080
X22.82847 Y15.46618
X22.58044 Y15.52485
X22.32562 Y15.53245
X22.07447 Y15.48858
X21.88473 Y15.41830
X21.66563 Y15.28800
X21.47724 Y15.11630
X21.30160 Y14.86397
X21.20602 Y14.62765
X21.15994 Y14.37774
X21.14722 Y12.33342
X21.19258 Y12.21259
X21.29078 Y12.03568
X21.51381 Y11.77584
X21.73358 Y11.61473
X21.91524 Y11.52562
X22.24673 Y11.43982
X22.51912 Y11.43312
X22.71912 Y11.46375
X23.04025 Y11.58270
X23.21196 Y11.68973
X23.41427 Y11.87221
X23.57574 Y12.09171
X23.68755 Y12.34018
X23.68435 Y14.71815
X23.63898 Y14.83898
X23.54079 Y15.01589
X23.36878 Y15.22722
X23.15775 Y15.39958
X22.91633 Y15.52595
X22.65438 Y15.60108
X22.38277 Y15.62201
X22.04427 Y15.57014
X21.79131 Y15.46887
X21.56395 Y15.31876
X21.37142 Y15.12592
X21.22164 Y14.89826
X21.14402 Y14.71139
X21.14744 Y12.11468
X21.26497 Y11.92123
X21.39677 Y11.76769
X21.62057 Y11.58321
X21.87693 Y11.44752
X22.24231 Y11.35296
X22.53228 Y11.34714
X22.73228 Y11.37777
X23.00726 Y11.47013
X23.25798 Y11.61592
X23.53154 Y11.87594
X23.68742 Y12.11463
X23.68412 Y14.93690
X23.56659 Y15.13034
X23.43479 Y15.28388
X23.21099 Y15.46837
X22.95463 Y15.60405
X22.67617 Y15.68531
X22.38719 Y15.70888
X22.09928 Y15.67380
X21.74528 Y15.54269
X21.50404 Y15.38180
X21.30002 Y15.17563
X21.14414 Y14.93695
X21.14404 Y12.74815
G04 P0 ( dwell for no time -- G64 should not smooth over this point )
G00 Z3.00000 ( retract )

G00 X23.86923 Y12.76700 ( rapid move to begin. )
F50.00000
G01 Z-0.15000
G04 P0 ( dwell for no time -- G64 should not smooth over this point )
F100.00000
X23.86923 Y12.76700
X23.88970 Y12.56570
X23.95384 Y12.35542
X24.06903 Y12.14790
X24.21358 Y11.98222
X24.37357 Y11.85836
X24.58668 Y11.75384
X24.79996 Y11.70048
X25.00202 Y11.69022
X25.23664 Y11.72616
X25.44218 Y11.80419
X25.62780 Y11.92199
X25.78594 Y12.07475
X25.90154 Y12.24081
X25.98985 Y12.44216
X26.03763 Y12.67439
X26.04276 Y14.27550
X26.02186 Y14.48587
X25.95079 Y14.71233
X25.85259 Y14.88925
X25.71073 Y15.05722
X25.52305 Y15.20253
X25.32488 Y15.29773
X25.11160 Y15.35109
X24.89196 Y15.36047
X24.69196 Y15.32983
X24.48518 Y15.25513
X24.29768 Y15.14035
X24.13710 Y14.99018
X24.00149 Y14.79537
X23.91645 Y14.59262
X23.87393 Y14.37718
X23.86923 Y12.76700
X23.78269 Y12.75819
X23.81025 Y12.52240
X23.88470 Y12.29702
X23.98290 Y12.12011
X24.16032 Y11.91343
X24.35021 Y11.77094
X24.53187 Y11.68183
X24.79555 Y11.61358
X25.03278 Y11.60510
X25.23278 Y11.63573
X25.48820 Y11.73035
X25.68775 Y11.85892
X25.83441 Y11.99832
X25.97294 Y12.19110
X26.06981 Y12.40787
X26.12463 Y12.67411
X26.12976 Y14.27523
X26.10839 Y14.49468
X26.02686 Y14.75455
X25.92866 Y14.93146
X25.77675 Y15.11388
X25.56136 Y15.28063
X25.34667 Y15.38195
X25.11602 Y15.43799
X24.91396 Y15.44825
X24.64469 Y15.40700
X24.42336 Y15.32122
X24.22382 Y15.19265
X24.07716 Y15.05325
X23.93863 Y14.86047
X23.84175 Y14.64370
X23.78694 Y14.37746
X23.78269 Y12.75819
X23.69613 Y12.74940
X23.72725 Y12.49636
X23.78783 Y12.30332
X23.90685 Y12.07790
X24.10708 Y11.84462
X24.26707 Y11.72077
X24.49356 Y11.60373
X24.73898 Y11.53469
X25.04594 Y11.51912
X25.29709 Y11.56299
X25.48683 Y11.63327
X25.74766 Y11.79588
X25.92874 Y11.97533
X26.04434 Y12.14140
X26.14975 Y12.37355
X26.21162 Y12.67383
X26.21675 Y14.27495
X26.19496 Y14.50347
X26.10291 Y14.79676
X25.97456 Y15.01701
X25.84276 Y15.17055
X25.64449 Y15.33080
X25.36847 Y15.46618
X25.12044 Y15.52485
X24.86562 Y15.53245
X24.61447 Y15.48858
X24.42473 Y15.41830
X24.20563 Y15.28800
X24.01724 Y15.11630
X23.84160 Y14.86397
X23.74602 Y14.62765
X23.69994 Y14.37774
X23.68722 Y12.33342
X23.73258 Y12.21259
X23.83078 Y12.03568
X24.05381 Y11.77584
X24.27358 Y11.61473
X24.45524 Y11.52562
X24.78673 Y11.43982
X25.05912 Y11.43312
X25.25912 Y11.46375
X25.58025 Y11.58270
X25.75196 Y11.68973
X25.95427 Y11.87221
X26.11574 Y12.09171
X26.22755 Y12.34018
X26.22435 Y14.71815
X26.17898 Y14.83898
X26.08079 Y15.01589
X25.90878 Y15.22722
X25.69775 Y15.39958
X25.45633 Y15.52595
X25.19438 Y15.60108
X24.92277 Y15.62201
X24.58427 Y15.57014
X24.33131 Y15.46887
X24.10395 Y15.31876
X23.91142 Y15.12592
X23.76164 Y14.89826
X23.68402 Y14.71139
X23.68744 Y12.11468
X23.80497 Y11.92123
X23.93677 Y11.76769
X24.16057 Y11.58321
X24.41693 Y11.44752
X24.78231 Y11.35296
X25.07228 Y11.34714
X25.27228 Y11.37777
X25.54726 Y11.47013
X25.79798 Y11.61592
X26.07154 Y11.87594
X26.22742 Y12.11463
X26.22412 Y14.93690
X26.10659 Y15.13034
X25.97479 Y15.28388
X25.75099 Y15.46837
X25.49463 Y15.60405
X25.21617 Y15.68531
X24.92719 Y15.70888
X24.63928 Y15.67380
X24.28528 Y15.54269
X24.04404 Y15.38180
X23.84002 Y15.17563
X23.68414 Y14.93695
X23.68404 Y12.74815
G04 P0 ( dwell for no time -- G64 should not smooth over this point )
G00 Z3.00000 ( retract )

G00 X26.40923 Y12.76700 ( rapid move to begin. )
F50.00000
G01 Z-0.15000
G04 P0 ( dwell for no time -- G64 should not smooth over this point )
F100.00000
X26.40923 Y12.76700
X26.42970 Y12.56570
X26.49384 Y12.35542
X26.60903 Y12.14790
X26.75358 Y11.98222
X26.91357 Y11.85836
X27.12668 Y11.75384
X27.33996 Y11.70048
X27.54202 Y11.69022
X27.77664 Y11.72616
X27.98218 Y11.80419
X28.16780 Y11.92199
X28.32594 Y12.07475
X28.44154 Y12.24081
X28.52985 Y12.44216
X28.57763 Y12.67439
X28.58276 Y14.27550
X28.56186 Y14.48587
X28.49079 Y14.71233
X28.39259 Y14.88925
X28.25073 Y15.05722
X28.06305 Y15.20253
X27.86488 Y15.29773
X27.65160 Y15.35109
X27.43196 Y15.36047
X27.23196 Y15.32983
X27.02518 Y15.25513
X26.83768 Y15.14035
X26.67710 Y14.99018
X26.54149 Y14.79537
X26.45645 Y14.59262
X26.41393 Y14.37718
X26.40923 Y12.76700
X26.32269 Y12.75819
X26.35025 Y12.52240
X26.42470 Y12.29702
X26.52290 Y12.12011
X26.70032 Y11.91343
X26.89021 Y11.77094
X27.07187 Y11.68183
X27.33555 Y11.61358
X27.57278 Y11.60510
X27.77278 Y11.63573
X28.02820 Y11.73035
X28.22775 Y11.85892
X28.37441 Y11.99832
X28.51294 Y12.19110
X28.60981 Y12.40787
X28.66463 Y12.67411
X28.66976 Y14.27523
X28.64839 Y14.49468
X28.56686 Y14.75455
X28.46866 Y14.93146
X28.31675 Y15.11388
X28.10136 Y15.28063
X27.88667 Y15.38195
X27.65602 Y15.43799
X27.45396 Y15.44825
X27.18469 Y15.40700
X26.96336 Y15.32122
X26.76382 Y15.19265
X26.61716 Y15.05325
X26.47863 Y14.86047
X26.38175 Y14.64370
X26.32694 Y14.37746
X26.32269 Y12.75819
X26.23613 Y12.74940
X26.26725 Y12.49636
X26.32783 Y12.30332
X26.44685 Y12.07790
X26.64708 Y11.84462
X26.80707 Y11.72077
X27.03356 Y11.60373
X27.27898 Y11.53469
X27.58594 Y11.51912
X27.83709 Y11.56299
X28.02683 Y11.63327
X28.28766 Y11.79588
X28.46874 Y11.97533
X28.58434 Y12.14140
X28.68975 Y12.37355
X28.75162 Y12.67383
X28.75675 Y14.27495
X28.73496 Y14.50347
X28.64291 Y14.79676
X28.51456 Y15.01701
X28.38276 Y15.17055
X28.18449 Y15.33080
X27.90847 Y15.46618
X27.66044 Y15.52485
X27.40562 Y15.53245
X27.15447 Y15.48858
X26.96473 Y15.41830
X26.74563 Y15.28800
X26.55724 Y15.11630
X26.38160 Y14.86397
X26.28602 Y14.62765
X26.23994 Y14.37774
X26.22722 Y12.33342
X26.27258 Y12.21259
X26.37078 Y12.03568
X26.59381 Y11.77584
X26.81358 Y11.61473
X26.99524 Y11.52562
X27.32673 Y11.43982
X27.59912 Y11.43312
X27.79912 Y11.46375
X28.12025 Y11.58270
X28.29196 Y11.68973
X28.49427 Y11.87221
X28.65574 Y12.09171
X28.76755 Y12.34018
X28.76435 Y14.71815
X28.71898 Y14.83898
X28.62079 Y15.01589
X28.44878 Y15.22722
X28.23775 Y15.39958
X27.99633 Y15.52595
X27.73438 Y15.60108
X27.46277 Y15.62201
X27.12427 Y15.57014
X26.87131 Y15.46887
X26.64395 Y15.31876
X26.45142 Y15.12592
X26.30164 Y14.89826
X26.22402 Y14.71139
X26.22744 Y12.11468
X26.34497 Y11.92123
X26.47677 Y11.76769
X26.70057 Y11.58321
X26.95693 Y11.44752
X27.32231 Y11.35296
X27.61228 Y11.34714
X27.81228 Y11.37777
X28.08726 Y11.47013
X28.33798 Y11.61592
X28.61154 Y11.87594
X28.76742 Y12.11463
X28.76412 Y14.93690
X28.64659 Y15.13034
X28.51479 Y15.28388
X28.29099 Y15.46837
X28.03463 Y15.60405
X27.75617 Y15.68531
X27.46719 Y15.70888
X27.17928 Y15.67380
X26.82528 Y15.54269
X26.58404 Y15.38180
X26.38002 Y15.17563
X26.22414 Y14.93695
X26.22404 Y12.74815
G04 P0 ( dwell for no time -- G64 should not smooth over this point )
G00 Z3.00000 ( retract )

G00 X28.94923 Y12.76700 ( rapid move to begin. )
F50.00000
G01 Z-0.15000
G04 P0 ( dwell for no time -- G64 should not smooth over this point )
F100.00000
X28.94923 Y12.76700
X28.96970 Y12.56570
X29.03384 Y12.35542
X29.14903 Y12.14790
X29.29358 Y11.98222
X29.45357 Y11.85836
X29.66668 Y11.75384
X29.87996 Y11.70048
X30.08202 Y11.69022
X30.31664 Y11.72616
X30.52218 Y11.80419
X30.70780 Y11.92199
X30.86594 Y12.07475
X30.98154 Y12.24081
X31.06985 Y12.44216
X31.11763 Y12.67439
X31.12276 Y14.27550
X31.10186 Y14.48587
X31.03079 Y14.71233
X30.93259 Y14.88925
X30.79073 Y15.05722
X30.60305 Y15.20253
X30.40488 Y15.29773
X30.19160 Y15.35109
X29.97196 Y15.36047
X29.77196 Y15.32983
X29.56518 Y15.25513
X29.37768 Y15.14035
X29.21710 Y14.99018
X29.08149 Y14.79537
X28.99645 Y14.59262
X28.95393 Y14.37718
X28.94923 Y12.76700
X28.86269 Y12.75819
X28.89025 Y12.52240
X28.96470 Y12.29702
X29.06290 Y12.12011
X29.24032 Y11.91343
X29.43021 Y11.77094
X29.61187 Y11.68183
X29.87555 Y11.61358
X30.11278 Y11.60510
X30.31278 Y11.63573
X30.56820 Y11.73035
X30.76775 Y11.85892
X30.91441 Y11.99832
X31.05294 Y12.19110
X31.14981 Y12.40787
X31.20463 Y12.67411
X31.20976 Y14.27523
X31.18839 Y14.49468
X31.10686 Y14.75455
X31.00866 Y14.93146
X30.85675 Y15.11388
X30.64136 Y15.28063
X30.42667 Y15.38195
X30.19602 Y15.43799
X29.99396 Y15.44825
X29.72469 Y15.40700
X29.50336 Y15.32122
X29.30382 Y15.19265
X29.15716 Y15.05325
X29.01863 Y14.86047
X28.92175 Y14.64370
X28.86694 Y14.37746
X28.86269 Y12.75819
X28.77613 Y12.74940
X28.80725 Y12.49636
X28.86783 Y12.30332
X28.98685 Y12.07790
X29.18708 Y11.84462
X29.34707 Y11.72077
X29.57356 Y11.60373
X29.81898 Y11.53469
X30.12594 Y11.51912
X30.37709 Y11.56299
X30.56683 Y11.63327
X30.82766 Y11.79588
X31.00874 Y11.97533
X31.12434 Y12.14140
X31.22975 Y12.37355
X31.29162 Y12.67383
X31.29675 Y14.27495
X31.27496 Y14.50347
X31.18291 Y14.79676
X31.05456 Y15.01701
X30.92276 Y15.17055
X30.72449 Y15.33080
X30.44847 Y15.46618
X30.20044 Y15.52485
X29.94562 Y15.53245
X29.69447 Y15.48858
X29.50473 Y15.41830
X29.28563 Y15.28800
X29.09724 Y15.11630
X28.92160 Y14.86397
X28.82602 Y14.62765
X28.77994 Y14.37774
X28.76722 Y12.33342
X28.81258 Y12.21259
X28.91078 Y12.03568
X29.13381 Y11.77584
X29.35358 Y11.61473
X29.53524 Y11.52562
X29.86673 Y11.43982
X30.13912 Y11.43312
X30.33912 Y11.46375
X30.66025 Y11.58270
X30.83196 Y11.68973
X31.03427 Y11.87221
X31.19574 Y12.09171
X31.30755 Y12.34018
X31.30435 Y14.71815
X31.25898 Y14.83898
X31.16079 Y15.01589
X30.98878 Y15.22722
X30.77775 Y15.39958
X30.53633 Y15.52595
X30.27438 Y15.60108
X30.00277 Y15.62201
X29.66427 Y15.57014
X29.41131 Y15.46887
X29.18395 Y15.31876
X28.99142 Y15.12592
X28.84164 Y14.89826
X28.76402 Y14.71139
X28.76744 Y12.11468
X28.88497 Y11.92123
X29.01677 Y11.76769
X29.24057 Y11.58321
X29.49693 Y11.44752
X29.86231 Y11.35296
X30.15228 Y11.34714
X30.35228 Y11.37777
X30.62726 Y11.47013
X30.87798 Y11.61592
X31.15154 Y11.87594
X31.30742 Y12.11463
X31.30412 Y14.93690
X31.18659 Y15.13034
X31.05479 Y15.28388
X30.83099 Y15.46837
X30.57463 Y15.60405
X30.29617 Y15.68531
X30.00719 Y15.70888
X29.71928 Y15.67380
X29.36528 Y15.54269
X29.12404 Y15.38180
X28.92002 Y15.17563
X28.76414 Y14.93695
X28.76404 Y12.74815
G04 P0 ( dwell for no time -- G64 should not smooth over this point )
G00 Z3.00000 ( retract )

G00 X31.48923 Y12.76700 ( rapid move to begin. )
F50.00000
G01 Z-0.15000
G04 P0 ( dwell for no time -- G64 should not smooth over this point )
F100.00000
X31.48923 Y12.76700
X31.50970 Y12.56570
X31.57384 Y12.35542
X31.68903 Y12.14790
X31.83358 Y11.98222
X31.99357 Y11.85836
X32.20668 Y11.75384
X32.41996 Y11.70048
X32.62202 Y11.69022
X32.85664 Y11.72616
X33.06218 Y11.80419
X33.24780 Y11.92199
X33.40594 Y12.07475
X33.52154 Y12.24081
X33.60985 Y12.44216
X33.65763 Y12.67439
X33.66276 Y14.27550
X33.64186 Y14.48587
X33.57079 Y14.71233
X33.47259 Y14.88925
X33.33073 Y15.05722
X33.14305 Y15.20253
X32.94488 Y15.29773
X32.73160 Y15.35109
X32.51196 Y15.36047
X32.31196 Y15.32983
X32.10518 Y15.25513
X31.91768 Y15.14035
X31.75710 Y14.99018
X31.62149 Y14.79537
X31.53645 Y14.59262
X31.49393 Y14.37718
X31.48923 Y12.76700
X31.40269 Y12.75819
X31.43025 Y12.52240
X31.50470 Y12.29702
X31.60290 Y12.12011
X31.78032 Y11.91343
X31.97021 Y11.77094
X32.15187 Y11.68183
X32.41555 Y11.61358
X32.65278 Y11.60510
X32.85278 Y11.63573
X33.10820 Y11.73035
X33.30775 Y11.85892
X33.45441 Y11.99832
X33.59294 Y12.19110
X33.68981 Y12.40787
X33.74463 Y12.67411
X33.74976 Y14.27523
X33.72839 Y14.49468
X33.64686 Y14.75455
X33.54866 Y14.93146
X33.39675 Y15.11388
X33.18136 Y15.28063
X32.96667 Y15.38195
X32.73602 Y15.43799
X32.53396 Y15.44825
X32.26469 Y15.40700
X32.04336 Y15.32122
X31.84382 Y15.19265
X31.69716 Y15.05325
X31.55863 Y14.86047
X31.46175 Y14.64370
X31.40694 Y14.37746
X31.40269 Y12.75819
X31.31613 Y12.74940
X31.34725 Y12.49636
X31.40783 Y12.30332
X31.52685 Y12.07790
X31.72708 Y11.84462
X31.88707 Y11.72077
X32.11356 Y11.60373
X32.35898 Y11.53469
X32.66594 Y11.51912
X32.91709 Y11.56299
X33.10683 Y11.63327
X33.36766 Y11.79588
X33.54874 Y11.97533
X33.66434 Y12.14140
X33.76975 Y12.37355
X33.83162 Y12.67383
X33.83675 Y14.27495
X33.81496 Y14.50347
X33.72291 Y14.79676
X33.59456 Y15.01701
X33.46276 Y15.17055
X33.26449 Y15.33080
X32.98847 Y15.46618
X32.74044 Y15.52485
X32.48562 Y15.53245
X32.23447 Y15.48858
X32.04473 Y15.41830
X31.82563 Y15.28800
X31.63724 Y15.11630
X31.46160 Y14.86397
X31.36602 Y14.62765
X31.31994 Y14.37774
X31.30722 Y12.33342
X31.35258 Y12.21259
X31.45078 Y12.03568
X31.67381 Y11.77584
X31.89358 Y11.61473
X32.07524 Y11.52562
X32.40673 Y11.43982
X32.67912 Y11.43312
X32.87912 Y11.46375
X33.20025 Y11.58270
X33.37196 Y11.68973
X33.57427 Y11.87221
X33.73574 Y12.09171
X33.84755 Y12.34018
X33.84435 Y14.71815
X33.79898 Y14.83898
X33.70079 Y15.01589
X33.52878 Y15.22722
X33.31775 Y15.39958
X33.07633 Y15.52595
X32.81438 Y15.60108
X32.54277 Y15.62201
X32.20427 Y15.57014
X31.95131 Y15.46887
X31.72395 Y15.31876
X31.53142 Y15.12592
X31.38164 Y14.89826
X31.30402 Y14.71139
X31.30744 Y12.11468
X31.42497 Y11.92123
X31.55677 Y11.76769
X31.78057 Y11.58321
X32.03693 Y11.44752
X32.40231 Y11.35296
X32.69228 Y11.34714
X32.89228 Y11.37777
X33.16726 Y11.47013
X33.41798 Y11.61592
X33.69154 Y11.87594
X33.84742 Y12.11463
X33.84412 Y14.93690
X33.72659 Y15.13034
X33.59479 Y15.28388
X33.37099 Y15.46837
X33.11463 Y15.60405
X32.83617 Y15.68531
X32.54719 Y15.70888
X32.25928 Y15.67380
X31.90528 Y15.54269
X31.66404 Y15.38180
X31.46002 Y15.17563
X31.30414 Y14.93695
X31.30404 Y12.74815
G04 P0 ( dwell for no time -- G64 should not smooth over this point )
G00 Z3.00000 ( retract )

G00 X34.02923 Y12.76700 ( rapid move to begin. )
F50.00000
G01 Z-0.15000
G04 P0 ( dwell for no time -- G64 should not smooth over this point )
F100.00000
X34.02923 Y12.76700
X34.04970 Y12.56570
X34.11384 Y12.35542
X34.22903 Y12.14790
X34.37358 Y11.98222
X34.53357 Y11.85836
X34.74668 Y11.75384
X34.95996 Y11.70048
X35.16202 Y11.69022
X35.39664 Y11.72616
X35.60218 Y11.80419
X35.78780 Y11.92199
X35.94594 Y12.07475
X36.06154 Y12.24081
X36.14985 Y12.44216
X36.19763 Y12.67439
X36.20276 Y14.27550
X36.18186 Y14.48587
X36.11079 Y14.71233
X36.01259 Y14.88925
X35.87073 Y15.05722
X35.68305 Y15.20253
X35.48488 Y15.29773
X35.27160 Y15.35109
X35.05196 Y15.36047
X34.85196 Y15.32983
X34.64518 Y15.25513
X34.45768 Y15.14035
X34.29710 Y14.99018
X34.16149 Y14.79537
X34.07645 Y14.59262
X34.03393 Y14.37718
X34.02923 Y12.76700
X33.94269 Y12.75819
X33.97025 Y12.52240
X34.04470 Y12.29702
X34.14290 Y12.12011
X34.32032 Y11.91343
X34.51021 Y11.77094
X34.69187 Y11.68183
X34.95555 Y11.61358
X35.19278 Y11.60510
X35.39278 Y11.63573
X35.64820 Y11.73035
X35.84775 Y11.85892
X35.99441 Y11.99832
X36.13294 Y12.19110
X36.22981 Y12.40787
X36.28463 Y12.67411
X36.28976 Y14.27523
X36.26839 Y14.49468
X36.18686 Y14.75455
X36.08866 Y14.93146
X35.93675 Y15.11388
X35.72136 Y15.28063
X35.50667 Y15.38195
X35.27602 Y15.43799
X35.07396 Y15.44825
X34.80469 Y15.40700
X34.58336 Y15.32122
X34.38382 Y15.19265
X34.23716 Y15.05325
X34.09863 Y14.86047
X34.00175 Y14.64370
X33.94694 Y14.37746
X33.94269 Y12.75819
X33.85613 Y12.74940
X33.88725 Y12.49636
X33.94783 Y12.30332
X34.06685 Y12.07790
X34.26708 Y11.84462
X34.42707 Y11.72077
X34.65356 Y11.60373
X34.89898 Y11.53469
X35.20594 Y11.51912
X35.45709 Y11.56299
X35.64683 Y11.63327
X35.90766 Y11.79588
X36.08874 Y11.97533
X36.20434 Y12.14140
X36.30975 Y12.37355
X36.37162 Y12.67383
X36.37675 Y14.27495
X36.35496 Y14.50347
X36.26291 Y14.79676
X36.13456 Y15.01701
X36.00276 Y15.17055
X35.80449 Y15.33080
X35.52847 Y15.46618
X35.28044 Y15.52485
X35.02562 Y15.53245
X34.77447 Y15.48858
X34.58473 Y15.41830
X34.36563 Y15.28800
X34.17724 Y15.11630
X34.00160 Y14.86397
X33.90602 Y14.62765
X33.85994 Y14.37774
X33.84722 Y12.33342
X33.89258 Y12.21259
X33.99078 Y12.03568
X34.21381 Y11.77584
X34.43358 Y11.61473
X34.61524 Y11.52562
X34.94673 Y11.43982
X35.21912 Y11.43312
X35.41912 Y11.46375
X35.74025 Y11.58270
X35.91196 Y11.68973
X36.11427 Y11.87221
X36.27574 Y12.09171
X36.38755 Y12.34018
X36.38435 Y14.71815
X36.33898 Y14.83898
X36.24079 Y15.01589
X36.06878 Y15.22722
X35.85775 Y15.39958
X35.61633 Y15.52595
X35.35438 Y15.60108
X35.08277 Y15.62201
X34.74427 Y15.57014
X34.49131 Y15.46887
X34.26395 Y15.31876
X34.07142 Y15.12592
X33.92164 Y14.89826
X33.84402 Y14.71139
X33.84744 Y12.11468
X33.96497 Y11.92123
X34.09677 Y11.76769
X34.32057 Y11.58321
X34.57693 Y11.44752
X34.94231 Y11.35296
X35.23228 Y11.34714
X35.43228 Y11.37777
X35.70726 Y11.47013
X35.95798 Y11.61592
X36.23154 Y11.87594
X36.38742 Y12.11463
X36.38412 Y14.93690
X36.26659 Y15.13034
X36.13479 Y15.28388
X35.91099 Y15.46837
X35.65463 Y15.60405
X35.37617 Y15.68531
X35.08719 Y15.70888
X34.79928 Y15.67380
X34.44528 Y15.54269
X34.20404 Y15.38180
X34.00002 Y15.17563
X33.84414 Y14.93695
X33.84404 Y12.74815
G04 P0 ( dwell for no time -- G64 should not smooth over this point )
G00 Z3.00000 ( retract )

G00 X36.56923 Y12.76700 ( rapid move to begin. )
F50.00000
G01 Z-0.15000
G04 P0 ( dwell for no time -- G64 should not smooth over this point )
F100.00000
X36.56923 Y12.76700
X36.58970 Y12.56570
X36.65384 Y12.35542
X36.76903 Y12.14790
X36.91358 Y11.98222
X37.07357 Y11.85836
X37.28668 Y11.75384
X37.49996 Y11.70048
X37.70202 Y11.69022
X37.93664 Y11.72616
X38.14218 Y11.80419
X38.32780 Y11.92199
X38.48594 Y12.07475
X38.60154 Y12.24081
X38.68985 Y12.44216
X38.73763 Y12.67439
X38.74276 Y14.27550
X38.72186 Y14.48587
X38.65079 Y14.71233
X38.55259 Y14.88925
X38.41073 Y15.05722
X38.22305 Y15.20253
X38.02488 Y15.29773
X37.81160 Y15.35109
X37.59196 Y15.36047
X37.39196 Y15.32983
X37.18518 Y15.25513
X36.99768 Y15.14035
X36.83710 Y14.99018
X36.70149 Y14.79537
X36.61645 Y14.59262
X36.57393 Y14.37718
X36.56923 Y12.76700
X36.48269 Y12.75819
X36.51025 Y12.52240
X36.58470 Y12.29702
X36.68290 Y12.12011
X36.86032 Y11.91343
X37.05021 Y11.77094
X37.23187 Y11.68183
X37.49555 Y11.61358
X37.73278 Y11.60510
X37.93278 Y11.63573
X38.18820 Y11.73035
X38.38775 Y11.85892
X38.53441 Y11.99832
X38.67294 Y12.19110
X38.76981 Y12.40787
X38.82463 Y12.67411
X38.82976 Y14.27523
X38.80839 Y14.49468
X38.72686 Y14.75455
X38.62866 Y14.93146
X38.47675 Y15.11388
X38.26136 Y15.28063
X38.04667 Y15.38195
X37.81602 Y15.43799
X37.61396 Y15.44825
X37.34469 Y15.40700
X37.12336 Y15.32122
X36.92382 Y15.19265
X36.77716 Y15.05325
X36.63863 Y14.86047
X36.54175 Y14.64370
X36.48694 Y14.37746
X36.48269 Y12.75819
X36.39613 Y12.74940
X36.42725 Y12.49636
X36.48783 Y12.30332
X36.60685 Y12.07790
X36.80708 Y11.84462
X36.96707 Y11.72077
X37.19356 Y11.60373
X37.49113 Y11.52672
X37.74594 Y11.51912
X37.94594 Y11.54975
X38.23423 Y11.65654
X38.39636 Y11.77891
X38.58122 Y11.94907
X38.71485 Y12.09903
X38.76996 Y12.18760
X38.86554 Y12.42392
X38.91162 Y12.67383
X38.91675 Y14.27495
X38.88432 Y14.55521
X38.82374 Y14.74825
X38.70471 Y14.97367
X38.50448 Y15.20695
X38.34449 Y15.33080
X38.11800 Y15.44784
X37.87258 Y15.51688
X37.56562 Y15.53245
X37.31447 Y15.48858
X37.12473 Y15.41830
X36.90563 Y15.28800
X36.71724 Y15.11630
X36.54160 Y14.86397
X36.44602 Y14.62765
X36.39994 Y14.37774
X36.38396 Y12.48277
X36.38722 Y12.33342
X36.40482 Y12.27726
X36.57099 Y11.97790
X36.75381 Y11.77584
X36.91381 Y11.65199
X37.22130 Y11.50119
X37.48673 Y11.43982
X37.68879 Y11.42956
X37.89077 Y11.45326
X37.95589 Y11.48473
X38.19001 Y11.62468
X38.39636 Y11.77891
X38.61541 Y11.98463
X38.78315 Y12.18194
X38.92831 Y12.39080
X38.92760 Y14.56880
X38.92435 Y14.71815
X38.90674 Y14.77431
X38.74058 Y15.07367
X38.55775 Y15.27573
X38.33799 Y15.43684
X38.15633 Y15.52595
X37.89438 Y15.60108
X37.62277 Y15.62201
X37.35244 Y15.58782
X37.03131 Y15.46887
X36.85961 Y15.36184
X36.65729 Y15.17936
X36.46164 Y14.89826
X36.38402 Y14.71139
X36.38744 Y12.11468
X36.50497 Y11.92123
X36.63677 Y11.76769
X36.93527 Y11.53662
X37.19951 Y11.41696
X37.39539 Y11.36627
X37.64576 Y11.34468
X38.01426 Y11.51661
X38.23489 Y11.65549
X38.39636 Y11.77891
X38.61541 Y11.98463
X38.78315 Y12.18194
X38.90235 Y12.35100
X38.92831 Y12.39080
X38.92412 Y14.93690
X38.80659 Y15.13034
X38.67479 Y15.28388
X38.45099 Y15.46837
X38.19463 Y15.60405
X37.91617 Y15.68531
X37.62719 Y15.70888
X37.33928 Y15.67380
X36.98528 Y15.54269
X36.74404 Y15.38180
X36.54002 Y15.17563
X36.38414 Y14.93695
X36.38404 Y12.74815
G04 P0 ( dwell for no time -- G64 should not smooth over this point )
G00 Z3.00000 ( retract )

G00 X36.20314 Y9.53183 ( rapid move to begin. )
F50.00000
G01 Z-0.15000
G04 P0 ( dwell for no time -- G64 should not smooth over this point )
F100.00000
X36.20314 Y9.53183
X28.08030 Y9.53183
X27.97507 Y9.51471
X27.90961 Y9.48509
X27.82724 Y9.41732
X26.25295 Y7.62685
X25.99229 Y7.62685
X25.99229 Y8.28987
X25.97764 Y8.33818
X25.93860 Y8.37023
X23.90530 Y8.37686
X23.85699 Y8.36218
X23.81831 Y8.28987
X23.81998 Y6.27288
X23.85699 Y6.21753
X23.90530 Y6.20288
X25.90530 Y6.20288
X25.95363 Y6.21753
X25.99229 Y6.28987
X25.99229 Y6.95289
X26.45495 Y6.95677
X26.52452 Y6.97488
X26.62269 Y7.03264
X28.23275 Y8.85786
X36.33530 Y8.85786
X36.43540 Y8.87341
X36.50007 Y8.90127
X39.67164 Y11.82992
X39.81782 Y11.75666
X40.03996 Y11.70048
X40.25960 Y11.69111
X40.45960 Y11.72174
X40.68218 Y11.80419
X40.86780 Y11.92199
X41.02594 Y12.07475
X41.15007 Y12.25620
X41.22985 Y12.44216
X41.27585 Y12.65714
X41.28276 Y14.27550
X41.25830 Y14.50311
X41.19079 Y14.71233
X41.08253 Y14.90367
X40.93798 Y15.06936
X40.76305 Y15.20253
X40.56488 Y15.29773
X40.35160 Y15.35109
X40.13196 Y15.36047
X39.91492 Y15.32541
X39.70938 Y15.24739
X39.52376 Y15.12958
X39.36562 Y14.97682
X39.25002 Y14.81076
X39.16171 Y14.60941
X39.11393 Y14.37718
X39.10880 Y12.77607
X39.13326 Y12.54846
X39.21060 Y12.32156
X36.20314 Y9.53183
X36.16900 Y9.61882
X28.08030 Y9.61882
X27.95315 Y9.59888
X27.86087 Y9.55715
X27.76191 Y9.47478
X26.21360 Y7.71385
X26.07929 Y7.71385
X26.07596 Y8.32380
X26.02833 Y8.41288
X25.93926 Y8.46051
X23.90530 Y8.46386
X23.80865 Y8.43452
X23.76065 Y8.38651
X23.73131 Y8.28987
X23.73466 Y6.25591
X23.76065 Y6.19320
X23.80865 Y6.14519
X23.90530 Y6.11588
X25.90530 Y6.11588
X26.00197 Y6.14519
X26.04997 Y6.19320
X26.07596 Y6.25591
X26.07929 Y6.86589
X26.49145 Y6.87509
X26.59905 Y6.91314
X26.68292 Y6.96986
X28.27209 Y8.77087
X36.33530 Y8.77087
X36.45473 Y8.78860
X36.53664 Y8.82233
X36.62366 Y8.88397
X39.68642 Y11.72499
X39.78713 Y11.67526
X40.03555 Y11.61358
X40.27278 Y11.60510
X40.47278 Y11.63573
X40.72820 Y11.73035
X40.92775 Y11.85892
X41.09734 Y12.02504
X41.23003 Y12.22191
X41.30981 Y12.40787
X41.36107 Y12.63962
X41.36976 Y14.27523
X41.34131 Y14.52917
X41.26686 Y14.75455
X41.14855 Y14.96034
X40.99125 Y15.13814
X40.80136 Y15.28063
X40.58667 Y15.38195
X40.35602 Y15.43799
X40.11878 Y15.44647
X39.88469 Y15.40700
X39.66336 Y15.32122
X39.46382 Y15.19265
X39.31716 Y15.05325
X39.16153 Y14.82966
X39.07123 Y14.61015
X39.02694 Y14.37746
X39.02181 Y12.77635
X39.04317 Y12.55689
X39.10639 Y12.34356
X36.16900 Y9.61882
X36.13489 Y9.70582
X28.08030 Y9.70582
X27.93120 Y9.68308
X27.81213 Y9.62921
X27.69658 Y9.53221
X26.17426 Y7.80084
X26.16128 Y8.34077
X26.08985 Y8.47440
X25.95622 Y8.54582
X23.90530 Y8.55085
X23.76032 Y8.50686
X23.68831 Y8.43485
X23.64432 Y8.28987
X23.64934 Y6.23894
X23.68831 Y6.14486
X23.76032 Y6.07285
X23.90530 Y6.02889
X25.90530 Y6.02889
X26.00519 Y6.04875
X26.12231 Y6.14486
X26.16128 Y6.23894
X26.16628 Y6.77890
X26.51340 Y6.79089
X26.63494 Y6.83389
X26.74314 Y6.90709
X28.31144 Y8.68387
X36.33530 Y8.68387
X36.47406 Y8.70376
X36.57322 Y8.74341
X36.68282 Y8.82019
X39.70123 Y11.62006
X39.78309 Y11.58539
X40.03113 Y11.52672
X40.28594 Y11.51912
X40.53709 Y11.56299
X40.72683 Y11.63327
X40.94593 Y11.76357
X41.13432 Y11.93528
X41.28434 Y12.14140
X41.38975 Y12.37355
X41.45162 Y12.67383
X41.45543 Y14.30217
X41.42432 Y14.55521
X41.34291 Y14.79676
X41.21456 Y15.01701
X41.04448 Y15.20695
X40.83966 Y15.35874
X40.60847 Y15.46618
X40.36044 Y15.52485
X40.10562 Y15.53245
X39.85447 Y15.48858
X39.66473 Y15.41830
X39.44563 Y15.28800
X39.25724 Y15.11630
X39.08160 Y14.86397
X38.98602 Y14.62765
X38.93994 Y14.37774
X38.93481 Y12.77663
X38.95660 Y12.54810
X39.00692 Y12.36995
X38.71477 Y12.09895
X38.43369 Y11.81056
X38.24530 Y11.66345
X36.13489 Y9.70582
X36.10075 Y9.79281
X28.08030 Y9.79281
X27.90928 Y9.76726
X27.76341 Y9.70127
X27.63125 Y9.58966
X26.25328 Y8.02246
X26.25328 Y8.28987
X26.22681 Y8.42301
X26.19465 Y8.48319
X26.09864 Y8.57920
X25.97319 Y8.63114
X23.90530 Y8.63785
X23.77215 Y8.61136
X23.71198 Y8.57920
X23.61597 Y8.48319
X23.58381 Y8.42301
X23.55732 Y8.28987
X23.56403 Y6.22198
X23.61597 Y6.09653
X23.65925 Y6.04380
X23.71198 Y6.00052
X23.83743 Y5.94857
X24.28600 Y5.94189
X24.61813 Y6.00303
X24.91899 Y6.01969
X25.26425 Y5.99389
X25.53156 Y5.94189
X25.90530 Y5.94189
X26.03847 Y5.96836
X26.09864 Y6.00052
X26.19465 Y6.09653
X26.24660 Y6.22198
X26.25328 Y6.69190
X26.43468 Y6.69312
X26.57636 Y6.71740
X26.72224 Y6.78339
X26.80336 Y6.84430
X28.35078 Y8.59688
X36.33530 Y8.59688
X36.49339 Y8.61895
X36.60980 Y8.66447
X36.74198 Y8.75642
X39.71718 Y11.51623
X39.95719 Y11.45049
X40.22879 Y11.42956
X40.49912 Y11.46375
X40.61258 Y11.49819
X40.79691 Y11.62014
X40.99879 Y11.78420
X41.18159 Y11.96639
X41.34873 Y12.17099
X41.46785 Y12.34688
X41.46435 Y14.71815
X41.41898 Y14.83898
X41.32079 Y15.01589
X41.09775 Y15.27573
X40.87799 Y15.43684
X40.63026 Y15.55038
X40.36483 Y15.61175
X40.09244 Y15.61845
X39.82427 Y15.57014
X39.57131 Y15.46887
X39.39961 Y15.36184
X39.19729 Y15.17936
X39.03583 Y14.95986
X38.92437 Y14.71815
X38.92831 Y12.39080
X38.74891 Y12.13822
X38.58122 Y11.94907
X38.43369 Y11.81056
X38.19001 Y11.62468
X37.89085 Y11.45331
X36.10075 Y9.79281
X36.06659 Y9.87981
X28.00105 Y9.87460
X27.77895 Y9.80927
X27.59145 Y9.67376
X26.34027 Y8.25316
X26.33191 Y8.37470
X26.26697 Y8.53152
X26.14698 Y8.65151
X25.99016 Y8.71646
X23.82046 Y8.71646
X23.73885 Y8.69172
X23.59773 Y8.59744
X23.50345 Y8.45631
X23.47871 Y8.37470
X23.47871 Y6.20501
X23.50345 Y6.12340
X23.59773 Y5.98228
X23.73885 Y5.88799
X23.82046 Y5.86325
X23.99743 Y5.85490
X24.41582 Y5.97204
X24.67558 Y6.00890
X24.91899 Y6.01969
X25.32503 Y5.98456
X25.59948 Y5.92426
X25.81762 Y5.85490
X25.99016 Y5.86325
X26.07177 Y5.88799
X26.21289 Y5.98228
X26.30718 Y6.12340
X26.34027 Y6.28987
X26.34027 Y6.60491
X26.48431 Y6.61004
X26.59831 Y6.63323
X26.77098 Y6.71133
X26.86359 Y6.78154
X28.39013 Y8.50988
X34.67615 Y8.50988
X35.08575 Y8.54209
X35.46159 Y8.50988
X36.33530 Y8.50988
X36.51269 Y8.53411
X36.64637 Y8.58552
X36.80116 Y8.69264
X39.73849 Y11.41727
X39.93539 Y11.36627
X40.22437 Y11.34269
X40.34319 Y11.35186
X40.50379 Y11.43317
X40.74532 Y11.58331
X40.99879 Y11.78420
X41.14367 Y11.92545
X41.31197 Y12.12217
X41.46785 Y12.34688
X41.46412 Y14.93690
X41.34659 Y15.13034
X41.15099 Y15.34451
X40.91629 Y15.51495
X40.65205 Y15.63461
X40.36925 Y15.69862
X40.07928 Y15.70443
X39.79404 Y15.65173
X39.52528 Y15.54269
X39.35358 Y15.43565
X39.13738 Y15.24241
X38.92414 Y14.93695
X38.92831 Y12.39080
X38.74891 Y12.13822
X38.58122 Y11.94907
X38.43369 Y11.81056
X38.23489 Y11.65549
X38.01426 Y11.51661
X37.64576 Y11.34465
X36.06659 Y9.87981
G04 P0 ( dwell for no time -- G64 should not smooth over this point )
G00 Z3.00000 ( retract )

G00 X41.77003 Y12.28656 ( rapid move to begin. )
F50.00000
G01 Z-0.15000
G04 P0 ( dwell for no time -- G64 should not smooth over this point )
F100.00000
X41.77003 Y12.28656
X37.70471 Y8.22119
X37.59648 Y8.22639
X37.40819 Y8.20544
X37.24411 Y8.15398
X37.07754 Y8.06355
X36.92046 Y7.92871
X36.81518 Y7.79271
X36.73187 Y7.62685
X35.93502 Y7.62685
X35.90225 Y7.71019
X35.81127 Y7.85614
X35.66865 Y8.00620
X35.51211 Y8.11298
X35.35405 Y8.18080
X35.16880 Y8.22068
X35.05648 Y8.22639
X34.86819 Y8.20544
X34.68791 Y8.14702
X34.52308 Y8.05350
X34.38046 Y7.92871
X34.26586 Y7.77775
X34.18405 Y7.60686
X34.13825 Y7.42297
X34.13043 Y7.23366
X34.15649 Y7.06366
X34.22062 Y6.88532
X34.31935 Y6.72358
X34.46197 Y6.57351
X34.61851 Y6.46673
X34.79337 Y6.39366
X34.96182 Y6.35904
X35.07414 Y6.35332
X35.26243 Y6.37428
X35.42651 Y6.42574
X35.59309 Y6.51616
X35.75016 Y6.65101
X35.85544 Y6.78700
X35.93875 Y6.95289
X36.73558 Y6.95289
X36.76837 Y6.86953
X36.85935 Y6.72358
X36.98861 Y6.58499
X37.14312 Y6.47527
X37.33337 Y6.39366
X37.60090 Y6.35299
X37.78523 Y6.37075
X37.96651 Y6.42574
X38.13309 Y6.51616
X38.27804 Y6.63826
X38.39544 Y6.78700
X38.48048 Y6.95637
X38.53237 Y7.15675
X38.54020 Y7.34605
X38.50972 Y7.53310
X38.44225 Y7.71019
X38.32399 Y7.88740
X42.24705 Y11.81051
X42.36668 Y11.75384
X42.57996 Y11.70048
X42.79960 Y11.69111
X43.01664 Y11.72616
X43.22218 Y11.80419
X43.40780 Y11.92199
X43.56594 Y12.07475
X43.69007 Y12.25620
X43.77511 Y12.45895
X43.81763 Y12.67439
X43.82276 Y14.27550
X43.79830 Y14.50311
X43.73079 Y14.71233
X43.63259 Y14.88925
X43.49073 Y15.05722
X43.31799 Y15.19321
X43.12139 Y15.29163
X42.99520 Y15.32607
X41.47062 Y16.85505
X41.52233 Y17.02041
X41.53983 Y17.18673
X41.51855 Y17.38904
X41.45947 Y17.56470
X41.36516 Y17.72424
X41.25325 Y17.84855
X41.09683 Y17.96397
X40.91860 Y18.04177
X40.73692 Y18.07844
X40.56968 Y18.07844
X40.38802 Y18.04177
X40.20984 Y17.96397
X40.05980 Y17.85500
X39.93080 Y17.70953
X39.83974 Y17.54809
X39.78429 Y17.37126
X39.76679 Y17.18673
X39.78429 Y17.02041
X39.83974 Y16.84357
X39.93080 Y16.68213
X40.06689 Y16.53095
X40.20984 Y16.42767
X40.38802 Y16.34990
X40.56968 Y16.31325
X40.74603 Y16.31370
X40.92742 Y16.35226
X40.99203 Y16.38056
X42.17293 Y15.19973
X42.06376 Y15.12958
X41.91710 Y14.99018
X41.79002 Y14.81076
X41.70171 Y14.60941
X41.65571 Y14.39443
X41.64923 Y12.76700
X41.67326 Y12.54846
X41.73384 Y12.35542
X41.77003 Y12.28656
X41.66257 Y12.30213
X37.67119 Y8.31070
X37.38216 Y8.28845
X37.18569 Y8.22309
X37.03532 Y8.13963
X36.85168 Y7.98197
X36.74640 Y7.84598
X36.67764 Y7.71385
X35.99560 Y7.71385
X35.88508 Y7.90216
X35.71836 Y8.07760
X35.54640 Y8.19294
X35.38834 Y8.26076
X35.18630 Y8.30590
X35.04767 Y8.31293
X34.84216 Y8.28845
X34.64569 Y8.22309
X34.46642 Y8.11951
X34.31168 Y7.98197
X34.18775 Y7.81606
X34.09982 Y7.62868
X34.05136 Y7.42739
X34.04445 Y7.22048
X34.07932 Y7.01641
X34.13904 Y6.85512
X34.24554 Y6.67755
X34.38554 Y6.52505
X34.55341 Y6.40387
X34.74229 Y6.31895
X34.97051 Y6.27047
X35.08295 Y6.26678
X35.28846 Y6.29127
X35.48493 Y6.35662
X35.63530 Y6.44009
X35.81894 Y6.59775
X35.92422 Y6.73374
X35.99298 Y6.86589
X36.67502 Y6.86589
X36.78554 Y6.67755
X36.95226 Y6.50211
X37.12422 Y6.38677
X37.28229 Y6.31895
X37.48432 Y6.27382
X37.62295 Y6.26678
X37.82846 Y6.29127
X38.02493 Y6.35662
X38.17530 Y6.44009
X38.33471 Y6.57224
X38.46422 Y6.73374
X38.55859 Y6.91806
X38.61393 Y7.11753
X38.62798 Y7.32406
X38.60011 Y7.52924
X38.53159 Y7.72459
X38.43916 Y7.87953
X42.26460 Y11.70502
X42.34489 Y11.66962
X42.57555 Y11.61358
X42.81278 Y11.60510
X43.04687 Y11.64457
X43.26820 Y11.73035
X43.46775 Y11.85892
X43.63734 Y12.02504
X43.77003 Y12.22191
X43.86033 Y12.44142
X43.90463 Y12.67411
X43.90976 Y14.27523
X43.88131 Y14.52917
X43.80686 Y14.75455
X43.70866 Y14.93146
X43.55675 Y15.11388
X43.37125 Y15.26199
X43.15969 Y15.36974
X43.04453 Y15.40319
X41.56981 Y16.87890
X41.60885 Y17.01131
X41.62635 Y17.17763
X41.60128 Y17.41591
X41.53481 Y17.60821
X41.42980 Y17.78246
X41.31789 Y17.90677
X41.14032 Y18.03930
X40.93669 Y18.12686
X40.73692 Y18.16544
X40.56968 Y18.16544
X40.36994 Y18.12686
X40.18256 Y18.04758
X40.01576 Y17.93110
X39.87682 Y17.78246
X39.76354 Y17.59198
X39.69778 Y17.38035
X39.67934 Y17.19582
X39.70535 Y16.97575
X39.77182 Y16.78345
X39.87682 Y16.60921
X40.01576 Y16.46057
X40.16633 Y16.35234
X40.33537 Y16.27606
X40.53351 Y16.23003
X40.73692 Y16.22625
X40.97281 Y16.27672
X42.03397 Y15.21564
X41.85716 Y15.05325
X41.71863 Y14.86047
X41.62175 Y14.64370
X41.57049 Y14.41195
X41.56181 Y12.77635
X41.59025 Y12.52240
X41.66257 Y12.30213
X41.56137 Y12.32397
X37.63700 Y8.39955
X37.35612 Y8.37145
X37.19204 Y8.31999
X36.99311 Y8.21567
X36.78290 Y8.03523
X36.67761 Y7.89924
X36.62341 Y7.80084
X36.05059 Y7.80084
X35.92661 Y7.98992
X35.76804 Y8.14900
X35.58072 Y8.27288
X35.42265 Y8.34069
X35.20383 Y8.39111
X35.03886 Y8.39949
X34.81612 Y8.37145
X34.60348 Y8.29914
X34.40975 Y8.18552
X34.24290 Y8.03523
X34.10965 Y7.85436
X34.01562 Y7.65050
X33.96449 Y7.43178
X33.95844 Y7.20729
X33.98450 Y7.03729
X34.05745 Y6.82492
X34.17170 Y6.63153
X34.32250 Y6.46513
X34.50373 Y6.33247
X34.70797 Y6.23902
X34.96609 Y6.18360
X35.26286 Y6.19764
X35.52715 Y6.28058
X35.72087 Y6.39419
X35.85138 Y6.50623
X35.99301 Y6.68047
X36.04721 Y6.77890
X36.62001 Y6.77890
X36.74401 Y6.58980
X36.90258 Y6.43071
X37.08991 Y6.30684
X37.24797 Y6.23902
X37.46679 Y6.18860
X37.63177 Y6.18022
X37.85450 Y6.20826
X38.01858 Y6.25972
X38.21751 Y6.36404
X38.39138 Y6.50623
X38.53301 Y6.68047
X38.63669 Y6.87976
X38.69813 Y7.09571
X38.71485 Y7.31966
X38.68612 Y7.54242
X38.61317 Y7.75479
X38.54957 Y7.86691
X42.28289 Y11.60028
X42.51898 Y11.53469
X42.77318 Y11.51646
X43.02594 Y11.54975
X43.26683 Y11.63327
X43.48593 Y11.76357
X43.67432 Y11.93528
X43.84996 Y12.18760
X43.94554 Y12.42392
X43.99162 Y12.67383
X43.99675 Y14.27495
X43.96432 Y14.55521
X43.90374 Y14.74825
X43.78471 Y14.97367
X43.62276 Y15.17055
X43.42449 Y15.33080
X43.19800 Y15.44784
X43.09068 Y15.48112
X41.66902 Y16.90273
X41.69536 Y17.00219
X41.71428 Y17.19582
X41.68403 Y17.44278
X41.62256 Y17.62734
X41.52650 Y17.79655
X41.36325 Y17.98426
X41.18380 Y18.11466
X40.95477 Y18.21195
X40.73692 Y18.25243
X40.56968 Y18.25243
X40.35185 Y18.21195
X40.14718 Y18.12706
X39.96463 Y18.00148
X39.78012 Y17.79655
X39.68406 Y17.62737
X39.62259 Y17.44278
X39.59234 Y17.19582
X39.61126 Y17.00219
X39.69648 Y16.73994
X39.81215 Y16.55101
X39.96463 Y16.39018
X40.12284 Y16.27700
X40.35185 Y16.17972
X40.56968 Y16.13926
X40.76422 Y16.14068
X40.94819 Y16.17832
X41.90646 Y15.22011
X41.76282 Y15.07624
X41.62160 Y14.86397
X41.54182 Y14.67802
X41.48528 Y14.42945
X41.47481 Y12.77663
X41.49660 Y12.54810
X41.56137 Y12.32397
X41.46785 Y12.34688
X41.31197 Y12.12217
X41.14367 Y11.92545
X40.95637 Y11.74683
X40.61256 Y11.49819
X37.60123 Y8.48684
X37.33009 Y8.45446
X37.16601 Y8.40300
X36.95089 Y8.29175
X36.71411 Y8.08847
X36.56918 Y7.88784
X36.09905 Y7.88784
X35.98968 Y8.04986
X35.87119 Y8.17453
X35.67660 Y8.31865
X35.45694 Y8.42065
X35.22133 Y8.47633
X35.03004 Y8.48603
X34.79009 Y8.45446
X34.56126 Y8.37521
X34.35308 Y8.25151
X34.17411 Y8.08847
X34.03154 Y7.89266
X33.93139 Y7.67232
X33.87759 Y7.43620
X33.87246 Y7.19411
X33.91615 Y6.95601
X33.97587 Y6.79472
X34.09789 Y6.58550
X34.25943 Y6.40519
X34.45402 Y6.26107
X34.67368 Y6.15906
X34.96167 Y6.09670
X35.27167 Y6.11111
X35.56936 Y6.20450
X35.77754 Y6.32820
X35.90805 Y6.44024
X36.10144 Y6.69190
X36.57154 Y6.69190
X36.68094 Y6.52985
X36.79943 Y6.40519
X36.99402 Y6.26107
X37.21368 Y6.15906
X37.44929 Y6.10339
X37.64058 Y6.09368
X37.88053 Y6.12525
X38.04462 Y6.17671
X38.25973 Y6.28797
X38.44805 Y6.44024
X38.60179 Y6.62723
X38.71480 Y6.84146
X38.78236 Y7.07389
X38.80174 Y7.31524
X38.77210 Y7.55560
X38.65998 Y7.85426
X42.30572 Y11.50005
X42.56673 Y11.43982
X42.83912 Y11.43312
X43.03912 Y11.46375
X43.29703 Y11.55171
X43.53196 Y11.68973
X43.73427 Y11.87221
X43.92992 Y12.15331
X44.00755 Y12.34018
X44.00435 Y14.71815
X43.95898 Y14.83898
X43.86079 Y15.01589
X43.68878 Y15.22722
X43.47775 Y15.39958
X43.23633 Y15.52595
X43.13544 Y15.55940
X41.76780 Y16.92699
X41.80128 Y17.19582
X41.76676 Y17.46966
X41.70204 Y17.66275
X41.60184 Y17.84006
X41.42147 Y18.04893
X41.22731 Y18.19000
X40.97286 Y18.29704
X40.73692 Y18.33943
X40.56968 Y18.33943
X40.33377 Y18.29704
X40.11180 Y18.20654
X39.91350 Y18.07187
X39.70479 Y17.84006
X39.60458 Y17.66275
X39.52475 Y17.39856
X39.50535 Y17.19582
X39.52475 Y16.99310
X39.62114 Y16.69643
X39.74751 Y16.49280
X39.91347 Y16.31980
X40.07933 Y16.20166
X40.33377 Y16.09463
X40.56968 Y16.05226
X40.77331 Y16.05417
X40.92005 Y16.08343
X41.78185 Y15.22171
X41.69142 Y15.12592
X41.57583 Y14.95986
X41.46437 Y14.71815
X41.46785 Y12.34688
X41.31197 Y12.12217
X41.14367 Y11.92545
X40.99879 Y11.78420
X40.74532 Y11.58331
X40.34322 Y11.35189
X37.56400 Y8.57265
X37.30405 Y8.53747
X37.05902 Y8.45128
X36.90865 Y8.36782
X36.70591 Y8.20549
X36.52077 Y7.97483
X36.14736 Y7.97483
X36.05272 Y8.10981
X35.86746 Y8.29180
X35.64932 Y8.43277
X35.46167 Y8.50986
X35.08575 Y8.54209
X34.67607 Y8.50988
X34.51902 Y8.45128
X34.29642 Y8.31753
X34.10531 Y8.14174
X33.95344 Y7.93097
X33.84719 Y7.69414
X33.79070 Y7.44059
X33.78646 Y7.18093
X33.83457 Y6.92581
X33.93307 Y6.68543
X34.07790 Y6.46991
X34.19639 Y6.34524
X34.40431 Y6.18967
X34.63937 Y6.07913
X34.88778 Y6.01901
X35.28049 Y6.02457
X35.61160 Y6.12843
X35.76197 Y6.21189
X35.96471 Y6.37423
X36.14985 Y6.60491
X36.52326 Y6.60491
X36.61790 Y6.46991
X36.73639 Y6.34524
X36.94431 Y6.18967
X37.17937 Y6.07913
X37.42778 Y6.01901
X37.78277 Y6.02073
X37.90657 Y6.04225
X38.15160 Y6.12843
X38.30197 Y6.21189
X38.50471 Y6.37423
X38.67060 Y6.57397
X38.82343 Y6.88558
X38.87637 Y7.11606
X38.87423 Y7.46350
X38.83606 Y7.65390
X38.76567 Y7.83694
X42.33206 Y11.40337
X42.56231 Y11.35296
X42.85228 Y11.34714
X43.05228 Y11.37777
X43.32726 Y11.47013
X43.64753 Y11.66977
X43.85154 Y11.87594
X44.00742 Y12.11463
X44.00744 Y14.86588
X44.00412 Y14.93690
X43.93686 Y15.05810
X43.75479 Y15.28388
X43.53099 Y15.46837
X43.27463 Y15.60405
X43.18019 Y15.63768
X41.86231 Y16.95551
X41.88827 Y17.19582
X41.84951 Y17.49653
X41.76081 Y17.73874
X41.62378 Y17.95708
X41.51187 Y18.08139
X41.27082 Y18.26534
X41.07740 Y18.35403
X40.78241 Y18.42404
X40.47926 Y18.41690
X40.27171 Y18.37034
X40.07641 Y18.28601
X39.82696 Y18.11360
X39.68284 Y17.95708
X39.52511 Y17.69813
X39.45711 Y17.49653
X39.41835 Y17.19582
X39.43824 Y16.98398
X39.54581 Y16.65292
X39.68284 Y16.43458
X39.86234 Y16.24944
X40.03582 Y16.12633
X40.31568 Y16.00954
X40.56968 Y15.96527
X40.78241 Y15.96763
X40.89196 Y15.98851
X41.65924 Y15.22130
X41.46414 Y14.93695
X41.46785 Y12.34688
G04 P0 ( dwell for no time -- G64 should not smooth over this point )
G00 Z3.00000 ( retract )

G00 X44.93879 Y10.01986 ( rapid move to begin. )
F50.00000
G01 Z-0.15000
G04 P0 ( dwell for no time -- G64 should not smooth over this point )
F100.00000
X44.93879 Y10.01986
X43.06201 Y8.14303
X42.95726 Y8.18606
X42.68972 Y8.22672
X42.50539 Y8.20897
X42.32411 Y8.15398
X42.15754 Y8.06355
X42.01258 Y7.94146
X41.89518 Y7.79271
X41.81187 Y7.62685
X41.01502 Y7.62685
X40.98225 Y7.71019
X40.89127 Y7.85614
X40.74865 Y8.00620
X40.59211 Y8.11298
X40.43405 Y8.18080
X40.24880 Y8.22068
X40.13648 Y8.22639
X39.94819 Y8.20544
X39.78411 Y8.15398
X39.61754 Y8.06355
X39.47258 Y7.94146
X39.35518 Y7.79271
X39.27014 Y7.62335
X39.22092 Y7.44036
X39.21043 Y7.23366
X39.24091 Y7.04661
X39.30837 Y6.86953
X39.41012 Y6.70966
X39.52861 Y6.58499
X39.68312 Y6.47527
X39.85658 Y6.39891
X40.05493 Y6.35736
X40.34243 Y6.37428
X40.50651 Y6.42574
X40.67309 Y6.51616
X40.83016 Y6.65101
X40.93544 Y6.78700
X41.01875 Y6.95289
X41.81558 Y6.95289
X41.84837 Y6.86953
X41.93935 Y6.72358
X42.06861 Y6.58499
X42.22312 Y6.47527
X42.41337 Y6.39366
X42.58182 Y6.35904
X42.69414 Y6.35332
X42.88243 Y6.37428
X43.06272 Y6.43270
X43.22754 Y6.52622
X43.35804 Y6.63826
X43.47544 Y6.78700
X43.56048 Y6.95637
X43.64875 Y7.21580
X43.65687 Y7.29835
X43.63457 Y7.41070
X43.60094 Y7.47181
X43.53983 Y7.66780
X45.51407 Y9.64201
X45.58346 Y9.74361
X45.61275 Y9.88031
X45.61275 Y11.74701
X45.76218 Y11.80419
X45.93388 Y11.91122
X46.10594 Y12.07475
X46.23007 Y12.25620
X46.30985 Y12.44216
X46.35585 Y12.65714
X46.36276 Y14.27550
X46.34186 Y14.48587
X46.27079 Y14.71233
X46.17259 Y14.88925
X46.03073 Y15.05722
X45.84305 Y15.20253
X45.61275 Y15.30601
X45.60422 Y16.20336
X45.58346 Y16.26605
X45.51981 Y16.36133
X45.02662 Y16.85505
X45.07833 Y17.02041
X45.09583 Y17.18673
X45.07833 Y17.37126
X45.01963 Y17.55658
X44.93183 Y17.70953
X44.80925 Y17.84855
X44.64468 Y17.96811
X44.47460 Y18.04177
X44.30203 Y18.07796
X44.12568 Y18.07844
X43.93523 Y18.03940
X43.77394 Y17.96811
X43.60938 Y17.84855
X43.48680 Y17.70953
X43.39901 Y17.55660
X43.34029 Y17.37126
X43.32279 Y17.18673
X43.34407 Y17.00263
X43.39901 Y16.83506
X43.49746 Y16.66742
X43.62289 Y16.53095
X43.77394 Y16.42356
X43.94402 Y16.34990
X44.10760 Y16.31512
X44.30203 Y16.31370
X44.48342 Y16.35226
X44.54803 Y16.38056
X44.93879 Y15.98983
X44.93879 Y15.30454
X44.78938 Y15.24739
X44.61768 Y15.14035
X44.45710 Y14.99018
X44.33002 Y14.81076
X44.23645 Y14.59262
X44.19393 Y14.37718
X44.18880 Y12.77607
X44.20970 Y12.56570
X44.27384 Y12.35542
X44.38903 Y12.14790
X44.53358 Y11.98222
X44.69357 Y11.85836
X44.93879 Y11.74556
X44.93879 Y10.01986
X44.85179 Y10.05590
X43.04217 Y8.24623
X42.80630 Y8.30590
X42.69414 Y8.31362
X42.49658 Y8.29551
X42.29808 Y8.23699
X42.11532 Y8.13963
X41.95591 Y8.00747
X41.82640 Y7.84598
X41.75764 Y7.71385
X41.07560 Y7.71385
X40.96508 Y7.90216
X40.79836 Y8.07760
X40.62640 Y8.19294
X40.46834 Y8.26076
X40.26630 Y8.30590
X40.12767 Y8.31293
X39.92216 Y8.28845
X39.72569 Y8.22309
X39.57532 Y8.13963
X39.41591 Y8.00747
X39.28640 Y7.84598
X39.19204 Y7.66165
X39.13669 Y7.46218
X39.12445 Y7.22048
X39.15932 Y7.01641
X39.23456 Y6.82350
X39.34705 Y6.64971
X39.46554 Y6.52505
X39.63341 Y6.40387
X39.82229 Y6.31895
X40.05051 Y6.27047
X40.16295 Y6.26678
X40.36846 Y6.29127
X40.56493 Y6.35662
X40.71530 Y6.44009
X40.89894 Y6.59775
X41.00422 Y6.73374
X41.07298 Y6.86589
X41.75502 Y6.86589
X41.86554 Y6.67755
X42.00554 Y6.52505
X42.17341 Y6.40387
X42.39587 Y6.30844
X42.56432 Y6.27382
X42.70295 Y6.26678
X42.90846 Y6.29127
X43.10493 Y6.35662
X43.28421 Y6.46020
X43.41471 Y6.57224
X43.54422 Y6.73374
X43.63859 Y6.91806
X43.73201 Y7.19056
X43.74346 Y7.27278
X43.73203 Y7.38903
X43.64077 Y7.64570
X45.57559 Y9.58049
X45.66020 Y9.70262
X45.69975 Y9.88031
X45.69975 Y11.68641
X45.80820 Y11.73035
X45.97991 Y11.83738
X46.17734 Y12.02504
X46.31003 Y12.22191
X46.38981 Y12.40787
X46.44107 Y12.63962
X46.44976 Y14.27523
X46.42839 Y14.49468
X46.34686 Y14.75455
X46.22855 Y14.96034
X46.07125 Y15.13814
X45.88136 Y15.28063
X45.69975 Y15.36971
X45.69975 Y16.12940
X45.68748 Y16.22861
X45.63711 Y16.35025
X45.58707 Y16.41650
X45.12581 Y16.87890
X45.16485 Y17.01131
X45.18235 Y17.17763
X45.16485 Y17.38035
X45.09909 Y17.59196
X45.00716 Y17.75304
X44.87389 Y17.90677
X44.68006 Y18.04758
X44.49269 Y18.12686
X44.31113 Y18.16447
X44.12568 Y18.16544
X43.90836 Y18.12213
X43.73856 Y18.04758
X43.54473 Y17.90677
X43.41146 Y17.75304
X43.31954 Y17.59198
X43.25378 Y17.38035
X43.23628 Y17.17763
X43.26135 Y16.97575
X43.31954 Y16.79966
X43.43282 Y16.60921
X43.57176 Y16.46057
X43.73856 Y16.34408
X43.92594 Y16.26481
X44.08951 Y16.23003
X44.31113 Y16.22719
X44.52881 Y16.27672
X44.85179 Y15.95378
X44.85179 Y15.36514
X44.74336 Y15.32122
X44.57165 Y15.21419
X44.39716 Y15.05325
X44.25863 Y14.86047
X44.15123 Y14.61015
X44.10694 Y14.37746
X44.10181 Y12.77635
X44.13025 Y12.52240
X44.20470 Y12.29702
X44.30290 Y12.12011
X44.48032 Y11.91343
X44.67021 Y11.77094
X44.85179 Y11.68189
X44.85179 Y10.05590
X44.76480 Y10.09195
X43.02053 Y8.34763
X42.82383 Y8.39111
X42.65886 Y8.39949
X42.48776 Y8.38207
X42.27204 Y8.31999
X42.07311 Y8.21567
X41.89924 Y8.07349
X41.75761 Y7.89924
X41.70341 Y7.80084
X41.13059 Y7.80084
X41.00661 Y7.98992
X40.84804 Y8.14900
X40.66072 Y8.27288
X40.50265 Y8.34069
X40.28383 Y8.39111
X40.11886 Y8.39949
X39.89612 Y8.37145
X39.73204 Y8.31999
X39.53311 Y8.21567
X39.35924 Y8.07349
X39.21761 Y7.89924
X39.11393 Y7.69995
X39.05249 Y7.48400
X39.03844 Y7.20729
X39.07774 Y6.98621
X39.16072 Y6.77748
X39.25170 Y6.63153
X39.40250 Y6.46513
X39.58373 Y6.33247
X39.78797 Y6.23902
X40.04609 Y6.18360
X40.34286 Y6.19764
X40.60715 Y6.28058
X40.80087 Y6.39419
X40.93138 Y6.50623
X41.07301 Y6.68047
X41.12721 Y6.77890
X41.70001 Y6.77890
X41.82401 Y6.58980
X41.98258 Y6.43071
X42.16991 Y6.30684
X42.37834 Y6.22322
X42.54679 Y6.18860
X42.71177 Y6.18022
X42.93450 Y6.20826
X43.14715 Y6.28058
X43.34087 Y6.39419
X43.47138 Y6.50623
X43.61301 Y6.68047
X43.71669 Y6.87976
X43.81524 Y7.16531
X43.83003 Y7.26427
X43.81529 Y7.41423
X43.74171 Y7.62360
X45.63711 Y9.51897
X45.73693 Y9.66162
X45.77071 Y9.75575
X45.78674 Y9.88031
X45.78674 Y11.62585
X46.02593 Y11.76357
X46.24874 Y11.97533
X46.38996 Y12.18760
X46.46975 Y12.37355
X46.52629 Y12.62212
X46.53675 Y14.27495
X46.51496 Y14.50347
X46.44374 Y14.74825
X46.29456 Y15.01701
X46.12448 Y15.20695
X45.96449 Y15.33080
X45.78674 Y15.42392
X45.78674 Y16.12940
X45.77071 Y16.25386
X45.73693 Y16.34804
X45.65433 Y16.47167
X45.22502 Y16.90273
X45.26886 Y17.16851
X45.25136 Y17.38947
X45.17856 Y17.62734
X45.08250 Y17.79655
X44.91925 Y17.98426
X44.71544 Y18.12706
X44.51077 Y18.21195
X44.32022 Y18.25099
X44.12568 Y18.25243
X43.88146 Y18.20488
X43.70318 Y18.12706
X43.48006 Y17.96496
X43.33612 Y17.79655
X43.24006 Y17.62737
X43.16726 Y17.38947
X43.14976 Y17.16851
X43.17859 Y16.94888
X43.24006 Y16.76427
X43.36815 Y16.55101
X43.52063 Y16.39018
X43.67884 Y16.27700
X43.90785 Y16.17972
X44.12568 Y16.13926
X44.32022 Y16.14068
X44.50419 Y16.17832
X44.76480 Y15.91774
X44.76480 Y15.42572
X44.52563 Y15.28800
X44.33724 Y15.11630
X44.18723 Y14.91017
X44.06602 Y14.62765
X44.01994 Y14.37774
X44.01481 Y12.77663
X44.04725 Y12.49636
X44.10783 Y12.30332
X44.22685 Y12.07790
X44.42708 Y11.84462
X44.58707 Y11.72077
X44.76480 Y11.62766
X44.76480 Y10.09195
X44.67780 Y10.12799
X42.99467 Y8.44481
X42.78896 Y8.48301
X42.65004 Y8.48603
X42.41009 Y8.45446
X42.24601 Y8.40300
X42.03089 Y8.29175
X41.84258 Y8.13947
X41.64918 Y7.88784
X41.17905 Y7.88784
X41.06968 Y8.04986
X40.95119 Y8.17453
X40.75660 Y8.31865
X40.53694 Y8.42065
X40.30133 Y8.47633
X40.11004 Y8.48603
X39.87009 Y8.45446
X39.70601 Y8.40300
X39.49089 Y8.29175
X39.30258 Y8.13947
X39.14883 Y7.95248
X39.03583 Y7.73826
X38.96826 Y7.50582
X38.95246 Y7.19411
X38.99615 Y6.95601
X39.08691 Y6.73145
X39.22094 Y6.52985
X39.33943 Y6.40519
X39.53402 Y6.26107
X39.75368 Y6.15906
X39.98929 Y6.10339
X40.12765 Y6.09234
X40.35167 Y6.11111
X40.64936 Y6.20450
X40.85754 Y6.32820
X40.98805 Y6.44024
X41.18144 Y6.69190
X41.65154 Y6.69190
X41.76094 Y6.52985
X41.93287 Y6.35932
X42.13562 Y6.22688
X42.36084 Y6.13801
X42.58167 Y6.09670
X42.72058 Y6.09368
X42.96053 Y6.12525
X43.18936 Y6.20450
X43.39754 Y6.32820
X43.52805 Y6.44024
X43.68179 Y6.62723
X43.79480 Y6.84146
X43.89850 Y7.14004
X43.91661 Y7.25573
X43.89855 Y7.43945
X43.84072 Y7.59957
X45.69863 Y9.45746
X45.81364 Y9.62060
X45.85397 Y9.73048
X45.87374 Y9.88031
X45.87374 Y11.56969
X46.07196 Y11.68973
X46.27427 Y11.87221
X46.43574 Y12.09171
X46.54719 Y12.33342
X46.54435 Y14.71815
X46.49898 Y14.83898
X46.40079 Y15.01589
X46.22878 Y15.22722
X46.01775 Y15.39958
X45.87374 Y15.47814
X45.87374 Y16.12940
X45.85397 Y16.27911
X45.81364 Y16.38906
X45.75268 Y16.48896
X45.32380 Y16.92699
X45.35728 Y17.19582
X45.33787 Y17.39856
X45.25804 Y17.66275
X45.15784 Y17.84006
X44.97747 Y18.04893
X44.75083 Y18.20654
X44.52886 Y18.29704
X44.32931 Y18.33750
X44.12568 Y18.33943
X43.85459 Y18.28761
X43.66780 Y18.20654
X43.41542 Y18.02317
X43.26079 Y17.84006
X43.16058 Y17.66275
X43.08075 Y17.39856
X43.06325 Y17.15942
X43.09586 Y16.92201
X43.16058 Y16.72889
X43.30351 Y16.49280
X43.46947 Y16.31980
X43.63533 Y16.20166
X43.88977 Y16.09463
X44.12568 Y16.05226
X44.32931 Y16.05417
X44.47607 Y16.08343
X44.67780 Y15.88170
X44.67780 Y15.48188
X44.47961 Y15.36184
X44.27729 Y15.17936
X44.11583 Y14.95986
X44.00437 Y14.71815
X44.00338 Y12.77668
X44.00722 Y12.33342
X44.05258 Y12.21259
X44.15078 Y12.03568
X44.37381 Y11.77584
X44.53381 Y11.65199
X44.67780 Y11.57343
X44.67780 Y10.12799
X44.59081 Y10.16403
X42.96627 Y8.53945
X42.79338 Y8.56988
X42.64123 Y8.57257
X42.38405 Y8.53747
X42.21997 Y8.48601
X41.91642 Y8.31753
X41.72531 Y8.14174
X41.60077 Y7.97483
X41.22736 Y7.97483
X41.13272 Y8.10981
X41.01423 Y8.23447
X40.80631 Y8.39005
X40.57126 Y8.50059
X40.31886 Y8.56155
X40.10123 Y8.57257
X39.84405 Y8.53747
X39.59902 Y8.45128
X39.44865 Y8.36782
X39.24591 Y8.20549
X39.08002 Y8.00574
X38.95772 Y7.77656
X38.88406 Y7.52764
X38.87639 Y7.11621
X38.91457 Y6.92581
X39.01307 Y6.68543
X39.15790 Y6.46991
X39.34317 Y6.28792
X39.56130 Y6.14695
X39.71937 Y6.07913
X39.96778 Y6.01901
X40.36049 Y6.02457
X40.69160 Y6.12843
X40.84197 Y6.21189
X41.04471 Y6.37423
X41.22985 Y6.60491
X41.60326 Y6.60491
X41.69790 Y6.46991
X41.88317 Y6.28792
X42.10130 Y6.14695
X42.34331 Y6.05279
X42.50778 Y6.01901
X42.86277 Y6.02073
X43.15065 Y6.09371
X43.45421 Y6.26219
X43.64532 Y6.43798
X43.79718 Y6.64875
X43.87290 Y6.80316
X43.96482 Y7.06063
X43.97305 Y7.37872
X43.96343 Y7.52284
X43.94107 Y7.57689
X43.98931 Y7.62512
X44.17272 Y7.90191
X44.33284 Y8.08946
X44.50838 Y8.25700
X44.70290 Y8.40828
X44.89142 Y8.52721
X45.76015 Y9.39594
X45.89037 Y9.57960
X45.93721 Y9.70523
X45.96073 Y9.88031
X45.96073 Y11.51788
X46.18753 Y11.66977
X46.33419 Y11.80916
X46.54742 Y12.11463
X46.54412 Y14.93690
X46.42659 Y15.13034
X46.29479 Y15.28388
X46.07099 Y15.46837
X45.96073 Y15.53237
X45.96073 Y16.12940
X45.92301 Y16.35124
X45.86728 Y16.47327
X45.78885 Y16.58203
X45.41834 Y16.95548
X45.44427 Y17.19582
X45.42438 Y17.40768
X45.33752 Y17.69813
X45.23317 Y17.88357
X45.06787 Y18.08139
X44.78621 Y18.28601
X44.54694 Y18.38213
X44.38336 Y18.41690
X44.12568 Y18.42642
X43.82771 Y18.37034
X43.63241 Y18.28601
X43.35075 Y18.08139
X43.18545 Y17.88357
X43.08111 Y17.69813
X42.99424 Y17.40768
X42.97674 Y17.15030
X43.01311 Y16.89513
X43.08111 Y16.69351
X43.23884 Y16.43458
X43.41834 Y16.24944
X43.59182 Y16.12633
X43.87168 Y16.00954
X44.12568 Y15.96527
X44.33841 Y15.96763
X44.44796 Y15.98848
X44.59081 Y15.84568
X44.59081 Y15.53367
X44.36404 Y15.38180
X44.21738 Y15.24241
X44.00414 Y14.93695
X44.00338 Y12.77668
X44.00744 Y12.11468
X44.12497 Y11.92123
X44.25677 Y11.76769
X44.48057 Y11.58321
X44.59081 Y11.51920
X44.59081 Y10.16403
G04 P0 ( dwell for no time -- G64 should not smooth over this point )
G00 Z3.00000 ( retract )

G00 X46.82832 Y7.62685 ( rapid move to begin. )
F50.00000
G01 Z-0.15000
G04 P0 ( dwell for no time -- G64 should not smooth over this point )
F100.00000
X46.82832 Y7.62685
X46.09502 Y7.62685
X46.06225 Y7.71019
X45.96050 Y7.87006
X45.82865 Y8.00620
X45.67211 Y8.11298
X45.51405 Y8.18080
X45.32880 Y8.22068
X45.21648 Y8.22639
X45.02819 Y8.20544
X44.84791 Y8.14702
X44.68308 Y8.05350
X44.55258 Y7.94146
X44.43518 Y7.79271
X44.35014 Y7.62335
X44.30092 Y7.44036
X44.28954 Y7.25124
X44.31649 Y7.06366
X44.38837 Y6.86953
X44.49012 Y6.70966
X44.60861 Y6.58499
X44.77851 Y6.46673
X44.93658 Y6.39891
X45.12182 Y6.35904
X45.23414 Y6.35332
X45.42243 Y6.37428
X45.58651 Y6.42574
X45.75309 Y6.51616
X45.91016 Y6.65101
X46.01544 Y6.78700
X46.09875 Y6.95289
X46.82832 Y6.95289
X46.82999 Y6.42289
X46.85382 Y6.37837
X46.89835 Y6.35454
X48.61528 Y6.35289
X48.66362 Y6.36755
X48.69568 Y6.40658
X48.70063 Y8.15682
X48.67680 Y8.20135
X48.63228 Y8.22517
X48.15275 Y8.22685
X48.15275 Y11.74701
X48.30218 Y11.80419
X48.47388 Y11.91122
X48.63446 Y12.06139
X48.76154 Y12.24081
X48.85511 Y12.45895
X48.89763 Y12.67439
X48.90233 Y14.28457
X48.88186 Y14.48587
X48.81772 Y14.69615
X48.70253 Y14.90367
X48.55798 Y15.06936
X48.39799 Y15.19321
X48.15275 Y15.30601
X48.15275 Y16.40220
X48.36525 Y16.54312
X48.48783 Y16.68213
X48.57561 Y16.83506
X48.63055 Y17.00263
X48.65183 Y17.18673
X48.63055 Y17.38904
X48.57563 Y17.55658
X48.48783 Y17.70953
X48.35173 Y17.86071
X48.20883 Y17.96397
X48.04787 Y18.03613
X47.85803 Y18.07796
X47.68168 Y18.07844
X47.50002 Y18.04177
X47.31419 Y17.95901
X47.17180 Y17.85500
X47.05346 Y17.72424
X46.95501 Y17.55660
X46.90007 Y17.38904
X46.87879 Y17.18673
X46.90007 Y17.00263
X46.95915 Y16.82696
X47.05346 Y16.66742
X47.16538 Y16.54312
X47.32184 Y16.42767
X47.47879 Y16.35731
X47.47879 Y15.30454
X47.32938 Y15.24739
X47.15768 Y15.14035
X46.98562 Y14.97682
X46.87002 Y14.81076
X46.78171 Y14.60941
X46.73393 Y14.37718
X46.72880 Y12.77607
X46.75326 Y12.54846
X46.82077 Y12.33924
X46.91897 Y12.16233
X47.06083 Y11.99436
X47.24851 Y11.84904
X47.47879 Y11.74556
X47.47879 Y8.22685
X46.91531 Y8.22685
X46.85382 Y8.20135
X46.82832 Y8.13986
X46.82832 Y7.62685
X46.74132 Y7.71385
X46.15560 Y7.71385
X46.04508 Y7.90216
X45.90508 Y8.05466
X45.73721 Y8.17585
X45.51476 Y8.27128
X45.34630 Y8.30590
X45.20767 Y8.31293
X45.00216 Y8.28845
X44.83808 Y8.23699
X44.62642 Y8.11951
X44.47168 Y7.98197
X44.34775 Y7.81606
X44.25982 Y7.62868
X44.21136 Y7.42739
X44.20264 Y7.25566
X44.23051 Y7.05047
X44.31456 Y6.82350
X44.42705 Y6.64971
X44.54554 Y6.52505
X44.74422 Y6.38677
X44.90229 Y6.31895
X45.10432 Y6.27382
X45.24295 Y6.26678
X45.44846 Y6.29127
X45.64493 Y6.35662
X45.79530 Y6.44009
X45.97894 Y6.59775
X46.08422 Y6.73374
X46.15298 Y6.86589
X46.74132 Y6.86589
X46.74468 Y6.40592
X46.79230 Y6.31685
X46.88138 Y6.26922
X48.61528 Y6.26589
X48.71196 Y6.29521
X48.77604 Y6.37329
X48.78927 Y6.43988
X48.78595 Y8.17379
X48.73832 Y8.26287
X48.64924 Y8.31049
X48.23975 Y8.31385
X48.23975 Y11.68641
X48.34820 Y11.73035
X48.51991 Y11.83738
X48.69441 Y11.99832
X48.83294 Y12.19110
X48.94033 Y12.44142
X48.98463 Y12.67411
X48.98887 Y14.29339
X48.96131 Y14.52917
X48.88686 Y14.75455
X48.78866 Y14.93146
X48.61125 Y15.13814
X48.42136 Y15.28063
X48.23975 Y15.36971
X48.23975 Y16.34619
X48.42989 Y16.48490
X48.56316 Y16.63862
X48.65509 Y16.79968
X48.71328 Y16.97575
X48.73835 Y17.17763
X48.71328 Y17.41591
X48.65509 Y17.59196
X48.56316 Y17.75304
X48.40286 Y17.93110
X48.25232 Y18.03930
X48.08326 Y18.11560
X47.86713 Y18.16447
X47.68168 Y18.16544
X47.48194 Y18.12686
X47.26306 Y18.02940
X47.10073 Y17.90677
X46.98882 Y17.78246
X46.87554 Y17.59198
X46.81735 Y17.41591
X46.79228 Y17.17763
X46.81735 Y16.97575
X46.88382 Y16.78345
X46.98882 Y16.60921
X47.10073 Y16.48490
X47.27833 Y16.35234
X47.39179 Y16.30080
X47.39179 Y15.36514
X47.28336 Y15.32122
X47.11165 Y15.21419
X46.91422 Y15.02653
X46.79863 Y14.86047
X46.70175 Y14.64370
X46.64694 Y14.37746
X46.64181 Y12.77635
X46.67025 Y12.52240
X46.74470 Y12.29702
X46.84290 Y12.12011
X46.99481 Y11.93769
X47.18031 Y11.78958
X47.39179 Y11.68189
X47.39179 Y8.31385
X46.91531 Y8.31385
X46.84874 Y8.30059
X46.79230 Y8.26287
X46.75458 Y8.20643
X46.74132 Y8.13986
X46.74132 Y7.71385
X46.65433 Y7.80084
X46.21059 Y7.80084
X46.11892 Y7.94819
X45.96812 Y8.11458
X45.78689 Y8.24725
X45.58265 Y8.34069
X45.36383 Y8.39111
X45.19886 Y8.39949
X45.02776 Y8.38207
X44.81204 Y8.31999
X44.56975 Y8.18552
X44.40290 Y8.03523
X44.26965 Y7.85436
X44.17562 Y7.65050
X44.12449 Y7.43178
X44.11844 Y7.20729
X44.14450 Y7.03729
X44.24072 Y6.77748
X44.33170 Y6.63153
X44.48250 Y6.46513
X44.70991 Y6.30684
X44.86797 Y6.23902
X45.08679 Y6.18860
X45.25177 Y6.18022
X45.42286 Y6.19764
X45.68715 Y6.28058
X45.88087 Y6.39419
X46.01138 Y6.50623
X46.15301 Y6.68047
X46.20721 Y6.77890
X46.65433 Y6.77890
X46.65433 Y6.43988
X46.67422 Y6.33999
X46.77033 Y6.22287
X46.86441 Y6.18390
X48.61528 Y6.17890
X48.76029 Y6.22287
X48.85641 Y6.33999
X48.87627 Y6.43988
X48.87127 Y8.19076
X48.83230 Y8.28484
X48.71518 Y8.38095
X48.61528 Y8.40084
X48.32674 Y8.40084
X48.32674 Y11.62585
X48.56593 Y11.76357
X48.75432 Y11.93528
X48.90434 Y12.14140
X49.02554 Y12.42392
X49.07162 Y12.67383
X49.07543 Y14.30217
X49.04432 Y14.55521
X48.98374 Y14.74825
X48.86471 Y14.97367
X48.66448 Y15.20695
X48.50449 Y15.33080
X48.32674 Y15.42392
X48.32674 Y16.29773
X48.47523 Y16.40738
X48.60647 Y16.55101
X48.73456 Y16.76430
X48.79603 Y16.94888
X48.82486 Y17.16851
X48.79603 Y17.44278
X48.73456 Y17.62734
X48.63850 Y17.79655
X48.47525 Y17.98426
X48.27144 Y18.12706
X48.06677 Y18.21195
X47.87622 Y18.25099
X47.68168 Y18.25243
X47.43746 Y18.20488
X47.25918 Y18.12706
X47.05539 Y17.98429
X46.92415 Y17.84065
X46.79606 Y17.62737
X46.73459 Y17.44278
X46.70576 Y17.22315
X46.73459 Y16.94888
X46.79606 Y16.76427
X46.89212 Y16.59511
X47.05539 Y16.40738
X47.21191 Y16.29188
X47.30480 Y16.24431
X47.30480 Y15.42572
X47.06563 Y15.28800
X46.87724 Y15.11630
X46.72723 Y14.91017
X46.60602 Y14.62765
X46.55994 Y14.37774
X46.55481 Y12.77663
X46.58725 Y12.49636
X46.64783 Y12.30332
X46.76685 Y12.07790
X46.96708 Y11.84462
X47.12707 Y11.72077
X47.30480 Y11.62766
X47.30480 Y8.40084
X46.86441 Y8.39581
X46.73078 Y8.32439
X46.65936 Y8.19076
X46.65433 Y7.80084
X46.56733 Y7.88784
X46.25905 Y7.88784
X46.14968 Y8.04986
X45.97775 Y8.22040
X45.77501 Y8.35283
X45.61694 Y8.42065
X45.38133 Y8.47633
X45.24298 Y8.48738
X45.01895 Y8.46861
X44.78601 Y8.40300
X44.51308 Y8.25151
X44.33411 Y8.08847
X44.19154 Y7.89266
X44.09139 Y7.67232
X44.03759 Y7.43620
X44.02888 Y7.26447
X44.05852 Y7.02411
X44.16691 Y6.73145
X44.30094 Y6.52985
X44.41943 Y6.40519
X44.67562 Y6.22688
X44.83368 Y6.15906
X45.06929 Y6.10339
X45.20765 Y6.09234
X45.43167 Y6.11111
X45.72936 Y6.20450
X45.93754 Y6.32820
X46.06805 Y6.44024
X46.26144 Y6.69190
X46.56733 Y6.69190
X46.56733 Y6.43988
X46.59383 Y6.30671
X46.62598 Y6.24654
X46.72199 Y6.15053
X46.84744 Y6.09858
X48.68318 Y6.09858
X48.80863 Y6.15053
X48.90464 Y6.24654
X48.93680 Y6.30671
X48.96326 Y6.43988
X48.95658 Y8.20772
X48.90464 Y8.33317
X48.80863 Y8.42919
X48.74846 Y8.46134
X48.61528 Y8.48784
X48.41374 Y8.48784
X48.41374 Y11.56969
X48.61196 Y11.68973
X48.81427 Y11.87221
X48.97574 Y12.09171
X49.08719 Y12.33342
X49.08435 Y14.71815
X49.03898 Y14.83898
X48.94079 Y15.01589
X48.76878 Y15.22722
X48.55775 Y15.39958
X48.41374 Y15.47814
X48.41374 Y16.25340
X48.53345 Y16.34273
X48.67111 Y16.49280
X48.81404 Y16.72892
X48.89387 Y16.99310
X48.91137 Y17.23224
X48.87876 Y17.46966
X48.81404 Y17.66275
X48.71384 Y17.84006
X48.55920 Y18.02317
X48.30683 Y18.20654
X48.08486 Y18.29704
X47.88531 Y18.33750
X47.68168 Y18.33943
X47.41059 Y18.28761
X47.22380 Y18.20654
X46.99718 Y18.04893
X46.85951 Y17.89887
X46.71658 Y17.66275
X46.65186 Y17.46966
X46.61925 Y17.23224
X46.63675 Y16.99310
X46.73314 Y16.69643
X46.85951 Y16.49280
X46.97142 Y16.36849
X47.21780 Y16.18820
X47.21780 Y15.48188
X47.01961 Y15.36184
X46.81729 Y15.17936
X46.65583 Y14.95986
X46.54437 Y14.71815
X46.54338 Y12.77668
X46.54722 Y12.33342
X46.59258 Y12.21259
X46.69078 Y12.03568
X46.91381 Y11.77584
X47.07381 Y11.65199
X47.21780 Y11.57343
X47.21780 Y8.48784
X46.84744 Y8.48113
X46.72199 Y8.42919
X46.66926 Y8.38591
X46.62598 Y8.33317
X46.57404 Y8.20772
X46.56733 Y7.88784
X46.48034 Y7.97483
X46.30736 Y7.97483
X46.21272 Y8.10981
X46.02746 Y8.29180
X45.88631 Y8.39005
X45.65126 Y8.50059
X45.39886 Y8.56155
X45.24740 Y8.57425
X45.01014 Y8.55515
X44.89147 Y8.52726
X44.56424 Y8.30371
X44.38215 Y8.14001
X44.17272 Y7.90191
X44.02599 Y7.68926
X43.98933 Y7.62512
X43.96340 Y7.52335
X43.97252 Y7.01093
X44.09307 Y6.68543
X44.23790 Y6.46991
X44.35639 Y6.34524
X44.64130 Y6.14695
X44.79937 Y6.07913
X45.04778 Y6.01901
X45.44049 Y6.02457
X45.77160 Y6.12843
X45.92197 Y6.21189
X46.12471 Y6.37423
X46.30985 Y6.60491
X46.48034 Y6.60491
X46.48872 Y6.35502
X46.55367 Y6.19820
X46.67366 Y6.07821
X46.83048 Y6.01327
X48.70015 Y6.01327
X48.78176 Y6.03801
X48.92288 Y6.13229
X49.01716 Y6.27341
X49.05026 Y6.43988
X49.04190 Y8.22469
X48.97695 Y8.38151
X48.85697 Y8.50150
X48.70015 Y8.56645
X48.50073 Y8.57483
X48.50073 Y11.51788
X48.72753 Y11.66977
X48.87419 Y11.80916
X49.08742 Y12.11463
X49.08818 Y14.27490
X49.08412 Y14.93690
X48.96659 Y15.13034
X48.83479 Y15.28388
X48.61099 Y15.46837
X48.50073 Y15.53237
X48.50073 Y16.20905
X48.59166 Y16.27807
X48.73578 Y16.43458
X48.89352 Y16.69353
X48.98038 Y16.98398
X48.99788 Y17.24136
X48.96151 Y17.49653
X48.89352 Y17.69813
X48.78917 Y17.88357
X48.62387 Y18.08139
X48.34221 Y18.28601
X48.10294 Y18.38213
X47.89441 Y18.42404
X47.68168 Y18.42642
X47.38371 Y18.37034
X47.18841 Y18.28601
X46.97437 Y18.14225
X46.79484 Y17.95708
X46.65781 Y17.73874
X46.55024 Y17.40768
X46.53035 Y17.19582
X46.55024 Y16.98398
X46.63711 Y16.69351
X46.79484 Y16.43458
X46.97434 Y16.24944
X47.13081 Y16.13740
X47.13081 Y15.53367
X46.90404 Y15.38180
X46.75738 Y15.24241
X46.54414 Y14.93695
X46.54338 Y12.77668
X46.54744 Y12.11468
X46.66497 Y11.92123
X46.79677 Y11.76769
X47.02057 Y11.58321
X47.13081 Y11.51920
X47.13081 Y8.57483
X46.83048 Y8.56645
X46.74887 Y8.54171
X46.60774 Y8.44742
X46.51346 Y8.30630
X46.48872 Y8.22469
X46.48034 Y7.97483
G04 P0 ( dwell for no time -- G64 should not smooth over this point )
G00 Z3.00000 ( retract )

G00 X55.77275 Y8.37686 ( rapid move to begin. )
F50.00000
G01 Z-0.15000
G04 P0 ( dwell for no time -- G64 should not smooth over this point )
F100.00000
X55.77275 Y8.37686
X55.77275 Y11.74701
X55.92218 Y11.80419
X56.09388 Y11.91122
X56.25446 Y12.06139
X56.38154 Y12.24081
X56.47511 Y12.45895
X56.51763 Y12.67439
X56.52233 Y14.28457
X56.49830 Y14.50311
X56.43079 Y14.71233
X56.32253 Y14.90367
X56.17798 Y15.06936
X56.00305 Y15.20253
X55.80488 Y15.29773
X55.59160 Y15.35109
X55.37196 Y15.36047
X55.15492 Y15.32541
X54.94938 Y15.24739
X54.76376 Y15.12958
X54.61710 Y14.99018
X54.48149 Y14.79537
X54.40171 Y14.60941
X54.35571 Y14.39443
X54.34880 Y12.77607
X54.37326 Y12.54846
X54.44077 Y12.33924
X54.53897 Y12.16233
X54.68083 Y11.99436
X54.86851 Y11.84904
X55.09879 Y11.74556
X55.09879 Y8.37686
X54.38530 Y8.37686
X54.33699 Y8.36218
X54.30493 Y8.32314
X54.29831 Y6.28987
X54.33699 Y6.21753
X54.38530 Y6.20288
X56.38530 Y6.20288
X56.43363 Y6.21753
X56.47064 Y6.27288
X56.46569 Y8.32314
X56.43363 Y8.36218
X56.38530 Y8.37686
X55.77275 Y8.37686
X55.85975 Y8.46386
X55.85975 Y11.68641
X55.96820 Y11.73035
X56.13991 Y11.83738
X56.31441 Y11.99832
X56.45294 Y12.19110
X56.56033 Y12.44142
X56.60463 Y12.67411
X56.60976 Y14.27523
X56.58839 Y14.49468
X56.52073 Y14.72221
X56.40866 Y14.93146
X56.25675 Y15.11388
X56.07125 Y15.26199
X55.82667 Y15.38195
X55.59602 Y15.43799
X55.35878 Y15.44647
X55.12469 Y15.40700
X54.90336 Y15.32122
X54.70382 Y15.19265
X54.55716 Y15.05325
X54.40153 Y14.82966
X54.32175 Y14.64370
X54.27049 Y14.41195
X54.26181 Y12.77635
X54.29025 Y12.52240
X54.36470 Y12.29702
X54.46290 Y12.12011
X54.61481 Y11.93769
X54.80031 Y11.78958
X55.01179 Y11.68189
X55.01179 Y8.46386
X54.35137 Y8.46051
X54.28865 Y8.43452
X54.22457 Y8.35644
X54.21131 Y8.28987
X54.21131 Y6.28987
X54.22457 Y6.22327
X54.28865 Y6.14519
X54.38530 Y6.11588
X56.38530 Y6.11588
X56.48197 Y6.14519
X56.52997 Y6.19320
X56.55596 Y6.25591
X56.55929 Y8.28987
X56.54605 Y8.35644
X56.48197 Y8.43452
X56.41926 Y8.46051
X55.85975 Y8.46386
X55.94674 Y8.55085
X55.94674 Y11.62585
X56.18593 Y11.76357
X56.37432 Y11.93528
X56.52434 Y12.14140
X56.64554 Y12.42392
X56.69162 Y12.67383
X56.69675 Y14.27495
X56.67496 Y14.50347
X56.60374 Y14.74825
X56.48471 Y14.97367
X56.32276 Y15.17055
X56.12449 Y15.33080
X55.84847 Y15.46618
X55.60044 Y15.52485
X55.34562 Y15.53245
X55.09447 Y15.48858
X54.90473 Y15.41830
X54.68563 Y15.28800
X54.49724 Y15.11630
X54.32160 Y14.86397
X54.24182 Y14.67802
X54.18528 Y14.42945
X54.17481 Y12.77663
X54.20725 Y12.49636
X54.28865 Y12.25481
X54.41700 Y12.03456
X54.58708 Y11.84462
X54.74707 Y11.72077
X54.92480 Y11.62766
X54.92480 Y8.55085
X54.33440 Y8.54582
X54.20077 Y8.47440
X54.12934 Y8.34077
X54.12432 Y6.28987
X54.16831 Y6.14486
X54.24032 Y6.07285
X54.38530 Y6.02889
X56.38530 Y6.02889
X56.53031 Y6.07285
X56.60231 Y6.14486
X56.64128 Y6.23894
X56.64128 Y8.34077
X56.56985 Y8.47440
X56.43622 Y8.54582
X55.94674 Y8.55085
X56.03374 Y8.63785
X56.03374 Y11.56969
X56.23196 Y11.68973
X56.43427 Y11.87221
X56.59574 Y12.09171
X56.70719 Y12.33342
X56.70435 Y14.71815
X56.65898 Y14.83898
X56.52058 Y15.07367
X56.33775 Y15.27573
X56.17775 Y15.39958
X55.87026 Y15.55038
X55.60483 Y15.61175
X55.33244 Y15.61845
X55.06427 Y15.57014
X54.81131 Y15.46887
X54.63961 Y15.36184
X54.39142 Y15.12592
X54.27583 Y14.95986
X54.16437 Y14.71815
X54.16722 Y12.33342
X54.21258 Y12.21259
X54.31078 Y12.03568
X54.48279 Y11.82435
X54.69381 Y11.65199
X54.83780 Y11.57343
X54.83780 Y8.63785
X54.38530 Y8.63785
X54.25215 Y8.61136
X54.19198 Y8.57920
X54.09597 Y8.48319
X54.04403 Y8.35774
X54.03732 Y6.28987
X54.06381 Y6.15670
X54.09597 Y6.09653
X54.19198 Y6.00052
X54.25215 Y5.96836
X54.38530 Y5.94189
X54.76600 Y5.94189
X55.09813 Y6.00303
X55.39899 Y6.01969
X55.74425 Y5.99389
X56.01156 Y5.94189
X56.38530 Y5.94189
X56.51847 Y5.96836
X56.57864 Y6.00052
X56.67465 Y6.09653
X56.72660 Y6.22198
X56.72660 Y8.35774
X56.67465 Y8.48319
X56.57864 Y8.57920
X56.51847 Y8.61136
X56.38530 Y8.63785
X56.03374 Y8.63785
X56.12073 Y8.72484
X56.12073 Y11.51788
X56.34753 Y11.66977
X56.49419 Y11.80916
X56.70742 Y12.11463
X56.70412 Y14.93690
X56.58659 Y15.13034
X56.45479 Y15.28388
X56.15629 Y15.51495
X55.97463 Y15.60405
X55.69617 Y15.68531
X55.31928 Y15.70443
X55.03404 Y15.65173
X54.76528 Y15.54269
X54.59358 Y15.43565
X54.37738 Y15.24241
X54.16414 Y14.93695
X54.16744 Y12.11468
X54.28497 Y11.92123
X54.41677 Y11.76769
X54.64057 Y11.58321
X54.75081 Y11.51920
X54.75081 Y8.72484
X54.38530 Y8.72484
X54.21885 Y8.69172
X54.07773 Y8.59744
X53.98345 Y8.45631
X53.95871 Y8.37470
X53.95033 Y6.28987
X53.98345 Y6.12340
X54.07773 Y5.98228
X54.14364 Y5.92820
X54.30046 Y5.86325
X54.47743 Y5.85490
X54.89582 Y5.97204
X55.15558 Y6.00890
X55.50028 Y6.01713
X55.80503 Y5.98456
X56.07948 Y5.92426
X56.29762 Y5.85490
X56.38530 Y5.85490
X56.55177 Y5.88799
X56.69289 Y5.98228
X56.74697 Y6.04819
X56.78718 Y6.12340
X56.82027 Y6.28987
X56.81191 Y8.37470
X56.78718 Y8.45631
X56.69289 Y8.59744
X56.55177 Y8.69172
X56.38530 Y8.72484
X56.12073 Y8.72484
G04 P0 ( dwell for no time -- G64 should not smooth over this point )
G00 Z3.00000 ( retract )

G00 X62.51609 Y8.25563 ( rapid move to begin. )
F50.00000
G01 Z-0.15000
G04 P0 ( dwell for no time -- G64 should not smooth over this point )
F100.00000
X62.51609 Y8.25563
X58.75131 Y12.02037
X58.80594 Y12.07475
X58.93007 Y12.25620
X59.01511 Y12.45895
X59.05763 Y12.67439
X59.06233 Y14.28457
X59.04186 Y14.48587
X58.97772 Y14.69615
X58.86253 Y14.90367
X58.71798 Y15.06936
X58.54305 Y15.20253
X58.34488 Y15.29773
X58.13160 Y15.35109
X57.91196 Y15.36047
X57.71196 Y15.32983
X57.50518 Y15.25513
X57.31768 Y15.14035
X57.15710 Y14.99018
X57.03002 Y14.81076
X56.94171 Y14.60941
X56.89393 Y14.37718
X56.88923 Y12.76700
X56.91326 Y12.54846
X56.98077 Y12.33924
X57.07897 Y12.16233
X57.23358 Y11.98222
X57.40851 Y11.84904
X57.59017 Y11.75994
X57.81996 Y11.70048
X58.02202 Y11.69022
X58.11580 Y11.70282
X62.04007 Y7.77859
X61.98335 Y7.65896
X61.92999 Y7.44567
X61.92062 Y7.22604
X61.95125 Y7.02604
X62.03370 Y6.80346
X62.15150 Y6.61784
X62.29090 Y6.47118
X62.48572 Y6.33557
X62.67167 Y6.25579
X62.88666 Y6.20979
X63.01411 Y6.20331
X63.21541 Y6.22378
X63.44187 Y6.29485
X63.63321 Y6.40311
X63.79890 Y6.54766
X63.93207 Y6.72259
X64.02727 Y6.92076
X64.08063 Y7.13404
X64.09089 Y7.33610
X64.05937 Y7.55367
X63.98467 Y7.76046
X63.86989 Y7.94796
X63.71972 Y8.10854
X63.54030 Y8.23561
X63.32216 Y8.32919
X63.12397 Y8.36993
X62.99651 Y8.37641
X62.77797 Y8.35238
X62.58493 Y8.29180
X62.51609 Y8.25563
X62.53164 Y8.36312
X58.87379 Y12.02092
X59.01003 Y12.22191
X59.08981 Y12.40787
X59.14107 Y12.63962
X59.14976 Y14.27523
X59.12839 Y14.49468
X59.06073 Y14.72221
X58.94866 Y14.93146
X58.79675 Y15.11388
X58.58136 Y15.28063
X58.36667 Y15.38195
X58.13602 Y15.43799
X57.89878 Y15.44647
X57.69878 Y15.41584
X57.47496 Y15.33672
X57.27165 Y15.21419
X57.09716 Y15.05325
X56.95863 Y14.86047
X56.86175 Y14.64370
X56.80694 Y14.37746
X56.80269 Y12.75819
X56.83025 Y12.52240
X56.90470 Y12.29702
X57.00290 Y12.12011
X57.18032 Y11.91343
X57.37021 Y11.77094
X57.55187 Y11.68183
X57.81555 Y11.61358
X58.08542 Y11.61016
X61.93456 Y7.76107
X61.89913 Y7.68075
X61.84310 Y7.45009
X61.83461 Y7.21286
X61.86524 Y7.01286
X61.95986 Y6.75744
X62.08843 Y6.55789
X62.22783 Y6.41123
X62.45143 Y6.25561
X62.63738 Y6.17583
X62.86913 Y6.12457
X63.02293 Y6.11677
X63.22422 Y6.13724
X63.48409 Y6.21878
X63.68988 Y6.33709
X63.86768 Y6.49439
X64.01017 Y6.68428
X64.11149 Y6.89896
X64.16753 Y7.12962
X64.17779 Y7.33168
X64.14538 Y7.56686
X64.06626 Y7.79068
X63.94373 Y7.99398
X63.78279 Y8.16848
X63.59001 Y8.30701
X63.33969 Y8.41440
X63.14149 Y8.45515
X62.98770 Y8.46294
X62.75191 Y8.43538
X62.53164 Y8.36312
X62.55351 Y8.46429
X58.98720 Y12.03058
X59.08996 Y12.18760
X59.16975 Y12.37355
X59.22629 Y12.62212
X59.23675 Y14.27495
X59.21496 Y14.50347
X59.14374 Y14.74825
X59.02471 Y14.97367
X58.86276 Y15.17055
X58.61966 Y15.35874
X58.38847 Y15.46618
X58.14044 Y15.52485
X57.88562 Y15.53245
X57.63447 Y15.48858
X57.44473 Y15.41830
X57.22563 Y15.28800
X57.03724 Y15.11630
X56.88723 Y14.91017
X56.78182 Y14.67802
X56.71994 Y14.37774
X56.71613 Y12.74940
X56.74725 Y12.49636
X56.80783 Y12.30332
X56.92685 Y12.07790
X57.12708 Y11.84462
X57.33190 Y11.69283
X57.51356 Y11.60373
X57.75898 Y11.53469
X58.05400 Y11.51854
X61.82981 Y7.74278
X61.75623 Y7.45451
X61.74863 Y7.19970
X61.77927 Y6.99970
X61.88605 Y6.71141
X61.99308 Y6.53971
X62.16479 Y6.35131
X62.41711 Y6.17567
X62.60306 Y6.09589
X62.85163 Y6.03935
X63.03171 Y6.03021
X63.23301 Y6.05068
X63.52630 Y6.14273
X63.74655 Y6.27108
X63.93649 Y6.44115
X64.08828 Y6.64598
X64.19572 Y6.87717
X64.24642 Y7.07306
X64.26466 Y7.32726
X64.23136 Y7.58001
X64.14784 Y7.82091
X64.01754 Y8.04001
X63.84584 Y8.22840
X63.63971 Y8.37841
X63.35719 Y8.49962
X63.15899 Y8.54036
X62.97891 Y8.54951
X62.77761 Y8.52903
X62.55351 Y8.46429
X62.57777 Y8.56307
X59.10018 Y12.04061
X59.16992 Y12.15331
X59.24719 Y12.33342
X59.24435 Y14.71815
X59.19898 Y14.83898
X59.10079 Y15.01589
X58.92878 Y15.22722
X58.65799 Y15.43684
X58.41026 Y15.55038
X58.14483 Y15.61175
X57.87244 Y15.61845
X57.67244 Y15.58782
X57.41453 Y15.49986
X57.17961 Y15.36184
X56.93142 Y15.12592
X56.81583 Y14.95986
X56.70437 Y14.71815
X56.70722 Y12.33342
X56.75258 Y12.21259
X56.85078 Y12.03568
X57.07381 Y11.77584
X57.29358 Y11.61473
X57.47524 Y11.52562
X57.73719 Y11.45049
X58.01938 Y11.43012
X61.72958 Y7.71997
X61.66933 Y7.45891
X61.65907 Y7.25685
X61.71094 Y6.91834
X61.81221 Y6.66539
X61.91925 Y6.49368
X62.10172 Y6.29137
X62.32123 Y6.12990
X62.56293 Y6.01845
X63.44769 Y6.02129
X63.56852 Y6.06666
X63.80321 Y6.20506
X64.00527 Y6.38789
X64.16638 Y6.60765
X64.25549 Y6.78931
X64.27708 Y6.84773
X64.27365 Y7.72109
X64.03425 Y8.05042
X63.85567 Y8.23775
X63.65894 Y8.40602
X63.41840 Y8.57112
X63.17652 Y8.62558
X63.02295 Y8.63739
X62.76880 Y8.61557
X62.57777 Y8.56307
X62.60200 Y8.66188
X59.21237 Y12.05146
X59.24755 Y12.11480
X59.24744 Y14.86588
X59.24412 Y14.93690
X59.12659 Y15.13034
X58.93099 Y15.34451
X58.69629 Y15.51495
X58.43205 Y15.63461
X58.14925 Y15.69862
X57.85928 Y15.70443
X57.57404 Y15.65173
X57.30528 Y15.54269
X57.06404 Y15.38180
X56.86002 Y15.17563
X56.70414 Y14.93695
X56.70412 Y12.18569
X56.70744 Y12.11468
X56.82497 Y11.92123
X57.02058 Y11.70706
X57.25527 Y11.53662
X57.51951 Y11.41696
X57.71539 Y11.36627
X57.98265 Y11.34381
X61.63289 Y7.69363
X61.58247 Y7.46333
X61.57221 Y7.26127
X61.62936 Y6.88812
X61.73840 Y6.61936
X61.84543 Y6.44766
X62.03868 Y6.23145
X62.34414 Y6.01822
X63.66644 Y6.02152
X63.85988 Y6.13905
X64.01342 Y6.27085
X64.19790 Y6.49465
X64.27372 Y6.62891
X64.27365 Y7.72109
X64.03425 Y8.05042
X63.85567 Y8.23775
X63.61012 Y8.44280
X63.37705 Y8.59614
X63.12849 Y8.71915
X62.96131 Y8.72261
X62.76001 Y8.70214
X62.60200 Y8.66188
G04 P0 ( dwell for no time -- G64 should not smooth over this point )
G00 Z3.00000 ( retract )

G00 X64.58007 Y7.77859 ( rapid move to begin. )
F50.00000
G01 Z-0.15000
G04 P0 ( dwell for no time -- G64 should not smooth over this point )
F100.00000
X64.58007 Y7.77859
X64.52335 Y7.65896
X64.46999 Y7.44567
X64.46062 Y7.22604
X64.49567 Y7.00900
X64.57370 Y6.80346
X64.69150 Y6.61784
X64.84426 Y6.45970
X65.01032 Y6.34410
X65.21167 Y6.25579
X65.42666 Y6.20979
X65.55411 Y6.20331
X65.77265 Y6.22734
X65.98187 Y6.29485
X66.17321 Y6.40311
X66.33890 Y6.54766
X66.47207 Y6.72259
X66.56727 Y6.92076
X66.62063 Y7.13404
X66.63001 Y7.35367
X66.59937 Y7.55367
X66.51692 Y7.77625
X66.39912 Y7.96188
X66.25972 Y8.10854
X66.06491 Y8.24415
X65.86216 Y8.32919
X65.65086 Y8.37161
X65.53651 Y8.37641
X65.33522 Y8.35593
X65.12493 Y8.29180
X65.05609 Y8.25563
X61.29131 Y12.02037
X61.34594 Y12.07475
X61.47007 Y12.25620
X61.55511 Y12.45895
X61.59763 Y12.67439
X61.60233 Y14.28457
X61.58186 Y14.48587
X61.51772 Y14.69615
X61.40253 Y14.90367
X61.25798 Y15.06936
X61.08305 Y15.20253
X60.88488 Y15.29773
X60.67160 Y15.35109
X60.45196 Y15.36047
X60.25196 Y15.32983
X60.04518 Y15.25513
X59.85768 Y15.14035
X59.69710 Y14.99018
X59.57002 Y14.81076
X59.48171 Y14.60941
X59.43393 Y14.37718
X59.42923 Y12.76700
X59.44970 Y12.56570
X59.51384 Y12.35542
X59.62903 Y12.14790
X59.77358 Y11.98222
X59.94851 Y11.84904
X60.13017 Y11.75994
X60.35996 Y11.70048
X60.56202 Y11.69022
X60.65580 Y11.70282
X64.58007 Y7.77859
X64.47456 Y7.76107
X64.38843 Y7.48487
X64.37283 Y7.24804
X64.40524 Y7.01286
X64.49986 Y6.75744
X64.62843 Y6.55789
X64.79455 Y6.38830
X64.99143 Y6.25561
X65.21093 Y6.16531
X65.40913 Y6.12457
X65.53648 Y6.11609
X65.76422 Y6.13724
X65.99175 Y6.20491
X66.20100 Y6.31697
X66.40768 Y6.49439
X66.55017 Y6.68428
X66.65149 Y6.89896
X66.70753 Y7.12962
X66.71601 Y7.36686
X66.68538 Y7.56686
X66.59076 Y7.82228
X66.46219 Y8.02182
X66.32279 Y8.16848
X66.09920 Y8.32411
X65.91324 Y8.40389
X65.68149 Y8.45515
X65.52770 Y8.46294
X65.32640 Y8.44247
X65.07164 Y8.36312
X61.41379 Y12.02092
X61.53294 Y12.19110
X61.62981 Y12.40787
X61.68463 Y12.67411
X61.68887 Y14.29339
X61.66131 Y14.52917
X61.60073 Y14.72221
X61.46855 Y14.96034
X61.31125 Y15.13814
X61.12136 Y15.28063
X60.90667 Y15.38195
X60.67602 Y15.43799
X60.43878 Y15.44647
X60.23878 Y15.41584
X60.01496 Y15.33672
X59.81165 Y15.21419
X59.63716 Y15.05325
X59.49863 Y14.86047
X59.40175 Y14.64370
X59.34694 Y14.37746
X59.34269 Y12.75819
X59.37025 Y12.52240
X59.43083 Y12.32936
X59.56301 Y12.09123
X59.72032 Y11.91343
X59.91021 Y11.77094
X60.09187 Y11.68183
X60.35555 Y11.61358
X60.62542 Y11.61016
X64.47456 Y7.76107
X64.36981 Y7.74278
X64.30420 Y7.50666
X64.28597 Y7.25246
X64.31927 Y6.99970
X64.42605 Y6.71141
X64.56539 Y6.49797
X64.74484 Y6.31690
X64.95711 Y6.17567
X65.19343 Y6.08009
X65.43095 Y6.03435
X65.57171 Y6.03021
X65.77301 Y6.05068
X66.01779 Y6.12190
X66.28655 Y6.27108
X66.47649 Y6.44115
X66.62828 Y6.64598
X66.71738 Y6.82764
X66.78642 Y7.07306
X66.80199 Y7.38001
X66.75812 Y7.63117
X66.68784 Y7.82091
X66.52523 Y8.08174
X66.34578 Y8.26282
X66.17971 Y8.37841
X65.89719 Y8.49962
X65.69899 Y8.54036
X65.51891 Y8.54951
X65.31761 Y8.52903
X65.09351 Y8.46429
X61.52720 Y12.03058
X61.62996 Y12.18760
X61.70975 Y12.37355
X61.76629 Y12.62212
X61.77675 Y14.27495
X61.75496 Y14.50347
X61.68374 Y14.74825
X61.53456 Y15.01701
X61.36448 Y15.20695
X61.20449 Y15.33080
X60.97800 Y15.44784
X60.73258 Y15.51688
X60.47838 Y15.53512
X60.22562 Y15.50182
X59.98473 Y15.41830
X59.76563 Y15.28800
X59.57724 Y15.11630
X59.42723 Y14.91017
X59.32182 Y14.67802
X59.25994 Y14.37774
X59.25613 Y12.74940
X59.27660 Y12.54810
X59.34783 Y12.30332
X59.49700 Y12.03456
X59.66708 Y11.84462
X59.82707 Y11.72077
X60.05356 Y11.60373
X60.29898 Y11.53469
X60.59400 Y11.51854
X64.36981 Y7.74278
X64.27365 Y7.72109
X64.27710 Y6.84776
X64.35221 Y6.66539
X64.45925 Y6.49368
X64.69516 Y6.24550
X64.86123 Y6.12990
X65.10293 Y6.01845
X65.98769 Y6.02129
X66.10852 Y6.06666
X66.34321 Y6.20506
X66.54527 Y6.38789
X66.70638 Y6.60765
X66.81708 Y6.84773
X66.81365 Y7.72109
X66.70095 Y7.89099
X66.53691 Y8.09284
X66.39567 Y8.23775
X66.19894 Y8.40602
X65.95840 Y8.57112
X65.71652 Y8.62558
X65.56295 Y8.63739
X65.30880 Y8.61557
X65.11777 Y8.56307
X61.64018 Y12.04061
X61.70992 Y12.15331
X61.78719 Y12.33342
X61.78760 Y14.56880
X61.78435 Y14.71815
X61.76674 Y14.77431
X61.60058 Y15.07367
X61.41775 Y15.27573
X61.19799 Y15.43684
X60.95026 Y15.55038
X60.68483 Y15.61175
X60.41244 Y15.61845
X60.21244 Y15.58782
X59.95453 Y15.49986
X59.71961 Y15.36184
X59.47142 Y15.12592
X59.35583 Y14.95986
X59.24437 Y14.71815
X59.24722 Y12.33342
X59.29258 Y12.21259
X59.43099 Y11.97790
X59.61381 Y11.77584
X59.83358 Y11.61473
X60.01524 Y11.52562
X60.27719 Y11.45049
X60.55938 Y11.43012
X63.41840 Y8.57112
X63.65894 Y8.40602
X63.85567 Y8.23775
X63.99691 Y8.09284
X64.16095 Y7.89099
X64.27365 Y7.72109
X64.27370 Y6.62894
X64.43928 Y6.37811
X64.64545 Y6.17410
X64.88414 Y6.01822
X66.20644 Y6.02152
X66.39988 Y6.13905
X66.55342 Y6.27085
X66.78449 Y6.56935
X66.81372 Y6.62891
X66.81365 Y7.72109
X66.70095 Y7.89099
X66.53691 Y8.09284
X66.35472 Y8.27567
X66.15012 Y8.44280
X65.91705 Y8.59614
X65.69010 Y8.71638
X65.50131 Y8.72261
X65.30001 Y8.70214
X65.14200 Y8.66188
X61.75237 Y12.05146
X61.78755 Y12.11480
X61.78744 Y14.86588
X61.78412 Y14.93690
X61.66659 Y15.13034
X61.47099 Y15.34451
