( pcb2gcode 1.3.2 )
( Software-independent Gcode )

G94 ( Millimeters per minute feed rate. )
G21 ( Units == Millimeters. )

G90 ( Absolute coordinates. )
S12000 ( RPM spindle speed. )
F50.00000 ( Feedrate. )

F50.00000 ( Feedrate. )
M3 ( Spindle on clockwise. )
G04 P1.00000
G04 P0 ( dwell for no time -- G64 should not smooth over this point )
G00 Z3.00000 ( retract )

G00 X8.62925 Y12.76700 ( rapid move to begin. )
F25.00000
G01 Z-0.15000
G04 P0 ( dwell for no time -- G64 should not smooth over this point )
F50.00000
X8.62925 Y12.76700
X8.64972 Y12.56570
X8.71385 Y12.35541
X8.82904 Y12.14790
X8.97359 Y11.98221
X9.13359 Y11.85836
X9.34670 Y11.75384
X9.55998 Y11.70048
X9.76204 Y11.69021
X9.99666 Y11.72615
X10.20219 Y11.80418
X10.38782 Y11.92199
X10.54596 Y12.07474
X10.66155 Y12.24081
X10.74987 Y12.44216
X10.79765 Y12.67439
X10.80278 Y14.27550
X10.78187 Y14.48586
X10.71080 Y14.71233
X10.61261 Y14.88924
X10.47075 Y15.05721
X10.28307 Y15.20253
X10.08490 Y15.29772
X9.87161 Y15.35109
X9.65198 Y15.36046
X9.45198 Y15.32983
X9.24520 Y15.25513
X9.05769 Y15.14035
X8.89712 Y14.99018
X8.76150 Y14.79536
X8.67647 Y14.59262
X8.63395 Y14.37718
X8.62925 Y12.76700
X8.54271 Y12.75818
X8.57027 Y12.52239
X8.64472 Y12.29702
X8.74291 Y12.12011
X8.92033 Y11.91343
X9.11022 Y11.77093
X9.29188 Y11.68183
X9.55556 Y11.61358
X9.79280 Y11.60510
X9.99280 Y11.63573
X10.24822 Y11.73035
X10.44776 Y11.85892
X10.59442 Y11.99832
X10.73295 Y12.19110
X10.82983 Y12.40787
X10.88464 Y12.67411
X10.88977 Y14.27522
X10.86841 Y14.49468
X10.78688 Y14.75455
X10.68868 Y14.93146
X10.53676 Y15.11388
X10.32137 Y15.28063
X10.10669 Y15.38195
X9.87603 Y15.43798
X9.67397 Y15.44825
X9.40471 Y15.40700
X9.18337 Y15.32122
X8.98383 Y15.19265
X8.83717 Y15.05325
X8.69864 Y14.86046
X8.60176 Y14.64370
X8.54695 Y14.37746
X8.54271 Y12.75818
X8.45615 Y12.74939
X8.48726 Y12.49636
X8.54784 Y12.30332
X8.66686 Y12.07789
X8.86709 Y11.84462
X9.02709 Y11.72077
X9.25358 Y11.60373
X9.49899 Y11.53469
X9.80595 Y11.51912
X10.05711 Y11.56299
X10.24685 Y11.63327
X10.50768 Y11.79588
X10.68876 Y11.97533
X10.80435 Y12.14139
X10.90976 Y12.37355
X10.97164 Y12.67383
X10.97677 Y14.27494
X10.95497 Y14.50347
X10.86292 Y14.79676
X10.73458 Y15.01700
X10.60278 Y15.17055
X10.40450 Y15.33080
X10.12848 Y15.46618
X9.93260 Y15.51688
X9.67839 Y15.53511
X9.37448 Y15.48858
X9.18475 Y15.41830
X8.96564 Y15.28800
X8.77725 Y15.11629
X8.62724 Y14.91017
X8.52183 Y14.67802
X8.45996 Y14.37774
X8.45615 Y12.74939
X8.36961 Y12.74058
X8.40425 Y12.47030
X8.46483 Y12.27726
X8.59079 Y12.03568
X8.81383 Y11.77584
X9.03359 Y11.61472
X9.21525 Y11.52562
X9.54675 Y11.43982
X9.81914 Y11.43311
X10.01914 Y11.46375
X10.34027 Y11.58270
X10.51197 Y11.68973
X10.71428 Y11.87220
X10.87575 Y12.09171
X10.98756 Y12.34017
X10.98436 Y14.71815
X10.93900 Y14.83898
X10.84080 Y15.01589
X10.66879 Y15.22721
X10.45777 Y15.39958
X10.21634 Y15.52594
X9.95439 Y15.60108
X9.68279 Y15.62201
X9.34428 Y15.57014
X9.09132 Y15.46887
X8.91962 Y15.36183
X8.71731 Y15.17936
X8.55584 Y14.95985
X8.44187 Y14.71231
X8.38007 Y14.44698
X8.36961 Y12.74058
X8.28305 Y12.73179
X8.30352 Y12.53050
X8.41652 Y12.17038
X8.56499 Y11.92123
X8.69679 Y11.76768
X8.99529 Y11.53662
X9.25952 Y11.41696
X9.45541 Y11.36626
X9.74438 Y11.34269
X10.11753 Y11.39984
X10.38629 Y11.50888
X10.55800 Y11.61592
X10.83155 Y11.87594
X10.98743 Y12.11462
X10.98413 Y14.93689
X10.86661 Y15.13034
X10.73481 Y15.28388
X10.51101 Y15.46836
X10.25464 Y15.60405
X9.97618 Y15.68530
X9.68721 Y15.70887
X9.39930 Y15.67380
X9.04530 Y15.54268
X8.80405 Y15.38180
X8.60004 Y15.17563
X8.44172 Y14.93257
X8.33560 Y14.66270
X8.29486 Y14.46450
X8.28305 Y12.73179
G04 P0 ( dwell for no time -- G64 should not smooth over this point )
G00 Z3.00000 ( retract )

G00 X11.16925 Y12.76700 ( rapid move to begin. )
F25.00000
G01 Z-0.15000
G04 P0 ( dwell for no time -- G64 should not smooth over this point )
F50.00000
X11.16925 Y12.76700
X11.18972 Y12.56570
X11.25385 Y12.35541
X11.36904 Y12.14790
X11.51359 Y11.98221
X11.67359 Y11.85836
X11.88670 Y11.75384
X12.09998 Y11.70048
X12.30204 Y11.69021
X12.53666 Y11.72615
X12.74219 Y11.80418
X12.92782 Y11.92199
X13.08596 Y12.07474
X13.20155 Y12.24081
X13.28987 Y12.44216
X13.33765 Y12.67439
X13.34278 Y14.27550
X13.32187 Y14.48586
X13.25080 Y14.71233
X13.15261 Y14.88924
X13.01075 Y15.05721
X12.82307 Y15.20253
X12.62490 Y15.29772
X12.41161 Y15.35109
X12.19198 Y15.36046
X11.99198 Y15.32983
X11.78520 Y15.25513
X11.59769 Y15.14035
X11.43712 Y14.99018
X11.30150 Y14.79536
X11.21647 Y14.59262
X11.17395 Y14.37718
X11.16925 Y12.76700
X11.08271 Y12.75818
X11.11027 Y12.52239
X11.18472 Y12.29702
X11.28291 Y12.12011
X11.46033 Y11.91343
X11.65022 Y11.77093
X11.83188 Y11.68183
X12.09556 Y11.61358
X12.33280 Y11.60510
X12.53280 Y11.63573
X12.78822 Y11.73035
X12.98776 Y11.85892
X13.13442 Y11.99832
X13.27295 Y12.19110
X13.36983 Y12.40787
X13.42464 Y12.67411
X13.42977 Y14.27522
X13.40841 Y14.49468
X13.32688 Y14.75455
X13.22868 Y14.93146
X13.07676 Y15.11388
X12.86137 Y15.28063
X12.64669 Y15.38195
X12.41603 Y15.43798
X12.21397 Y15.44825
X11.94471 Y15.40700
X11.72337 Y15.32122
X11.52383 Y15.19265
X11.37717 Y15.05325
X11.23864 Y14.86046
X11.14176 Y14.64370
X11.08695 Y14.37746
X11.08271 Y12.75818
X10.99615 Y12.74939
X11.02726 Y12.49636
X11.08784 Y12.30332
X11.20686 Y12.07789
X11.40709 Y11.84462
X11.56709 Y11.72077
X11.79358 Y11.60373
X12.03899 Y11.53469
X12.34595 Y11.51912
X12.59711 Y11.56299
X12.78685 Y11.63327
X13.04768 Y11.79588
X13.22876 Y11.97533
X13.34435 Y12.14139
X13.44976 Y12.37355
X13.51164 Y12.67383
X13.51677 Y14.27494
X13.49497 Y14.50347
X13.40292 Y14.79676
X13.27458 Y15.01700
X13.14278 Y15.17055
X12.94450 Y15.33080
X12.66848 Y15.46618
X12.42045 Y15.52485
X12.16564 Y15.53245
X11.91448 Y15.48858
X11.72475 Y15.41830
X11.50564 Y15.28800
X11.31725 Y15.11629
X11.14161 Y14.86397
X11.04603 Y14.62765
X10.99996 Y14.37774
X10.98723 Y12.33342
X11.03260 Y12.21259
X11.13079 Y12.03568
X11.35383 Y11.77584
X11.57359 Y11.61472
X11.75525 Y11.52562
X12.08675 Y11.43982
X12.35914 Y11.43311
X12.55914 Y11.46375
X12.88027 Y11.58270
X13.05197 Y11.68973
X13.25428 Y11.87220
X13.41575 Y12.09171
X13.52756 Y12.34017
X13.52436 Y14.71815
X13.47900 Y14.83898
X13.38080 Y15.01589
X13.20879 Y15.22721
X12.99777 Y15.39958
X12.75634 Y15.52594
X12.49439 Y15.60108
X12.22279 Y15.62201
X11.88428 Y15.57014
X11.63132 Y15.46887
X11.40397 Y15.31876
X11.21144 Y15.12592
X11.06165 Y14.89826
X10.98403 Y14.71139
X10.98746 Y12.11467
X11.10499 Y11.92123
X11.23679 Y11.76768
X11.46059 Y11.58320
X11.71695 Y11.44752
X12.08233 Y11.35295
X12.37229 Y11.34714
X12.57229 Y11.37777
X12.84727 Y11.47012
X13.09800 Y11.61592
X13.37155 Y11.87594
X13.52743 Y12.11462
X13.52413 Y14.93689
X13.40661 Y15.13034
X13.27481 Y15.28388
X13.05101 Y15.46836
X12.79464 Y15.60405
X12.51618 Y15.68530
X12.22721 Y15.70887
X11.93930 Y15.67380
X11.58530 Y15.54268
X11.34405 Y15.38180
X11.14004 Y15.17563
X10.98416 Y14.93694
X10.98406 Y12.74815
G04 P0 ( dwell for no time -- G64 should not smooth over this point )
G00 Z3.00000 ( retract )

G00 X15.13276 Y8.34036 ( rapid move to begin. )
F25.00000
G01 Z-0.15000
G04 P0 ( dwell for no time -- G64 should not smooth over this point )
F50.00000
X15.13276 Y8.34036
X15.13276 Y11.74701
X15.28219 Y11.80418
X15.45390 Y11.91122
X15.61448 Y12.06138
X15.74155 Y12.24081
X15.83513 Y12.45894
X15.87765 Y12.67439
X15.88234 Y14.28457
X15.85832 Y14.50311
X15.79080 Y14.71233
X15.68255 Y14.90367
X15.53800 Y15.06935
X15.36307 Y15.20253
X15.16490 Y15.29772
X14.95161 Y15.35109
X14.73198 Y15.36046
X14.51494 Y15.32541
X14.30940 Y15.24738
X14.12378 Y15.12958
X13.97712 Y14.99018
X13.84150 Y14.79536
X13.75647 Y14.59262
X13.71395 Y14.37718
X13.70882 Y12.77606
X13.73328 Y12.54845
X13.80079 Y12.33923
X13.89899 Y12.16232
X14.04084 Y11.99435
X14.22852 Y11.84904
X14.45880 Y11.74556
X14.45880 Y8.29459
X14.24244 Y8.17661
X14.07676 Y8.03205
X13.95291 Y7.87206
X13.84839 Y7.65895
X13.79502 Y7.44567
X13.78565 Y7.22604
X13.81628 Y7.02604
X13.89098 Y6.81926
X14.01654 Y6.61783
X14.16929 Y6.45969
X14.33536 Y6.34410
X14.55349 Y6.25052
X14.76479 Y6.20811
X14.87915 Y6.20331
X15.08044 Y6.22378
X15.30691 Y6.29485
X15.49825 Y6.40310
X15.66393 Y6.54765
X15.79710 Y6.72258
X15.89230 Y6.92075
X15.94567 Y7.13404
X15.95593 Y7.33609
X15.91999 Y7.57071
X15.84196 Y7.77625
X15.72415 Y7.96187
X15.57140 Y8.12002
X15.40533 Y8.23561
X15.20399 Y8.32393
X15.13276 Y8.34036
X15.21976 Y8.40968
X15.21976 Y11.68640
X15.32822 Y11.73035
X15.49992 Y11.83738
X15.67442 Y11.99832
X15.81295 Y12.19110
X15.92034 Y12.44142
X15.96464 Y12.67411
X15.96977 Y14.27522
X15.94841 Y14.49468
X15.88074 Y14.72221
X15.76868 Y14.93146
X15.61676 Y15.11388
X15.43127 Y15.26199
X15.18669 Y15.38195
X14.95603 Y15.43798
X14.71880 Y15.44647
X14.48471 Y15.40700
X14.26337 Y15.32122
X14.06383 Y15.19265
X13.91717 Y15.05325
X13.76155 Y14.82965
X13.67125 Y14.61015
X13.62695 Y14.37746
X13.62182 Y12.77634
X13.65027 Y12.52239
X13.72472 Y12.29702
X13.82291 Y12.12011
X13.97483 Y11.93769
X14.16033 Y11.78958
X14.37181 Y11.68188
X14.37181 Y8.34999
X14.18578 Y8.24262
X14.03223 Y8.11082
X13.86548 Y7.89543
X13.77638 Y7.71377
X13.71346 Y7.48486
X13.69965 Y7.21285
X13.73028 Y7.01285
X13.80940 Y6.78903
X13.95347 Y6.55789
X14.09286 Y6.41123
X14.28565 Y6.27270
X14.53597 Y6.16531
X14.73416 Y6.12457
X14.86152 Y6.11608
X15.08925 Y6.13724
X15.34912 Y6.21877
X15.55491 Y6.33709
X15.73271 Y6.49439
X15.87521 Y6.68428
X15.97653 Y6.89896
X16.03256 Y7.12962
X16.04282 Y7.33168
X16.00157 Y7.60094
X15.91580 Y7.82228
X15.80876 Y7.99398
X15.62111 Y8.19141
X15.42423 Y8.32410
X15.21976 Y8.40968
X15.30675 Y8.46914
X15.30675 Y11.62585
X15.54595 Y11.76357
X15.73434 Y11.93527
X15.88435 Y12.14139
X16.00556 Y12.42392
X16.05164 Y12.67383
X16.05677 Y14.27494
X16.03497 Y14.50347
X15.96375 Y14.74825
X15.84473 Y14.97367
X15.68278 Y15.17055
X15.48450 Y15.33080
X15.20848 Y15.46618
X14.96045 Y15.52485
X14.70564 Y15.53245
X14.45448 Y15.48858
X14.26475 Y15.41830
X14.04564 Y15.28800
X13.85725 Y15.11629
X13.68161 Y14.86397
X13.58603 Y14.62765
X13.53996 Y14.37774
X13.53483 Y12.77662
X13.56726 Y12.49636
X13.64867 Y12.25480
X13.77701 Y12.03456
X13.94709 Y11.84462
X14.10709 Y11.72077
X14.28481 Y11.62765
X14.28481 Y8.40117
X14.12911 Y8.30864
X13.97557 Y8.17683
X13.78738 Y7.93373
X13.69827 Y7.75207
X13.62924 Y7.50666
X13.61367 Y7.19970
X13.65753 Y6.94854
X13.72781 Y6.75880
X13.89043 Y6.49797
X14.06988 Y6.31689
X14.23594 Y6.20130
X14.51847 Y6.08009
X14.75598 Y6.03434
X14.89675 Y6.03020
X15.09804 Y6.05068
X15.34282 Y6.12190
X15.61158 Y6.27107
X15.80152 Y6.44115
X15.95331 Y6.64598
X16.06075 Y6.87717
X16.11145 Y7.07305
X16.12969 Y7.32726
X16.08316 Y7.63117
X16.01287 Y7.82090
X15.88257 Y8.04001
X15.67081 Y8.26281
X15.50475 Y8.37841
X15.30675 Y8.46914
X15.39375 Y8.52649
X15.39375 Y11.56969
X15.59197 Y11.68973
X15.79428 Y11.87220
X15.95575 Y12.09171
X16.06721 Y12.33342
X16.06436 Y14.71815
X16.01900 Y14.83898
X15.88059 Y15.07367
X15.69776 Y15.27573
X15.53777 Y15.39958
X15.23028 Y15.55038
X14.96485 Y15.61175
X14.69246 Y15.61845
X14.49246 Y15.58782
X14.23454 Y15.49986
X13.94397 Y15.31876
X13.79731 Y15.17936
X13.63584 Y14.95985
X13.52403 Y14.71139
X13.52723 Y12.33342
X13.57260 Y12.21259
X13.67079 Y12.03568
X13.84280 Y11.82435
X14.05382 Y11.65199
X14.19782 Y11.57342
X14.19782 Y8.45240
X14.07244 Y8.37465
X13.91890 Y8.24285
X13.70927 Y7.97206
X13.62017 Y7.79040
X13.54504 Y7.52845
X13.52766 Y7.18651
X13.57597 Y6.91834
X13.67724 Y6.66538
X13.78428 Y6.49368
X14.02019 Y6.24550
X14.18626 Y6.12990
X14.42797 Y6.01844
X15.31272 Y6.02129
X15.43355 Y6.06665
X15.61046 Y6.16485
X15.87030 Y6.38789
X16.03142 Y6.60765
X16.06233 Y6.67067
X16.09299 Y6.80282
X16.13439 Y7.12444
X16.13952 Y7.32677
X16.12270 Y7.58405
X16.06235 Y7.91608
X15.91333 Y8.14168
X15.77394 Y8.28834
X15.55443 Y8.44981
X15.39375 Y8.52649
X15.48074 Y8.58382
X15.48074 Y11.51787
X15.70754 Y11.66977
X15.85420 Y11.80916
X16.06743 Y12.11462
X16.06413 Y14.93689
X15.94661 Y15.13034
X15.81481 Y15.28388
X15.51630 Y15.51495
X15.33464 Y15.60405
X15.05618 Y15.68530
X14.67930 Y15.70443
X14.39406 Y15.65172
X14.12530 Y15.54268
X13.95360 Y15.43565
X13.73739 Y15.24240
X13.52416 Y14.93694
X13.52746 Y12.11467
X13.64499 Y11.92123
X13.77679 Y11.76768
X14.00059 Y11.58320
X14.11082 Y11.51920
X14.11082 Y8.50361
X13.86223 Y8.30886
X13.63117 Y8.01036
X13.54206 Y7.82870
X13.46081 Y7.55024
X13.44168 Y7.17336
X13.49439 Y6.88812
X13.60343 Y6.61936
X13.71047 Y6.44765
X13.90371 Y6.23145
X14.20917 Y6.01822
X15.53147 Y6.02152
X15.72491 Y6.13904
X15.87846 Y6.27084
X15.97536 Y6.38149
X16.09299 Y6.80282
X16.13439 Y7.12444
X16.13952 Y7.32677
X16.12270 Y7.58405
X16.07891 Y7.84536
X15.97536 Y8.20267
X15.77020 Y8.40561
X15.60414 Y8.52121
X15.48074 Y8.58382
G04 P0 ( dwell for no time -- G64 should not smooth over this point )
G00 Z3.00000 ( retract )

G00 X17.67276 Y8.37686 ( rapid move to begin. )
F25.00000
G01 Z-0.15000
G04 P0 ( dwell for no time -- G64 should not smooth over this point )
F50.00000
X17.67276 Y8.37686
X17.67276 Y11.74701
X17.82219 Y11.80418
X17.99390 Y11.91122
X18.15448 Y12.06138
X18.28155 Y12.24081
X18.37513 Y12.45894
X18.41765 Y12.67439
X18.42234 Y14.28457
X18.39832 Y14.50311
X18.33080 Y14.71233
X18.22255 Y14.90367
X18.07800 Y15.06935
X17.90307 Y15.20253
X17.70490 Y15.29772
X17.49161 Y15.35109
X17.27198 Y15.36046
X17.05494 Y15.32541
X16.84940 Y15.24738
X16.66378 Y15.12958
X16.51712 Y14.99018
X16.38150 Y14.79536
X16.29647 Y14.59262
X16.25395 Y14.37718
X16.24882 Y12.77606
X16.27328 Y12.54845
X16.34079 Y12.33923
X16.43899 Y12.16232
X16.58084 Y11.99435
X16.76852 Y11.84904
X16.99880 Y11.74556
X16.99880 Y8.37686
X16.39334 Y8.37518
X16.34882 Y8.35136
X16.32499 Y8.30683
X16.32331 Y6.28987
X16.36200 Y6.21753
X16.41031 Y6.20287
X18.41030 Y6.20287
X18.45864 Y6.21753
X18.49565 Y6.27288
X18.49070 Y8.32314
X18.45864 Y8.36218
X18.41030 Y8.37686
X17.67276 Y8.37686
X17.75976 Y8.46385
X17.75976 Y11.68640
X17.86822 Y11.73035
X18.03992 Y11.83738
X18.21442 Y11.99832
X18.35295 Y12.19110
X18.46034 Y12.44142
X18.50464 Y12.67411
X18.50977 Y14.27522
X18.48841 Y14.49468
X18.42074 Y14.72221
X18.30868 Y14.93146
X18.15676 Y15.11388
X17.97127 Y15.26199
X17.72669 Y15.38195
X17.49603 Y15.43798
X17.25880 Y15.44647
X17.02471 Y15.40700
X16.80337 Y15.32122
X16.60383 Y15.19265
X16.45717 Y15.05325
X16.30155 Y14.82965
X16.21125 Y14.61015
X16.16695 Y14.37746
X16.16182 Y12.77634
X16.19027 Y12.52239
X16.26472 Y12.29702
X16.36291 Y12.12011
X16.51483 Y11.93769
X16.70033 Y11.78958
X16.91181 Y11.68188
X16.91181 Y8.46385
X16.37637 Y8.46050
X16.28730 Y8.41288
X16.23967 Y8.32380
X16.23632 Y6.28987
X16.24958 Y6.22327
X16.31366 Y6.14519
X16.41031 Y6.11588
X18.41030 Y6.11588
X18.50698 Y6.14519
X18.55498 Y6.19320
X18.58097 Y6.25591
X18.58429 Y8.28986
X18.57106 Y8.35644
X18.50698 Y8.43452
X18.44426 Y8.46050
X17.75976 Y8.46385
X17.84675 Y8.55085
X17.84675 Y11.62585
X18.08595 Y11.76357
X18.27434 Y11.93527
X18.42435 Y12.14139
X18.54556 Y12.42392
X18.59164 Y12.67383
X18.59677 Y14.27494
X18.57497 Y14.50347
X18.50375 Y14.74825
X18.38473 Y14.97367
X18.22278 Y15.17055
X18.02450 Y15.33080
X17.74848 Y15.46618
X17.50045 Y15.52485
X17.24564 Y15.53245
X16.99448 Y15.48858
X16.80475 Y15.41830
X16.58564 Y15.28800
X16.39725 Y15.11629
X16.22161 Y14.86397
X16.14183 Y14.67802
X16.08529 Y14.42945
X16.07483 Y12.77662
X16.10726 Y12.49636
X16.18867 Y12.25480
X16.31701 Y12.03456
X16.48709 Y11.84462
X16.64709 Y11.72077
X16.82481 Y11.62765
X16.82481 Y8.55085
X16.41031 Y8.55085
X16.31044 Y8.53096
X16.19332 Y8.43485
X16.15435 Y8.34077
X16.14932 Y6.28987
X16.19332 Y6.14486
X16.26533 Y6.07285
X16.41031 Y6.02888
X18.41030 Y6.02888
X18.55531 Y6.07285
X18.62732 Y6.14486
X18.66629 Y6.23894
X18.67129 Y8.28986
X18.65143 Y8.38974
X18.55531 Y8.50686
X18.46123 Y8.54582
X17.84675 Y8.55085
X17.93375 Y8.63784
X17.93375 Y11.56969
X18.13197 Y11.68973
X18.33428 Y11.87220
X18.49575 Y12.09171
X18.60721 Y12.33342
X18.60436 Y14.71815
X18.55900 Y14.83898
X18.42059 Y15.07367
X18.23776 Y15.27573
X18.07777 Y15.39958
X17.77028 Y15.55038
X17.50485 Y15.61175
X17.23246 Y15.61845
X16.96428 Y15.57014
X16.71132 Y15.46887
X16.53962 Y15.36183
X16.29144 Y15.12592
X16.17584 Y14.95985
X16.06439 Y14.71815
X16.06723 Y12.33342
X16.11260 Y12.21259
X16.21079 Y12.03568
X16.38280 Y11.82435
X16.59382 Y11.65199
X16.73782 Y11.57342
X16.73782 Y8.63784
X16.41031 Y8.63784
X16.27716 Y8.61135
X16.21699 Y8.57920
X16.12098 Y8.48318
X16.08882 Y8.42301
X16.06233 Y8.28986
X16.06233 Y7.91615
X16.11519 Y7.64303
X16.13952 Y7.32677
X16.13010 Y7.06823
X16.06233 Y6.67069
X16.06233 Y6.28987
X16.08882 Y6.15670
X16.12098 Y6.09652
X16.21699 Y6.00051
X16.27716 Y5.96836
X16.41031 Y5.94189
X16.79100 Y5.94189
X17.12313 Y6.00303
X17.42400 Y6.01969
X17.76926 Y5.99388
X18.03657 Y5.94189
X18.41030 Y5.94189
X18.54348 Y5.96836
X18.60365 Y6.00051
X18.69966 Y6.09652
X18.75160 Y6.22197
X18.75828 Y8.28986
X18.73182 Y8.42301
X18.69966 Y8.48318
X18.60365 Y8.57920
X18.47820 Y8.63114
X17.93375 Y8.63784
X18.02074 Y8.72484
X18.02074 Y11.51787
X18.24754 Y11.66977
X18.39420 Y11.80916
X18.60743 Y12.11462
X18.60413 Y14.93689
X18.48661 Y15.13034
X18.35481 Y15.28388
X18.05630 Y15.51495
X17.87464 Y15.60405
X17.59618 Y15.68530
X17.21930 Y15.70443
X16.93406 Y15.65172
X16.66530 Y15.54268
X16.49360 Y15.43565
X16.27739 Y15.24240
X16.06416 Y14.93694
X16.06746 Y12.11467
X16.18499 Y11.92123
X16.31679 Y11.76768
X16.54059 Y11.58320
X16.65082 Y11.51920
X16.65082 Y8.72484
X16.32547 Y8.71646
X16.16865 Y8.65151
X16.10274 Y8.59743
X16.00846 Y8.45631
X15.97533 Y8.28986
X15.97533 Y8.20274
X16.06294 Y7.91402
X16.11519 Y7.64303
X16.13952 Y7.32677
X16.13010 Y7.06823
X16.10431 Y6.86589
X16.04605 Y6.60049
X15.97533 Y6.38144
X15.97533 Y6.28987
X16.00846 Y6.12340
X16.10274 Y5.98227
X16.16865 Y5.92820
X16.32547 Y5.86325
X16.50246 Y5.85489
X16.92082 Y5.97204
X17.18059 Y6.00889
X17.52529 Y6.01712
X17.83004 Y5.98456
X18.10449 Y5.92426
X18.32262 Y5.85489
X18.41030 Y5.85489
X18.57678 Y5.88799
X18.71790 Y5.98227
X18.77198 Y6.04819
X18.81218 Y6.12340
X18.84528 Y6.28987
X18.83692 Y8.37470
X18.81218 Y8.45631
X18.71790 Y8.59743
X18.57678 Y8.69172
X18.41030 Y8.72484
X18.02074 Y8.72484
G04 P0 ( dwell for no time -- G64 should not smooth over this point )
G00 Z3.00000 ( retract )

G00 X22.25510 Y8.25563 ( rapid move to begin. )
F25.00000
G01 Z-0.15000
G04 P0 ( dwell for no time -- G64 should not smooth over this point )
F50.00000
X22.25510 Y8.25563
X20.21276 Y10.29796
X20.21276 Y11.74701
X20.36219 Y11.80418
X20.53390 Y11.91122
X20.70596 Y12.07474
X20.83009 Y12.25620
X20.90987 Y12.44216
X20.95587 Y12.65714
X20.96278 Y14.27550
X20.94187 Y14.48586
X20.87774 Y14.69615
X20.77261 Y14.88924
X20.63075 Y15.05721
X20.45800 Y15.19320
X20.26141 Y15.29163
X20.04901 Y15.34842
X19.82955 Y15.36135
X19.61198 Y15.32983
X19.40520 Y15.25513
X19.20378 Y15.12958
X19.04563 Y14.97682
X18.92150 Y14.79536
X18.83647 Y14.59262
X18.79395 Y14.37718
X18.78882 Y12.77606
X18.80972 Y12.56570
X18.87385 Y12.35541
X18.98904 Y12.14790
X19.13359 Y11.98221
X19.29359 Y11.85836
X19.53880 Y11.74556
X19.53880 Y10.15839
X19.56811 Y10.02171
X19.63753 Y9.92009
X21.77908 Y7.77859
X21.72236 Y7.65895
X21.66900 Y7.44567
X21.65962 Y7.22604
X21.69026 Y7.02604
X21.77271 Y6.80346
X21.89051 Y6.61783
X22.02991 Y6.47117
X22.22472 Y6.33556
X22.41068 Y6.25578
X22.62566 Y6.20978
X22.75312 Y6.20331
X22.95442 Y6.22378
X23.18088 Y6.29485
X23.37222 Y6.40310
X23.53790 Y6.54765
X23.67108 Y6.72258
X23.76628 Y6.92075
X23.81964 Y7.13404
X23.82990 Y7.33609
X23.79838 Y7.55367
X23.72368 Y7.76045
X23.60890 Y7.94796
X23.45873 Y8.10853
X23.27931 Y8.23561
X23.06117 Y8.32918
X22.86298 Y8.36993
X22.73552 Y8.37640
X22.51698 Y8.35237
X22.32394 Y8.29180
X22.25510 Y8.25563
X22.27065 Y8.36312
X20.29976 Y10.33401
X20.29976 Y11.68640
X20.40822 Y11.73035
X20.57992 Y11.83738
X20.77736 Y12.02504
X20.91005 Y12.22191
X20.98983 Y12.40787
X21.04108 Y12.63961
X21.04977 Y14.27522
X21.02841 Y14.49468
X20.96074 Y14.72221
X20.84868 Y14.93146
X20.69676 Y15.11388
X20.51127 Y15.26199
X20.29971 Y15.36973
X20.07080 Y15.43265
X19.83397 Y15.44825
X19.59880 Y15.41583
X19.37497 Y15.33671
X19.17167 Y15.21418
X18.99717 Y15.05325
X18.85864 Y14.86046
X18.75125 Y14.61015
X18.70695 Y14.37746
X18.70182 Y12.77634
X18.73027 Y12.52239
X18.80472 Y12.29702
X18.90291 Y12.12011
X19.08033 Y11.91343
X19.27022 Y11.77093
X19.45181 Y11.68188
X19.45181 Y10.15839
X19.49138 Y9.98072
X19.57601 Y9.85857
X21.67357 Y7.76106
X21.63814 Y7.68075
X21.58210 Y7.45009
X21.57362 Y7.21285
X21.60425 Y7.01285
X21.69887 Y6.75743
X21.82744 Y6.55789
X21.96684 Y6.41123
X22.19043 Y6.25560
X22.37639 Y6.17582
X22.60814 Y6.12457
X22.76193 Y6.11677
X22.96323 Y6.13724
X23.22310 Y6.21877
X23.42889 Y6.33709
X23.60669 Y6.49439
X23.74918 Y6.68428
X23.85050 Y6.89896
X23.90653 Y7.12962
X23.91680 Y7.33168
X23.88439 Y7.56685
X23.80526 Y7.79068
X23.68273 Y7.99398
X23.52180 Y8.16848
X23.32901 Y8.30701
X23.07870 Y8.41440
X22.88050 Y8.45514
X22.72670 Y8.46294
X22.49092 Y8.43538
X22.27065 Y8.36312
X22.29252 Y8.46429
X20.38675 Y10.37005
X20.38675 Y11.62585
X20.62595 Y11.76357
X20.84876 Y11.97533
X20.98998 Y12.18760
X21.06976 Y12.37355
X21.12630 Y12.62211
X21.13677 Y14.27494
X21.11497 Y14.50347
X21.04375 Y14.74825
X20.92473 Y14.97367
X20.76278 Y15.17055
X20.56450 Y15.33080
X20.33801 Y15.44784
X20.09260 Y15.51688
X19.83839 Y15.53511
X19.58564 Y15.50181
X19.34475 Y15.41830
X19.12564 Y15.28800
X18.90284 Y15.07624
X18.76161 Y14.86397
X18.66603 Y14.62765
X18.61996 Y14.37774
X18.61483 Y12.77662
X18.64726 Y12.49636
X18.70784 Y12.30332
X18.82686 Y12.07789
X19.02709 Y11.84462
X19.18709 Y11.72077
X19.36481 Y11.62765
X19.36481 Y10.15839
X19.38089 Y10.03383
X19.41465 Y9.93975
X19.51449 Y9.79705
X21.56882 Y7.74277
X21.49524 Y7.45451
X21.48764 Y7.19970
X21.51827 Y6.99970
X21.62506 Y6.71141
X21.73209 Y6.53970
X21.90380 Y6.35131
X22.15612 Y6.17567
X22.34207 Y6.09589
X22.59064 Y6.03935
X22.77072 Y6.03020
X22.97202 Y6.05068
X23.26531 Y6.14273
X23.48555 Y6.27107
X23.67550 Y6.44115
X23.82729 Y6.64598
X23.93473 Y6.87717
X23.98543 Y7.07305
X24.00366 Y7.32726
X23.97036 Y7.58001
X23.88685 Y7.82090
X23.75655 Y8.04001
X23.58484 Y8.22840
X23.37872 Y8.37841
X23.09620 Y8.49962
X22.89800 Y8.54036
X22.71792 Y8.54950
X22.51662 Y8.52903
X22.29252 Y8.46429
X22.31677 Y8.56307
X20.47375 Y10.40609
X20.47375 Y11.56969
X20.67197 Y11.68973
X20.87428 Y11.87220
X21.03575 Y12.09171
X21.14721 Y12.33342
X21.14761 Y14.56880
X21.14436 Y14.71815
X21.12676 Y14.77431
X21.00080 Y15.01589
X20.82879 Y15.22721
X20.61777 Y15.39958
X20.37634 Y15.52594
X20.11439 Y15.60108
X19.84279 Y15.62201
X19.57246 Y15.58782
X19.31454 Y15.49986
X19.07962 Y15.36183
X18.87731 Y15.17936
X18.71584 Y14.95985
X18.60439 Y14.71815
X18.60398 Y12.48277
X18.60723 Y12.33342
X18.62483 Y12.27726
X18.79100 Y11.97789
X18.97383 Y11.77584
X19.13382 Y11.65199
X19.27782 Y11.57342
X19.27782 Y10.15839
X19.29763 Y10.00856
X19.33791 Y9.89875
X19.45297 Y9.73553
X21.46859 Y7.71997
X21.40834 Y7.45890
X21.39808 Y7.25685
X21.44995 Y6.91834
X21.55122 Y6.66538
X21.65825 Y6.49368
X21.84073 Y6.29137
X22.06023 Y6.12990
X22.30194 Y6.01844
X23.18670 Y6.02129
X23.30753 Y6.06665
X23.54222 Y6.20506
X23.74428 Y6.38789
X23.90539 Y6.60765
X23.99449 Y6.78931
X24.01608 Y6.84773
X24.01266 Y7.72108
X23.77326 Y8.05042
X23.59467 Y8.23774
X23.39795 Y8.40602
X23.15741 Y8.57112
X22.91553 Y8.62558
X22.76196 Y8.63739
X22.50781 Y8.61557
X22.31677 Y8.56307
X22.34101 Y8.66187
X20.56074 Y10.44213
X20.56074 Y11.51787
X20.78754 Y11.66977
X20.93420 Y11.80916
X21.14743 Y12.11462
X21.14413 Y14.93689
X21.02661 Y15.13034
X20.83100 Y15.34451
X20.59630 Y15.51495
X20.33207 Y15.63461
X20.04926 Y15.69861
X19.75930 Y15.70443
X19.55930 Y15.67380
X19.28432 Y15.58144
X19.03360 Y15.43565
X18.81739 Y15.24240
X18.64444 Y15.00956
X18.60413 Y14.93153
X18.60746 Y12.11467
X18.72499 Y11.92123
X18.85679 Y11.76768
X19.08059 Y11.58320
X19.19082 Y11.51920
X19.19082 Y10.15839
X19.21439 Y9.98331
X19.26118 Y9.85778
X19.39146 Y9.67401
X21.37189 Y7.69363
X21.32147 Y7.46332
X21.31121 Y7.26127
X21.36836 Y6.88812
X21.47741 Y6.61936
X21.58444 Y6.44765
X21.77768 Y6.23145
X22.08314 Y6.01822
X23.40544 Y6.02152
X23.59889 Y6.13904
X23.75243 Y6.27084
X23.93691 Y6.49464
X24.01273 Y6.62891
X24.01266 Y7.72108
X23.77326 Y8.05042
X23.59467 Y8.23774
X23.34913 Y8.44280
X23.11606 Y8.59614
X22.86750 Y8.71915
X22.70031 Y8.72260
X22.49902 Y8.70213
X22.34101 Y8.66187
G04 P0 ( dwell for no time -- G64 should not smooth over this point )
G00 Z3.00000 ( retract )

G00 X24.79510 Y8.25560 ( rapid move to begin. )
F25.00000
G01 Z-0.15000
G04 P0 ( dwell for no time -- G64 should not smooth over this point )
F50.00000
X24.79510 Y8.25560
X22.75276 Y10.29794
X22.75276 Y11.74701
X22.90219 Y11.80418
X23.07390 Y11.91122
X23.24596 Y12.07474
X23.37009 Y12.25620
X23.44987 Y12.44216
X23.49587 Y12.65714
X23.50278 Y14.27550
X23.48187 Y14.48586
X23.41774 Y14.69615
X23.31261 Y14.88924
X23.17075 Y15.05721
X22.99800 Y15.19320
X22.80141 Y15.29163
X22.58901 Y15.34842
X22.36955 Y15.36135
X22.15198 Y15.32983
X21.94520 Y15.25513
X21.74378 Y15.12958
X21.58563 Y14.97682
X21.46150 Y14.79536
X21.37647 Y14.59262
X21.33395 Y14.37718
X21.32882 Y12.77606
X21.34972 Y12.56570
X21.41385 Y12.35541
X21.52904 Y12.14790
X21.67359 Y11.98221
X21.83359 Y11.85836
X22.07880 Y11.74556
X22.07880 Y10.15839
X22.10811 Y10.02171
X22.17753 Y9.92009
X24.31908 Y7.77859
X24.26236 Y7.65895
X24.20900 Y7.44567
X24.19962 Y7.22604
X24.23026 Y7.02604
X24.31271 Y6.80346
X24.43051 Y6.61783
X24.56991 Y6.47117
X24.76472 Y6.33556
X24.95068 Y6.25578
X25.16566 Y6.20978
X25.29312 Y6.20331
X25.49442 Y6.22378
X25.72088 Y6.29485
X25.91222 Y6.40310
X26.07790 Y6.54765
X26.21108 Y6.72258
X26.30628 Y6.92075
X26.35964 Y7.13404
X26.36990 Y7.33609
X26.33838 Y7.55367
X26.26368 Y7.76045
X26.14890 Y7.94796
X25.99873 Y8.10853
X25.81931 Y8.23561
X25.60117 Y8.32918
X25.40298 Y8.36993
X25.27552 Y8.37640
X25.05698 Y8.35237
X24.86394 Y8.29180
X24.79510 Y8.25560
X24.81065 Y8.36309
X22.83976 Y10.33398
X22.83976 Y11.68640
X22.94822 Y11.73035
X23.11992 Y11.83738
X23.31736 Y12.02504
X23.45005 Y12.22191
X23.52983 Y12.40787
X23.58108 Y12.63961
X23.58977 Y14.27522
X23.56841 Y14.49468
X23.50074 Y14.72221
X23.38868 Y14.93146
X23.23676 Y15.11388
X23.05127 Y15.26199
X22.83971 Y15.36973
X22.61080 Y15.43265
X22.37397 Y15.44825
X22.13880 Y15.41583
X21.91497 Y15.33671
X21.71167 Y15.21418
X21.53717 Y15.05325
X21.39864 Y14.86046
X21.29125 Y14.61015
X21.24695 Y14.37746
X21.24182 Y12.77634
X21.27027 Y12.52239
X21.34472 Y12.29702
X21.44291 Y12.12011
X21.62033 Y11.91343
X21.81022 Y11.77093
X21.99181 Y11.68188
X21.99181 Y10.15839
X22.03138 Y9.98072
X22.11601 Y9.85857
X24.21357 Y7.76106
X24.17814 Y7.68075
X24.12210 Y7.45009
X24.11362 Y7.21285
X24.14425 Y7.01285
X24.23887 Y6.75743
X24.36744 Y6.55789
X24.50684 Y6.41123
X24.73043 Y6.25560
X24.91639 Y6.17582
X25.14814 Y6.12457
X25.30193 Y6.11677
X25.50323 Y6.13724
X25.76310 Y6.21877
X25.96889 Y6.33709
X26.14669 Y6.49439
X26.28918 Y6.68428
X26.39050 Y6.89896
X26.44653 Y7.12962
X26.45680 Y7.33168
X26.42439 Y7.56685
X26.34526 Y7.79068
X26.22273 Y7.99398
X26.06180 Y8.16848
X25.86901 Y8.30701
X25.61870 Y8.41440
X25.42050 Y8.45514
X25.26670 Y8.46294
X25.03092 Y8.43538
X24.81065 Y8.36309
X24.83249 Y8.46429
X22.92675 Y10.37002
X22.92675 Y11.62585
X23.16595 Y11.76357
X23.38876 Y11.97533
X23.52998 Y12.18760
X23.60976 Y12.37355
X23.66630 Y12.62211
X23.67677 Y14.27494
X23.65497 Y14.50347
X23.58375 Y14.74825
X23.46473 Y14.97367
X23.30278 Y15.17055
X23.10450 Y15.33080
X22.87801 Y15.44784
X22.63260 Y15.51688
X22.37839 Y15.53511
X22.12564 Y15.50181
X21.88475 Y15.41830
X21.66564 Y15.28800
X21.44284 Y15.07624
X21.30161 Y14.86397
X21.20603 Y14.62765
X21.15996 Y14.37774
X21.15483 Y12.77662
X21.18726 Y12.49636
X21.24784 Y12.30332
X21.36686 Y12.07789
X21.56709 Y11.84462
X21.72709 Y11.72077
X21.90481 Y11.62765
X21.90481 Y10.15839
X21.92089 Y10.03383
X21.95465 Y9.93975
X22.05449 Y9.79705
X24.10882 Y7.74277
X24.03524 Y7.45451
X24.02764 Y7.19970
X24.05827 Y6.99970
X24.16506 Y6.71141
X24.27209 Y6.53970
X24.44380 Y6.35131
X24.69612 Y6.17567
X24.88207 Y6.09589
X25.13064 Y6.03935
X25.31072 Y6.03020
X25.51202 Y6.05068
X25.80531 Y6.14273
X26.02555 Y6.27107
X26.21550 Y6.44115
X26.36729 Y6.64598
X26.47473 Y6.87717
X26.52543 Y7.07305
X26.54366 Y7.32726
X26.51036 Y7.58001
X26.42685 Y7.82090
X26.29655 Y8.04001
X26.12484 Y8.22840
X25.91872 Y8.37841
X25.63620 Y8.49962
X25.43800 Y8.54036
X25.25792 Y8.54950
X25.05662 Y8.52903
X24.83249 Y8.46429
X24.85675 Y8.56307
X23.01375 Y10.40607
X23.01375 Y11.56969
X23.21197 Y11.68973
X23.41428 Y11.87220
X23.57575 Y12.09171
X23.68721 Y12.33342
X23.68761 Y14.56880
X23.68436 Y14.71815
X23.66676 Y14.77431
X23.54080 Y15.01589
X23.36879 Y15.22721
X23.15777 Y15.39958
X22.91634 Y15.52594
X22.65439 Y15.60108
X22.38279 Y15.62201
X22.11246 Y15.58782
X21.85454 Y15.49986
X21.61962 Y15.36183
X21.41731 Y15.17936
X21.25584 Y14.95985
X21.14439 Y14.71815
X21.14398 Y12.48277
X21.14723 Y12.33342
X21.16483 Y12.27726
X21.33100 Y11.97789
X21.51383 Y11.77584
X21.67382 Y11.65199
X21.81782 Y11.57342
X21.81782 Y10.15839
X21.83763 Y10.00856
X21.87791 Y9.89875
X21.99297 Y9.73553
X23.15739 Y8.57114
X23.39795 Y8.40602
X23.59467 Y8.23774
X23.77326 Y8.05042
X23.93681 Y7.83940
X24.01266 Y7.72108
X24.01611 Y6.84775
X24.09122 Y6.66538
X24.19825 Y6.49368
X24.38073 Y6.29137
X24.60023 Y6.12990
X24.84194 Y6.01844
X25.72670 Y6.02129
X25.84753 Y6.06665
X26.08222 Y6.20506
X26.28428 Y6.38789
X26.44539 Y6.60765
X26.55608 Y6.84773
X26.55253 Y7.73195
X26.47742 Y7.91433
X26.37039 Y8.08603
X26.13447 Y8.33421
X25.90681 Y8.48400
X25.72086 Y8.56378
X25.45553 Y8.62558
X25.30196 Y8.63739
X25.04781 Y8.61557
X24.85675 Y8.56307
X24.88101 Y8.66185
X23.10074 Y10.44211
X23.10074 Y11.51787
X23.32754 Y11.66977
X23.47420 Y11.80916
X23.68743 Y12.11462
X23.68413 Y14.93689
X23.56661 Y15.13034
X23.37100 Y15.34451
X23.13630 Y15.51495
X22.87207 Y15.63461
X22.58926 Y15.69861
X22.29930 Y15.70443
X22.09930 Y15.67380
X21.82432 Y15.58144
X21.57360 Y15.43565
X21.35739 Y15.24240
X21.18444 Y15.00956
X21.14413 Y14.93153
X21.14746 Y12.11467
X21.26499 Y11.92123
X21.39679 Y11.76768
X21.62059 Y11.58320
X21.73082 Y11.51920
X21.73082 Y10.15839
X21.75439 Y9.98331
X21.80118 Y9.85778
X21.93146 Y9.67401
X22.88911 Y8.71638
X23.17854 Y8.55834
X23.39795 Y8.40602
X23.55373 Y8.27567
X23.77326 Y8.05042
X23.93681 Y7.83940
X24.01266 Y7.72108
X24.01271 Y6.62893
X24.12444 Y6.44765
X24.31768 Y6.23145
X24.62314 Y6.01822
X25.94544 Y6.02152
X26.13889 Y6.13904
X26.29243 Y6.27084
X26.47691 Y6.49464
X26.55273 Y6.62891
X26.55593 Y7.95077
X26.44420 Y8.13205
X26.25095 Y8.34826
X26.01811 Y8.52121
X25.75517 Y8.64371
X25.47305 Y8.71079
X25.30635 Y8.72428
X25.03902 Y8.70213
X24.88101 Y8.66185
G04 P0 ( dwell for no time -- G64 should not smooth over this point )
G00 Z3.00000 ( retract )

G00 X27.83276 Y8.37650 ( rapid move to begin. )
F25.00000
G01 Z-0.15000
G04 P0 ( dwell for no time -- G64 should not smooth over this point )
F50.00000
X27.83276 Y8.37650
X27.83276 Y11.74701
X27.98219 Y11.80418
X28.15390 Y11.91122
X28.31448 Y12.06138
X28.44155 Y12.24081
X28.53513 Y12.45894
X28.57765 Y12.67439
X28.58234 Y14.28457
X28.55832 Y14.50311
X28.49080 Y14.71233
X28.38255 Y14.90367
X28.23800 Y15.06935
X28.06307 Y15.20253
X27.86490 Y15.29772
X27.65161 Y15.35109
X27.43198 Y15.36046
X27.23198 Y15.32983
X27.02520 Y15.25513
X26.82378 Y15.12958
X26.66563 Y14.97682
X26.55004 Y14.81076
X26.46172 Y14.60941
X26.41395 Y14.37718
X26.40882 Y12.77606
X26.42972 Y12.56570
X26.49385 Y12.35541
X26.60904 Y12.14790
X26.75359 Y11.98221
X26.91359 Y11.85836
X27.15880 Y11.74556
X27.15880 Y8.14435
X27.03073 Y8.03205
X26.90688 Y7.87206
X26.80236 Y7.65895
X26.74900 Y7.44567
X26.73874 Y7.24361
X26.77026 Y7.02604
X26.85271 Y6.80346
X26.97051 Y6.61783
X27.12327 Y6.45969
X27.28933 Y6.34410
X27.49068 Y6.25578
X27.70566 Y6.20978
X27.81991 Y6.20298
X28.03442 Y6.22378
X28.24470 Y6.28791
X28.43779 Y6.39304
X28.60576 Y6.53490
X28.75108 Y6.72258
X28.84628 Y6.92075
X28.89964 Y7.13404
X28.90901 Y7.35367
X28.87396 Y7.57071
X28.79593 Y7.77625
X28.67813 Y7.96187
X28.52537 Y8.12002
X28.34391 Y8.24414
X28.14117 Y8.32918
X27.94298 Y8.36993
X27.83276 Y8.37650
X27.91976 Y8.45923
X27.91976 Y11.68640
X28.02822 Y11.73035
X28.19992 Y11.83738
X28.37442 Y11.99832
X28.51295 Y12.19110
X28.62034 Y12.44142
X28.66464 Y12.67411
X28.66977 Y14.27522
X28.64132 Y14.52917
X28.56688 Y14.75455
X28.44856 Y14.96034
X28.29126 Y15.13814
X28.10137 Y15.28063
X27.88669 Y15.38195
X27.65603 Y15.43798
X27.41880 Y15.44647
X27.21880 Y15.41583
X26.99497 Y15.33671
X26.76383 Y15.19265
X26.61717 Y15.05325
X26.47864 Y14.86046
X26.38176 Y14.64370
X26.32695 Y14.37746
X26.32182 Y12.77634
X26.35027 Y12.52239
X26.42472 Y12.29702
X26.52291 Y12.12011
X26.70033 Y11.91343
X26.89022 Y11.77093
X27.07181 Y11.68188
X27.07181 Y8.18433
X26.96195 Y8.08532
X26.83810 Y7.92532
X26.71814 Y7.68075
X26.66210 Y7.45009
X26.65184 Y7.24803
X26.68425 Y7.01285
X26.77887 Y6.75743
X26.90744 Y6.55789
X27.07356 Y6.38829
X27.23962 Y6.27270
X27.45639 Y6.17582
X27.68814 Y6.12457
X27.81549 Y6.11608
X28.04323 Y6.13724
X28.27076 Y6.20491
X28.48001 Y6.31697
X28.66243 Y6.46889
X28.82918 Y6.68428
X28.93050 Y6.89896
X28.98653 Y7.12962
X28.99502 Y7.36685
X28.95555 Y7.60094
X28.86977 Y7.82228
X28.74120 Y8.02182
X28.57508 Y8.19141
X28.37820 Y8.32410
X28.15870 Y8.41440
X27.91976 Y8.45923
X28.00675 Y8.53444
X28.00675 Y11.62585
X28.24595 Y11.76357
X28.43434 Y11.93527
X28.58435 Y12.14139
X28.70556 Y12.42392
X28.75164 Y12.67383
X28.75677 Y14.27494
X28.72433 Y14.55521
X28.64292 Y14.79676
X28.51458 Y15.01700
X28.34450 Y15.20695
X28.13967 Y15.35874
X27.90848 Y15.46618
X27.66045 Y15.52485
X27.40564 Y15.53245
X27.15448 Y15.48858
X26.96475 Y15.41830
X26.74564 Y15.28800
X26.52284 Y15.07624
X26.40724 Y14.91017
X26.30183 Y14.67802
X26.23996 Y14.37774
X26.23483 Y12.77662
X26.26726 Y12.49636
X26.32784 Y12.30332
X26.44686 Y12.07789
X26.64709 Y11.84462
X26.80709 Y11.72077
X26.98481 Y11.62765
X26.98481 Y8.22431
X26.89314 Y8.13856
X26.76929 Y7.97856
X26.63391 Y7.70254
X26.58321 Y7.50666
X26.56497 Y7.25245
X26.59827 Y6.99970
X26.70506 Y6.71141
X26.84440 Y6.49797
X27.02385 Y6.31689
X27.18992 Y6.20130
X27.42207 Y6.09589
X27.67064 Y6.03935
X27.81110 Y6.02921
X28.05202 Y6.05068
X28.29680 Y6.12190
X28.52222 Y6.24092
X28.71910 Y6.40287
X28.90729 Y6.64598
X29.01473 Y6.87717
X29.07340 Y7.12520
X29.08100 Y7.38001
X29.03713 Y7.63117
X28.96685 Y7.82090
X28.83655 Y8.04001
X28.66484 Y8.22840
X28.45872 Y8.37841
X28.22657 Y8.48382
X28.00675 Y8.53444
X28.09375 Y8.60538
X28.09375 Y11.56969
X28.29197 Y11.68973
X28.49428 Y11.87220
X28.65575 Y12.09171
X28.76721 Y12.33342
X28.76436 Y14.71815
X28.71900 Y14.83898
X28.58059 Y15.07367
X28.39776 Y15.27573
X28.23777 Y15.39958
X27.93028 Y15.55038
X27.66485 Y15.61175
X27.39246 Y15.61845
X27.19246 Y15.58782
X26.93454 Y15.49986
X26.64397 Y15.31876
X26.49731 Y15.17936
X26.33584 Y14.95985
X26.22403 Y14.71139
X26.22723 Y12.33342
X26.27260 Y12.21259
X26.37079 Y12.03568
X26.54280 Y11.82435
X26.75382 Y11.65199
X26.89782 Y11.57342
X26.89782 Y8.26426
X26.70051 Y8.03183
X26.55255 Y7.73198
X26.55611 Y6.84775
X26.63122 Y6.66538
X26.73825 Y6.49368
X26.92073 Y6.29137
X27.14023 Y6.12990
X27.38194 Y6.01844
X28.26670 Y6.02129
X28.38753 Y6.06665
X28.56444 Y6.16485
X28.77577 Y6.33686
X28.94813 Y6.54788
X29.09608 Y6.84773
X29.09619 Y7.58702
X29.09255 Y7.73190
X29.01742 Y7.91433
X28.91039 Y8.08603
X28.72791 Y8.28834
X28.44681 Y8.48400
X28.26086 Y8.56378
X28.09375 Y8.60538
X28.18074 Y8.67630
X28.18074 Y11.51787
X28.40754 Y11.66977
X28.55420 Y11.80916
X28.76743 Y12.11462
X28.76413 Y14.93689
X28.64661 Y15.13034
X28.51481 Y15.28388
X28.21630 Y15.51495
X28.03464 Y15.60405
X27.75618 Y15.68530
X27.37930 Y15.70443
X27.09406 Y15.65172
X26.82530 Y15.54268
X26.65360 Y15.43565
X26.43739 Y15.24240
X26.22416 Y14.93694
X26.22746 Y12.11467
X26.34499 Y11.92123
X26.47679 Y11.76768
X26.70059 Y11.58320
X26.81082 Y11.51920
X26.81082 Y8.30317
X26.63173 Y8.08506
X26.55591 Y7.95080
X26.55271 Y6.62893
X26.66444 Y6.44765
X26.85768 Y6.23145
X27.16314 Y6.01822
X28.48544 Y6.02152
X28.67889 Y6.13904
X28.83243 Y6.27084
X29.01691 Y6.49464
X29.09273 Y6.62891
X29.09596 Y7.95072
X28.93035 Y8.20160
X28.72418 Y8.40561
X28.48113 Y8.56393
X28.18074 Y8.67630
G04 P0 ( dwell for no time -- G64 should not smooth over this point )
G00 Z3.00000 ( retract )

G00 X28.94925 Y12.76700 ( rapid move to begin. )
F25.00000
G01 Z-0.15000
G04 P0 ( dwell for no time -- G64 should not smooth over this point )
F50.00000
X28.94925 Y12.76700
X28.96972 Y12.56570
X29.03385 Y12.35541
X29.14904 Y12.14790
X29.29359 Y11.98221
X29.45359 Y11.85836
X29.66670 Y11.75384
X29.87998 Y11.70048
X30.08204 Y11.69021
X30.31666 Y11.72615
X30.52219 Y11.80418
X30.70782 Y11.92199
X30.86596 Y12.07474
X30.98155 Y12.24081
X31.06987 Y12.44216
X31.11765 Y12.67439
X31.12278 Y14.27550
X31.10187 Y14.48586
X31.03080 Y14.71233
X30.93261 Y14.88924
X30.79075 Y15.05721
X30.60307 Y15.20253
X30.40490 Y15.29772
X30.19161 Y15.35109
X29.97198 Y15.36046
X29.77198 Y15.32983
X29.56520 Y15.25513
X29.37769 Y15.14035
X29.21712 Y14.99018
X29.08150 Y14.79536
X28.99647 Y14.59262
X28.95395 Y14.37718
X28.94925 Y12.76700
X28.86271 Y12.75818
X28.89027 Y12.52239
X28.96472 Y12.29702
X29.06291 Y12.12011
X29.24033 Y11.91343
X29.43022 Y11.77093
X29.61188 Y11.68183
X29.87556 Y11.61358
X30.11280 Y11.60510
X30.31280 Y11.63573
X30.56822 Y11.73035
X30.76776 Y11.85892
X30.91442 Y11.99832
X31.05295 Y12.19110
X31.14983 Y12.40787
X31.20464 Y12.67411
X31.20977 Y14.27522
X31.18841 Y14.49468
X31.10688 Y14.75455
X31.00868 Y14.93146
X30.85676 Y15.11388
X30.64137 Y15.28063
X30.42669 Y15.38195
X30.19603 Y15.43798
X29.99397 Y15.44825
X29.72471 Y15.40700
X29.50337 Y15.32122
X29.30383 Y15.19265
X29.15717 Y15.05325
X29.01864 Y14.86046
X28.92176 Y14.64370
X28.86695 Y14.37746
X28.86271 Y12.75818
X28.77615 Y12.74939
X28.80726 Y12.49636
X28.86784 Y12.30332
X28.98686 Y12.07789
X29.18709 Y11.84462
X29.34709 Y11.72077
X29.57358 Y11.60373
X29.81899 Y11.53469
X30.12595 Y11.51912
X30.37711 Y11.56299
X30.56685 Y11.63327
X30.82768 Y11.79588
X31.00876 Y11.97533
X31.12435 Y12.14139
X31.22976 Y12.37355
X31.29164 Y12.67383
X31.29677 Y14.27494
X31.27497 Y14.50347
X31.18292 Y14.79676
X31.05458 Y15.01700
X30.92278 Y15.17055
X30.72450 Y15.33080
X30.44848 Y15.46618
X30.20045 Y15.52485
X29.94564 Y15.53245
X29.69448 Y15.48858
X29.50475 Y15.41830
X29.28564 Y15.28800
X29.09725 Y15.11629
X28.92161 Y14.86397
X28.82603 Y14.62765
X28.77996 Y14.37774
X28.76723 Y12.33342
X28.81260 Y12.21259
X28.91079 Y12.03568
X29.13383 Y11.77584
X29.35359 Y11.61472
X29.53525 Y11.52562
X29.86675 Y11.43982
X30.13914 Y11.43311
X30.33914 Y11.46375
X30.66027 Y11.58270
X30.83197 Y11.68973
X31.03428 Y11.87220
X31.19575 Y12.09171
X31.30756 Y12.34017
X31.30436 Y14.71815
X31.25900 Y14.83898
X31.16080 Y15.01589
X30.98879 Y15.22721
X30.77777 Y15.39958
X30.53634 Y15.52594
X30.27439 Y15.60108
X30.00279 Y15.62201
X29.66428 Y15.57014
X29.41132 Y15.46887
X29.18397 Y15.31876
X28.99144 Y15.12592
X28.84165 Y14.89826
X28.76403 Y14.71139
X28.76746 Y12.11467
X28.88499 Y11.92123
X29.01679 Y11.76768
X29.24059 Y11.58320
X29.49695 Y11.44752
X29.86233 Y11.35295
X30.15229 Y11.34714
X30.35229 Y11.37777
X30.62727 Y11.47012
X30.87800 Y11.61592
X31.15155 Y11.87594
X31.30743 Y12.11462
X31.30413 Y14.93689
X31.18661 Y15.13034
X31.05481 Y15.28388
X30.83101 Y15.46836
X30.57464 Y15.60405
X30.29618 Y15.68530
X30.00721 Y15.70887
X29.71930 Y15.67380
X29.36530 Y15.54268
X29.12405 Y15.38180
X28.92004 Y15.17563
X28.76416 Y14.93694
X28.76406 Y12.74815
G04 P0 ( dwell for no time -- G64 should not smooth over this point )
G00 Z3.00000 ( retract )

G00 X31.48925 Y12.76700 ( rapid move to begin. )
F25.00000
G01 Z-0.15000
G04 P0 ( dwell for no time -- G64 should not smooth over this point )
F50.00000
X31.48925 Y12.76700
X31.50972 Y12.56570
X31.57385 Y12.35541
X31.68904 Y12.14790
X31.83359 Y11.98221
X31.99359 Y11.85836
X32.20670 Y11.75384
X32.41998 Y11.70048
X32.62204 Y11.69021
X32.85666 Y11.72615
X33.06219 Y11.80418
X33.24782 Y11.92199
X33.40596 Y12.07474
X33.52155 Y12.24081
X33.60987 Y12.44216
X33.65765 Y12.67439
X33.66278 Y14.27550
X33.64187 Y14.48586
X33.57080 Y14.71233
X33.47261 Y14.88924
X33.33075 Y15.05721
X33.14307 Y15.20253
X32.94490 Y15.29772
X32.73161 Y15.35109
X32.51198 Y15.36046
X32.31198 Y15.32983
X32.10520 Y15.25513
X31.91769 Y15.14035
X31.75712 Y14.99018
X31.62150 Y14.79536
X31.53647 Y14.59262
X31.49395 Y14.37718
X31.48925 Y12.76700
X31.40271 Y12.75818
X31.43027 Y12.52239
X31.50472 Y12.29702
X31.60291 Y12.12011
X31.78033 Y11.91343
X31.97022 Y11.77093
X32.15188 Y11.68183
X32.41556 Y11.61358
X32.65280 Y11.60510
X32.85280 Y11.63573
X33.10822 Y11.73035
X33.30776 Y11.85892
X33.45442 Y11.99832
X33.59295 Y12.19110
X33.68983 Y12.40787
X33.74464 Y12.67411
X33.74977 Y14.27522
X33.72841 Y14.49468
X33.64688 Y14.75455
X33.54868 Y14.93146
X33.39676 Y15.11388
X33.18137 Y15.28063
X32.96669 Y15.38195
X32.73603 Y15.43798
X32.53397 Y15.44825
X32.26471 Y15.40700
X32.04337 Y15.32122
X31.84383 Y15.19265
X31.69717 Y15.05325
X31.55864 Y14.86046
X31.46176 Y14.64370
X31.40695 Y14.37746
X31.40271 Y12.75818
X31.31615 Y12.74939
X31.34726 Y12.49636
X31.40784 Y12.30332
X31.52686 Y12.07789
X31.72709 Y11.84462
X31.88709 Y11.72077
X32.11358 Y11.60373
X32.35899 Y11.53469
X32.66595 Y11.51912
X32.91711 Y11.56299
X33.10685 Y11.63327
X33.36768 Y11.79588
X33.54876 Y11.97533
X33.66435 Y12.14139
X33.76976 Y12.37355
X33.83164 Y12.67383
X33.83677 Y14.27494
X33.81497 Y14.50347
X33.72292 Y14.79676
X33.59458 Y15.01700
X33.46278 Y15.17055
X33.26450 Y15.33080
X32.98848 Y15.46618
X32.74045 Y15.52485
X32.48564 Y15.53245
X32.23448 Y15.48858
X32.04475 Y15.41830
X31.82564 Y15.28800
X31.63725 Y15.11629
X31.46161 Y14.86397
X31.36603 Y14.62765
X31.31996 Y14.37774
X31.30723 Y12.33342
X31.35260 Y12.21259
X31.45079 Y12.03568
X31.67383 Y11.77584
X31.89359 Y11.61472
X32.07525 Y11.52562
X32.40675 Y11.43982
X32.67914 Y11.43311
X32.87914 Y11.46375
X33.20027 Y11.58270
X33.37197 Y11.68973
X33.57428 Y11.87220
X33.73575 Y12.09171
X33.84756 Y12.34017
X33.84436 Y14.71815
X33.79900 Y14.83898
X33.70080 Y15.01589
X33.52879 Y15.22721
X33.31777 Y15.39958
X33.07634 Y15.52594
X32.81439 Y15.60108
X32.54279 Y15.62201
X32.20428 Y15.57014
X31.95132 Y15.46887
X31.72397 Y15.31876
X31.53144 Y15.12592
X31.38165 Y14.89826
X31.30403 Y14.71139
X31.30746 Y12.11467
X31.42499 Y11.92123
X31.55679 Y11.76768
X31.78059 Y11.58320
X32.03695 Y11.44752
X32.40233 Y11.35295
X32.69229 Y11.34714
X32.89229 Y11.37777
X33.16727 Y11.47012
X33.41800 Y11.61592
X33.69155 Y11.87594
X33.84743 Y12.11462
X33.84413 Y14.93689
X33.72661 Y15.13034
X33.59481 Y15.28388
X33.37101 Y15.46836
X33.11464 Y15.60405
X32.83618 Y15.68530
X32.54721 Y15.70887
X32.25930 Y15.67380
X31.90530 Y15.54268
X31.66405 Y15.38180
X31.46004 Y15.17563
X31.30416 Y14.93694
X31.30406 Y12.74815
G04 P0 ( dwell for no time -- G64 should not smooth over this point )
G00 Z3.00000 ( retract )

G00 X33.78084 Y10.67485 ( rapid move to begin. )
F25.00000
G01 Z-0.15000
G04 P0 ( dwell for no time -- G64 should not smooth over this point )
F50.00000
X33.78084 Y10.67485
X31.05229 Y10.66626
X30.94645 Y10.62242
X30.88805 Y10.57612
X30.12608 Y9.81409
X30.05669 Y9.71249
X30.02778 Y9.58440
X30.02735 Y8.31798
X29.92778 Y8.28486
X29.75087 Y8.18666
X29.57076 Y8.03205
X29.43759 Y7.85713
X29.34848 Y7.67546
X29.28902 Y7.44567
X29.27965 Y7.22604
X29.31470 Y7.00899
X29.39273 Y6.80346
X29.51054 Y6.61783
X29.64993 Y6.47117
X29.82936 Y6.34410
X30.04749 Y6.25052
X30.24569 Y6.20978
X30.35994 Y6.20298
X30.59169 Y6.22733
X30.80091 Y6.29485
X30.97782 Y6.39304
X31.14579 Y6.53490
X31.28178 Y6.70765
X31.38020 Y6.90424
X31.43700 Y7.11664
X31.44993 Y7.33609
X31.41841 Y7.55367
X31.34371 Y7.76045
X31.22892 Y7.94796
X31.07876 Y8.10853
X30.89933 Y8.23561
X30.70131 Y8.32248
X30.70131 Y9.43622
X31.26593 Y10.00089
X33.92033 Y10.00089
X34.05703 Y10.03017
X34.15863 Y10.09956
X35.43438 Y11.37586
X35.47494 Y11.42793
X35.51878 Y11.53378
X35.52731 Y11.77452
X35.60219 Y11.80418
X35.78782 Y11.92199
X35.94596 Y12.07474
X36.06155 Y12.24081
X36.14987 Y12.44216
X36.19765 Y12.67439
X36.20278 Y14.27550
X36.18187 Y14.48586
X36.11080 Y14.71233
X36.00255 Y14.90367
X35.85800 Y15.06935
X35.68307 Y15.20253
X35.50141 Y15.29163
X35.28901 Y15.34842
X35.06955 Y15.36135
X34.85198 Y15.32983
X34.64520 Y15.25513
X34.45769 Y15.14035
X34.29712 Y14.99018
X34.17004 Y14.81076
X34.08172 Y14.60941
X34.03395 Y14.37718
X34.02882 Y12.77606
X34.05328 Y12.54845
X34.12079 Y12.33923
X34.21899 Y12.16232
X34.36084 Y11.99435
X34.54852 Y11.84904
X34.73019 Y11.75994
X34.83656 Y11.73060
X33.78084 Y10.67485
X33.74479 Y10.76184
X31.12631 Y10.76184
X31.02704 Y10.74952
X30.90545 Y10.69916
X30.82654 Y10.63764
X30.06456 Y9.87561
X30.00304 Y9.79669
X29.95267 Y9.67510
X29.94036 Y9.57584
X29.94036 Y8.38186
X29.70866 Y8.26274
X29.50198 Y8.08532
X29.35948 Y7.89543
X29.27038 Y7.71377
X29.20213 Y7.45009
X29.19365 Y7.21285
X29.23312 Y6.97877
X29.31889 Y6.75743
X29.44747 Y6.55789
X29.58686 Y6.41123
X29.77965 Y6.27270
X30.02997 Y6.16531
X30.22816 Y6.12457
X30.35552 Y6.11608
X30.61775 Y6.14433
X30.84312 Y6.21877
X31.02003 Y6.31697
X31.20246 Y6.46889
X31.35056 Y6.65438
X31.45831 Y6.86594
X31.52123 Y7.09485
X31.53682 Y7.33168
X31.50441 Y7.56685
X31.42529 Y7.79068
X31.30276 Y7.99398
X31.14183 Y8.16848
X30.94904 Y8.30701
X30.78831 Y8.37983
X30.78831 Y9.40018
X31.30197 Y9.91389
X33.92033 Y9.91389
X34.09803 Y9.95344
X34.22015 Y10.03805
X35.49015 Y11.30802
X35.58782 Y11.46164
X35.60870 Y11.54200
X35.61431 Y11.71396
X35.84776 Y11.85892
X35.99442 Y11.99832
X36.13295 Y12.19110
X36.22983 Y12.40787
X36.28464 Y12.67411
X36.28977 Y14.27522
X36.26841 Y14.49468
X36.18688 Y14.75455
X36.06856 Y14.96034
X35.91126 Y15.13814
X35.72137 Y15.28063
X35.53971 Y15.36973
X35.31080 Y15.43265
X35.07397 Y15.44825
X34.83880 Y15.41583
X34.61497 Y15.33671
X34.41167 Y15.21418
X34.23717 Y15.05325
X34.09864 Y14.86046
X34.00176 Y14.64370
X33.94695 Y14.37746
X33.94182 Y12.77634
X33.97027 Y12.52239
X34.04472 Y12.29702
X34.16303 Y12.09123
X34.32033 Y11.91343
X34.48033 Y11.78958
X34.67370 Y11.69077
X33.74479 Y10.76184
X33.70875 Y10.84884
X31.12631 Y10.84884
X31.00180 Y10.83276
X30.86446 Y10.77589
X30.76502 Y10.69916
X30.00304 Y9.93713
X29.92631 Y9.83769
X29.88366 Y9.74724
X29.85463 Y9.60152
X29.85336 Y8.44130
X29.62311 Y8.30864
X29.43317 Y8.13856
X29.30932 Y7.97856
X29.19227 Y7.75207
X29.11526 Y7.45451
X29.10767 Y7.19970
X29.15153 Y6.94854
X29.24508 Y6.71141
X29.35212 Y6.53970
X29.52382 Y6.35131
X29.72994 Y6.20130
X30.01247 Y6.08009
X30.24998 Y6.03434
X30.39075 Y6.03020
X30.59204 Y6.05068
X30.83682 Y6.12190
X31.10558 Y6.27107
X31.29552 Y6.44115
X31.44731 Y6.64598
X31.55475 Y6.87717
X31.61343 Y7.12520
X31.62102 Y7.38001
X31.57716 Y7.63117
X31.48361 Y7.86830
X31.34426 Y8.08174
X31.16481 Y8.26281
X30.99875 Y8.37841
X30.87530 Y8.43716
X30.87530 Y9.36413
X31.33802 Y9.82690
X33.92033 Y9.82690
X34.04489 Y9.84292
X34.13903 Y9.87670
X34.28167 Y9.97653
X35.55167 Y11.24650
X35.62841 Y11.34594
X35.67105 Y11.43639
X35.69526 Y11.53347
X35.70130 Y11.66093
X35.90768 Y11.79588
X36.05434 Y11.93527
X36.20435 Y12.14139
X36.30976 Y12.37355
X36.37164 Y12.67383
X36.37677 Y14.27494
X36.35497 Y14.50347
X36.28375 Y14.74825
X36.13458 Y15.01700
X35.96450 Y15.20695
X35.80450 Y15.33080
X35.57801 Y15.44784
X35.33260 Y15.51688
X35.07839 Y15.53511
X34.82564 Y15.50181
X34.58475 Y15.41830
X34.36564 Y15.28800
X34.17725 Y15.11629
X34.02724 Y14.91017
X33.92183 Y14.67802
X33.85996 Y14.37774
X33.85483 Y12.77662
X33.87662 Y12.54810
X33.94784 Y12.30332
X34.09701 Y12.03456
X34.26709 Y11.84462
X34.42709 Y11.72077
X34.52615 Y11.66626
X33.70875 Y10.84884
X33.67271 Y10.93583
X31.12631 Y10.93583
X30.97652 Y10.91602
X30.82344 Y10.85260
X30.72885 Y10.78364
X29.88747 Y9.93540
X29.80040 Y9.77251
X29.76807 Y9.61011
X29.76637 Y8.49378
X29.56644 Y8.37465
X29.36438 Y8.19182
X29.20327 Y7.97206
X29.09258 Y7.73198
X29.09611 Y6.84781
X29.17124 Y6.66538
X29.27828 Y6.49368
X29.46075 Y6.29137
X29.68026 Y6.12990
X29.92197 Y6.01844
X30.80672 Y6.02129
X30.92755 Y6.06665
X31.16225 Y6.20506
X31.36430 Y6.38789
X31.52542 Y6.60765
X31.55633 Y6.67069
X31.59834 Y6.86589
X31.62839 Y7.12444
X31.63352 Y7.32677
X31.60919 Y7.64303
X31.55635 Y7.91608
X31.40733 Y8.14168
X31.26794 Y8.28834
X31.04843 Y8.44981
X30.96230 Y8.49451
X30.96230 Y9.32812
X31.37403 Y9.73990
X33.92033 Y9.73990
X34.07017 Y9.75966
X34.18005 Y9.80000
X34.34319 Y9.91501
X35.61319 Y11.18498
X35.70511 Y11.30492
X35.75431 Y11.41112
X35.78830 Y11.61262
X35.96762 Y11.73281
X36.11428 Y11.87220
X36.27575 Y12.09171
X36.38756 Y12.34017
X36.38436 Y14.71815
X36.33900 Y14.83898
X36.24080 Y15.01589
X36.06879 Y15.22721
X35.85777 Y15.39958
X35.61634 Y15.52594
X35.35439 Y15.60108
X35.08279 Y15.62201
X34.81246 Y15.58782
X34.55454 Y15.49986
X34.31962 Y15.36183
X34.11731 Y15.17936
X33.95584 Y14.95985
X33.84439 Y14.71815
X33.84723 Y12.33342
X33.89260 Y12.21259
X34.03100 Y11.97789
X34.21383 Y11.77584
X34.38307 Y11.64622
X33.67271 Y10.93583
X33.63666 Y11.02283
X31.12631 Y11.02283
X30.95128 Y10.99926
X30.78244 Y10.92933
X30.67368 Y10.85090
X29.82021 Y9.99057
X29.71717 Y9.79776
X29.68150 Y9.61867
X29.67937 Y8.54498
X29.50977 Y8.44066
X29.35623 Y8.30886
X29.17175 Y8.08506
X29.09593 Y7.95080
X29.09271 Y6.62898
X29.20447 Y6.44765
X29.39771 Y6.23145
X29.70317 Y6.01822
X31.02547 Y6.02152
X31.21891 Y6.13904
X31.37246 Y6.27084
X31.46936 Y6.38151
X31.58701 Y6.80282
X31.62839 Y7.12444
X31.63352 Y7.32677
X31.61673 Y7.58405
X31.57291 Y7.84536
X31.46944 Y8.20259
X31.26420 Y8.40561
X31.04929 Y8.54831
X31.04929 Y9.29207
X31.41008 Y9.65291
X33.92033 Y9.65291
X34.09541 Y9.67643
X34.22104 Y9.72326
X34.40471 Y9.85349
X35.67471 Y11.12346
X35.80494 Y11.30713
X35.85177 Y11.43276
X35.87298 Y11.56291
X36.02754 Y11.66977
X36.17420 Y11.80916
X36.34715 Y12.04200
X36.38743 Y12.11462
X36.38413 Y14.93689
X36.26661 Y15.13034
X36.07100 Y15.34451
X35.83630 Y15.51495
X35.65464 Y15.60405
X35.37618 Y15.68530
X35.08721 Y15.70887
X34.71406 Y15.65172
X34.44530 Y15.54268
X34.20405 Y15.38180
X34.00004 Y15.17563
X33.84416 Y14.93694
X33.84746 Y12.11467
X33.96499 Y11.92123
X34.09679 Y11.76768
X34.25094 Y11.63713
X33.63666 Y11.02283
G04 P0 ( dwell for no time -- G64 should not smooth over this point )
G00 Z3.00000 ( retract )

G00 X37.79345 Y11.70238 ( rapid move to begin. )
F25.00000
G01 Z-0.15000
G04 P0 ( dwell for no time -- G64 should not smooth over this point )
F50.00000
X37.79345 Y11.70238
X37.93666 Y11.72615
X38.12639 Y11.79644
X38.32782 Y11.92199
X38.48596 Y12.07474
X38.60155 Y12.24081
X38.68987 Y12.44216
X38.73765 Y12.67439
X38.74234 Y14.28457
X38.71832 Y14.50311
X38.65080 Y14.71233
X38.54255 Y14.90367
X38.39800 Y15.06935
X38.22307 Y15.20253
X38.02490 Y15.29772
X37.81161 Y15.35109
X37.59198 Y15.36046
X37.37494 Y15.32541
X37.16940 Y15.24738
X36.98378 Y15.12958
X36.83712 Y14.99018
X36.70150 Y14.79536
X36.62172 Y14.60941
X36.57572 Y14.39442
X36.56882 Y12.77606
X36.58972 Y12.56570
X36.65385 Y12.35541
X36.75899 Y12.16232
X36.90084 Y11.99435
X37.03005 Y11.89209
X33.51482 Y8.37686
X31.90433 Y8.37686
X31.84284 Y8.35136
X31.81734 Y8.28986
X31.81734 Y6.28987
X31.84284 Y6.22835
X31.90433 Y6.20287
X33.90433 Y6.20287
X33.96585 Y6.22835
X33.99132 Y6.28987
X33.99132 Y7.90025
X37.79345 Y11.70238
X37.83485 Y11.62074
X37.96688 Y11.64457
X38.18822 Y11.73035
X38.38776 Y11.85892
X38.53442 Y11.99832
X38.67295 Y12.19110
X38.76983 Y12.40787
X38.82464 Y12.67411
X38.82977 Y14.27522
X38.80841 Y14.49468
X38.74074 Y14.72221
X38.62868 Y14.93146
X38.47676 Y15.11388
X38.26137 Y15.28063
X38.07971 Y15.36973
X37.85080 Y15.43265
X37.57880 Y15.44647
X37.34471 Y15.40700
X37.12337 Y15.32122
X36.92383 Y15.19265
X36.77717 Y15.05325
X36.62155 Y14.82965
X36.54176 Y14.64370
X36.49051 Y14.41195
X36.48182 Y12.77634
X36.50318 Y12.55689
X36.57085 Y12.32935
X36.68291 Y12.12011
X36.83483 Y11.93769
X36.89869 Y11.88376
X33.47878 Y8.46385
X31.90433 Y8.46385
X31.83776 Y8.45060
X31.78132 Y8.41288
X31.74360 Y8.35644
X31.73034 Y8.28986
X31.73034 Y6.28987
X31.74360 Y6.22327
X31.78132 Y6.16683
X31.83776 Y6.12911
X31.90433 Y6.11588
X33.90433 Y6.11588
X33.97093 Y6.12911
X34.02737 Y6.16683
X34.06509 Y6.22327
X34.07832 Y6.28987
X34.07832 Y7.86421
X37.83485 Y11.62074
X37.87620 Y11.53906
X37.99711 Y11.56299
X38.23424 Y11.65653
X38.40595 Y11.76357
X38.59434 Y11.93527
X38.74435 Y12.14139
X38.84976 Y12.37355
X38.91164 Y12.67383
X38.91677 Y14.27494
X38.89497 Y14.50347
X38.82375 Y14.74825
X38.67458 Y15.01700
X38.50450 Y15.20695
X38.34450 Y15.33080
X38.06848 Y15.46618
X37.82045 Y15.52485
X37.56564 Y15.53245
X37.31448 Y15.48858
X37.12475 Y15.41830
X36.86391 Y15.25569
X36.68284 Y15.07624
X36.56724 Y14.91017
X36.44603 Y14.62765
X36.39996 Y14.37774
X36.39483 Y12.77662
X36.41662 Y12.54810
X36.50867 Y12.25480
X36.63701 Y12.03456
X36.77090 Y11.87904
X33.44274 Y8.55085
X31.90433 Y8.55085
X31.75935 Y8.50686
X31.68734 Y8.43485
X31.64335 Y8.28986
X31.64335 Y6.28987
X31.66324 Y6.18997
X31.71980 Y6.10531
X31.80446 Y6.04875
X31.90433 Y6.02888
X33.90433 Y6.02888
X34.00423 Y6.04875
X34.08889 Y6.10531
X34.14545 Y6.18997
X34.16531 Y6.28987
X34.16531 Y7.82817
X37.87620 Y11.53906
X37.91758 Y11.45740
X38.02731 Y11.48143
X38.28027 Y11.58270
X38.45197 Y11.68973
X38.65428 Y11.87220
X38.81575 Y12.09171
X38.92756 Y12.34017
X38.92761 Y14.56880
X38.92436 Y14.71815
X38.90676 Y14.77431
X38.78080 Y15.01589
X38.60879 Y15.22721
X38.33800 Y15.43684
X38.15634 Y15.52594
X37.89439 Y15.60108
X37.55246 Y15.61845
X37.28428 Y15.57014
X37.03132 Y15.46887
X36.85962 Y15.36183
X36.61144 Y15.12592
X36.49584 Y14.95985
X36.38439 Y14.71815
X36.38723 Y12.33342
X36.43260 Y12.21259
X36.53079 Y12.03568
X36.65218 Y11.88333
X33.40669 Y8.63784
X31.90433 Y8.63784
X31.77119 Y8.61135
X31.71101 Y8.57920
X31.61500 Y8.48318
X31.58285 Y8.42301
X31.55635 Y8.28986
X31.55635 Y7.91608
X31.60919 Y7.64303
X31.63352 Y7.32677
X31.62410 Y7.06823
X31.55635 Y6.67074
X31.55635 Y6.28987
X31.58285 Y6.15670
X31.65828 Y6.04379
X31.77119 Y5.96836
X31.90433 Y5.94189
X32.28503 Y5.94189
X32.61716 Y6.00303
X32.91802 Y6.01969
X33.26328 Y5.99388
X33.53059 Y5.94189
X33.90433 Y5.94189
X34.03750 Y5.96836
X34.15041 Y6.04379
X34.22584 Y6.15670
X34.25231 Y6.28987
X34.25231 Y7.79213
X37.91758 Y11.45740
X37.95893 Y11.37571
X38.05753 Y11.39984
X38.32629 Y11.50888
X38.49800 Y11.61592
X38.71420 Y11.80916
X38.88715 Y12.04200
X38.92743 Y12.11462
X38.92413 Y14.93689
X38.80661 Y15.13034
X38.67481 Y15.28388
X38.37630 Y15.51495
X38.19464 Y15.60405
X37.91618 Y15.68530
X37.53930 Y15.70443
X37.25406 Y15.65172
X36.98530 Y15.54268
X36.81360 Y15.43565
X36.59739 Y15.24240
X36.38416 Y14.93694
X36.38746 Y12.11467
X36.53366 Y11.88785
X33.37065 Y8.72484
X31.81950 Y8.71646
X31.66268 Y8.65151
X31.54269 Y8.53152
X31.47774 Y8.37470
X31.46936 Y8.20277
X31.55694 Y7.91402
X31.60919 Y7.64303
X31.63212 Y7.38171
X31.62839 Y7.12444
X31.58701 Y6.80282
X31.46936 Y6.38149
X31.46936 Y6.28987
X31.50248 Y6.12340
X31.59677 Y5.98227
X31.73789 Y5.88799
X31.81950 Y5.86325
X31.99646 Y5.85489
X32.41485 Y5.97204
X32.67461 Y6.00889
X33.01932 Y6.01712
X33.32407 Y5.98456
X33.59851 Y5.92426
X33.81665 Y5.85489
X33.90433 Y5.85489
X34.07080 Y5.88799
X34.21192 Y5.98227
X34.30621 Y6.12340
X34.33930 Y6.28987
X34.33930 Y7.75608
X37.95893 Y11.37571
G04 P0 ( dwell for no time -- G64 should not smooth over this point )
G00 Z3.00000 ( retract )

G00 X39.85880 Y10.37884 ( rapid move to begin. )
F25.00000
G01 Z-0.15000
G04 P0 ( dwell for no time -- G64 should not smooth over this point )
F50.00000
X39.85880 Y10.37884
X38.47125 Y8.98389
X38.41461 Y8.84719
X38.40935 Y8.37686
X37.74633 Y8.37686
X37.69802 Y8.36218
X37.66597 Y8.32314
X37.65934 Y6.28987
X37.67402 Y6.24153
X37.71306 Y6.20948
X39.74633 Y6.20287
X39.79467 Y6.21753
X39.83167 Y6.27288
X39.82672 Y8.32314
X39.79467 Y8.36218
X39.74633 Y8.37686
X39.08331 Y8.37686
X39.08331 Y8.65024
X40.48039 Y10.05941
X40.52423 Y10.16525
X40.53276 Y10.23931
X40.53276 Y11.74701
X40.68219 Y11.80418
X40.85390 Y11.91122
X41.02596 Y12.07474
X41.14155 Y12.24081
X41.22987 Y12.44216
X41.27765 Y12.67439
X41.28278 Y14.27550
X41.26187 Y14.48586
X41.19774 Y14.69615
X41.08255 Y14.90367
X40.93800 Y15.06935
X40.77800 Y15.19320
X40.58141 Y15.29163
X40.35161 Y15.35109
X40.13198 Y15.36046
X39.93198 Y15.32983
X39.72520 Y15.25513
X39.53769 Y15.14035
X39.37712 Y14.99018
X39.25004 Y14.81076
X39.15647 Y14.59262
X39.11395 Y14.37718
X39.10882 Y12.77606
X39.12972 Y12.56570
X39.20079 Y12.33923
X39.29899 Y12.16232
X39.44084 Y11.99435
X39.62852 Y11.84904
X39.85880 Y11.74556
X39.85880 Y10.37884
X39.77181 Y10.41488
X38.40399 Y9.03906
X38.34890 Y8.93602
X38.32804 Y8.85575
X38.32236 Y8.46385
X37.71240 Y8.46050
X37.64969 Y8.43452
X37.58560 Y8.35644
X37.57234 Y8.28986
X37.57234 Y6.28987
X37.60168 Y6.19320
X37.67976 Y6.12911
X37.74633 Y6.11588
X39.74633 Y6.11588
X39.84300 Y6.14519
X39.89101 Y6.19320
X39.91699 Y6.25591
X39.92032 Y8.28986
X39.90709 Y8.35644
X39.84300 Y8.43452
X39.78029 Y8.46050
X39.17031 Y8.46385
X39.17031 Y8.61420
X40.49560 Y9.93949
X40.55712 Y10.01841
X40.60749 Y10.14000
X40.61976 Y10.23931
X40.61976 Y11.68640
X40.72822 Y11.73035
X40.89992 Y11.83738
X41.09736 Y12.02504
X41.21295 Y12.19110
X41.30983 Y12.40787
X41.36464 Y12.67411
X41.36977 Y14.27522
X41.34841 Y14.49468
X41.28074 Y14.72221
X41.14856 Y14.96034
X40.99126 Y15.13814
X40.83127 Y15.26199
X40.61971 Y15.36973
X40.35603 Y15.43798
X40.11880 Y15.44647
X39.91880 Y15.41583
X39.69497 Y15.33671
X39.49167 Y15.21418
X39.31717 Y15.05325
X39.17864 Y14.86046
X39.07125 Y14.61015
X39.02695 Y14.37746
X39.02182 Y12.77634
X39.04318 Y12.55689
X39.12472 Y12.29702
X39.24303 Y12.09123
X39.40033 Y11.91343
X39.59022 Y11.77093
X39.77181 Y11.68188
X39.77181 Y10.41488
X39.68481 Y10.45092
X38.36782 Y9.13213
X38.30831 Y9.05171
X38.25144 Y8.91437
X38.23536 Y8.78986
X38.23536 Y8.55085
X37.69543 Y8.54582
X37.60135 Y8.50686
X37.50524 Y8.38974
X37.48535 Y8.28986
X37.48535 Y6.28987
X37.52934 Y6.14486
X37.64646 Y6.04875
X37.74633 Y6.02888
X39.74633 Y6.02888
X39.89134 Y6.07285
X39.96335 Y6.14486
X40.00231 Y6.23894
X40.00731 Y8.28986
X39.98745 Y8.38974
X39.89134 Y8.50686
X39.79726 Y8.54582
X39.25730 Y8.55085
X39.25730 Y8.57815
X40.55712 Y9.87797
X40.63386 Y9.97742
X40.69073 Y10.11475
X40.70675 Y10.23931
X40.70675 Y11.62585
X40.94595 Y11.76357
X41.16876 Y11.97533
X41.28435 Y12.14139
X41.38976 Y12.37355
X41.45164 Y12.67383
X41.45677 Y14.27494
X41.43497 Y14.50347
X41.36375 Y14.74825
X41.21458 Y15.01700
X41.04450 Y15.20695
X40.88450 Y15.33080
X40.65801 Y15.44784
X40.36045 Y15.52485
X40.10564 Y15.53245
X39.85448 Y15.48858
X39.66475 Y15.41830
X39.44564 Y15.28800
X39.25725 Y15.11629
X39.10724 Y14.91017
X38.98603 Y14.62765
X38.93996 Y14.37774
X38.93483 Y12.77662
X38.95662 Y12.54810
X39.02784 Y12.30332
X39.17701 Y12.03456
X39.34709 Y11.84462
X39.50709 Y11.72077
X39.68481 Y11.62765
X39.68481 Y10.45092
X39.59782 Y10.48696
X38.30056 Y9.18732
X38.23160 Y9.09273
X38.16818 Y8.93965
X38.15007 Y8.82413
X38.14837 Y8.63784
X37.67847 Y8.63114
X37.55301 Y8.57920
X37.45700 Y8.48318
X37.42485 Y8.42301
X37.39835 Y8.28986
X37.39835 Y6.28987
X37.42485 Y6.15670
X37.45700 Y6.09652
X37.55301 Y6.00051
X37.61319 Y5.96836
X37.74633 Y5.94189
X38.12703 Y5.94189
X38.45916 Y6.00303
X38.76002 Y6.01969
X39.10528 Y5.99388
X39.37259 Y5.94189
X39.81422 Y5.94857
X39.93967 Y6.00051
X39.99241 Y6.04379
X40.03569 Y6.09652
X40.08763 Y6.22197
X40.08763 Y8.35773
X40.03569 Y8.48318
X39.93967 Y8.57920
X39.87950 Y8.61135
X39.74633 Y8.63784
X39.44003 Y8.63784
X40.61864 Y9.81646
X40.71056 Y9.93639
X40.77399 Y10.08948
X40.79210 Y10.20523
X40.79375 Y11.56969
X40.99197 Y11.68973
X41.19428 Y11.87220
X41.35575 Y12.09171
X41.46756 Y12.34017
X41.46761 Y14.56880
X41.46436 Y14.71815
X41.44676 Y14.77431
X41.28059 Y15.07367
X41.09776 Y15.27573
X40.93777 Y15.39958
X40.69634 Y15.52594
X40.36485 Y15.61175
X40.09246 Y15.61845
X39.89246 Y15.58782
X39.57132 Y15.46887
X39.39962 Y15.36183
X39.19731 Y15.17936
X39.03584 Y14.95985
X38.92439 Y14.71815
X38.92723 Y12.33342
X38.97260 Y12.21259
X39.07079 Y12.03568
X39.24280 Y11.82435
X39.45382 Y11.65199
X39.59782 Y11.57342
X39.59782 Y10.48696
X39.51082 Y10.52301
X38.23330 Y9.24249
X38.15487 Y9.13373
X38.09917 Y9.01178
X38.06833 Y8.88146
X38.06137 Y8.72484
X37.74633 Y8.72484
X37.57989 Y8.69172
X37.43877 Y8.59743
X37.34448 Y8.45631
X37.31136 Y8.28986
X37.31136 Y6.28987
X37.34448 Y6.12340
X37.38469 Y6.04819
X37.43877 Y5.98227
X37.57989 Y5.88799
X37.66150 Y5.86325
X37.83849 Y5.85489
X38.25685 Y5.97204
X38.51661 Y6.00889
X38.76002 Y6.01969
X39.16607 Y5.98456
X39.44051 Y5.92426
X39.65865 Y5.85489
X39.83119 Y5.86325
X39.91280 Y5.88799
X40.05392 Y5.98227
X40.14821 Y6.12340
X40.17295 Y6.20501
X40.17295 Y8.37470
X40.10800 Y8.53152
X39.98801 Y8.65151
X39.83119 Y8.71646
X39.65006 Y8.72484
X40.68016 Y9.75494
X40.78730 Y9.89540
X40.85722 Y10.06423
X40.87866 Y10.19672
X40.88074 Y11.51787
X41.10754 Y11.66977
X41.25420 Y11.80916
X41.46743 Y12.11462
X41.46413 Y14.93689
X41.34661 Y15.13034
X41.21481 Y15.28388
X40.99101 Y15.46836
X40.73464 Y15.60405
X40.45618 Y15.68530
X40.07930 Y15.70443
X39.87930 Y15.67380
X39.60432 Y15.58144
X39.28405 Y15.38180
X39.08004 Y15.17563
X38.92416 Y14.93694
X38.92746 Y12.11467
X39.04499 Y11.92123
X39.17679 Y11.76768
X39.40059 Y11.58320
X39.51082 Y11.51920
X39.51082 Y10.52301
G04 P0 ( dwell for no time -- G64 should not smooth over this point )
G00 Z3.00000 ( retract )

G00 X43.07276 Y8.34036 ( rapid move to begin. )
F25.00000
G01 Z-0.15000
G04 P0 ( dwell for no time -- G64 should not smooth over this point )
F50.00000
X43.07276 Y8.34036
X43.07276 Y11.74701
X43.22219 Y11.80418
X43.39390 Y11.91122
X43.55448 Y12.06138
X43.68155 Y12.24081
X43.77513 Y12.45894
X43.81765 Y12.67439
X43.82234 Y14.28457
X43.79832 Y14.50311
X43.73080 Y14.71233
X43.62255 Y14.90367
X43.47800 Y15.06935
X43.30307 Y15.20253
X43.10490 Y15.29772
X42.89161 Y15.35109
X42.67198 Y15.36046
X42.45494 Y15.32541
X42.24940 Y15.24738
X42.06378 Y15.12958
X41.91712 Y14.99018
X41.78150 Y14.79536
X41.69647 Y14.59262
X41.65395 Y14.37718
X41.64882 Y12.77606
X41.67328 Y12.54845
X41.74079 Y12.33923
X41.83899 Y12.16232
X41.98084 Y11.99435
X42.16852 Y11.84904
X42.39880 Y11.74556
X42.39880 Y8.29459
X42.18242 Y8.17661
X42.01673 Y8.03205
X41.89288 Y7.87206
X41.78836 Y7.65895
X41.73500 Y7.44567
X41.72562 Y7.22604
X41.75626 Y7.02604
X41.83096 Y6.81926
X41.95651 Y6.61783
X42.10927 Y6.45969
X42.27533 Y6.34410
X42.49347 Y6.25052
X42.70477 Y6.20811
X42.81912 Y6.20331
X43.02042 Y6.22378
X43.24688 Y6.29485
X43.43822 Y6.40310
X43.60390 Y6.54765
X43.73708 Y6.72258
X43.83228 Y6.92075
X43.88564 Y7.13404
X43.89590 Y7.33609
X43.85996 Y7.57071
X43.78193 Y7.77625
X43.66413 Y7.96187
X43.51137 Y8.12002
X43.34531 Y8.23561
X43.14396 Y8.32393
X43.07276 Y8.34036
X43.15976 Y8.40965
X43.15976 Y11.68640
X43.26822 Y11.73035
X43.43992 Y11.83738
X43.61442 Y11.99832
X43.75295 Y12.19110
X43.86034 Y12.44142
X43.90464 Y12.67411
X43.90977 Y14.27522
X43.88841 Y14.49468
X43.82074 Y14.72221
X43.70868 Y14.93146
X43.55676 Y15.11388
X43.37127 Y15.26199
X43.12669 Y15.38195
X42.89603 Y15.43798
X42.65880 Y15.44647
X42.42471 Y15.40700
X42.20337 Y15.32122
X42.00383 Y15.19265
X41.85717 Y15.05325
X41.70155 Y14.82965
X41.61125 Y14.61015
X41.56695 Y14.37746
X41.56182 Y12.77634
X41.59027 Y12.52239
X41.66472 Y12.29702
X41.76291 Y12.12011
X41.91483 Y11.93769
X42.10033 Y11.78958
X42.31181 Y11.68188
X42.31181 Y8.34999
X42.12575 Y8.24262
X41.97221 Y8.11082
X41.80546 Y7.89543
X41.71635 Y7.71377
X41.65344 Y7.48486
X41.63962 Y7.21285
X41.67025 Y7.01285
X41.74937 Y6.78903
X41.89344 Y6.55789
X42.03284 Y6.41123
X42.22562 Y6.27270
X42.47594 Y6.16531
X42.67414 Y6.12457
X42.80149 Y6.11608
X43.02923 Y6.13724
X43.28910 Y6.21877
X43.49489 Y6.33709
X43.67269 Y6.49439
X43.81518 Y6.68428
X43.91650 Y6.89896
X43.97253 Y7.12962
X43.98280 Y7.33168
X43.94155 Y7.60094
X43.85577 Y7.82228
X43.74873 Y7.99398
X43.56108 Y8.19141
X43.36420 Y8.32410
X43.15976 Y8.40965
X43.24675 Y8.46914
X43.24675 Y11.62585
X43.48595 Y11.76357
X43.67434 Y11.93527
X43.82435 Y12.14139
X43.94556 Y12.42392
X43.99164 Y12.67383
X43.99677 Y14.27494
X43.97497 Y14.50347
X43.90375 Y14.74825
X43.78473 Y14.97367
X43.62278 Y15.17055
X43.42450 Y15.33080
X43.14848 Y15.46618
X42.90045 Y15.52485
X42.64564 Y15.53245
X42.39448 Y15.48858
X42.20475 Y15.41830
X41.98564 Y15.28800
X41.79725 Y15.11629
X41.62161 Y14.86397
X41.52603 Y14.62765
X41.47996 Y14.37774
X41.47483 Y12.77662
X41.50726 Y12.49636
X41.58867 Y12.25480
X41.71701 Y12.03456
X41.88709 Y11.84462
X42.04709 Y11.72077
X42.22481 Y11.62765
X42.22481 Y8.40119
X42.06908 Y8.30864
X41.91554 Y8.17683
X41.72735 Y7.93373
X41.63825 Y7.75207
X41.56921 Y7.50666
X41.55364 Y7.19970
X41.59751 Y6.94854
X41.66779 Y6.75880
X41.83040 Y6.49797
X42.00985 Y6.31689
X42.17592 Y6.20130
X42.45844 Y6.08009
X42.69596 Y6.03434
X42.83672 Y6.03020
X43.03802 Y6.05068
X43.28280 Y6.12190
X43.55155 Y6.27107
X43.74150 Y6.44115
X43.89329 Y6.64598
X44.00073 Y6.87717
X44.05143 Y7.07305
X44.06966 Y7.32726
X44.02313 Y7.63117
X43.95285 Y7.82090
X43.82255 Y8.04001
X43.61079 Y8.26281
X43.44472 Y8.37841
X43.24675 Y8.46914
X43.33375 Y8.52649
X43.33375 Y11.56969
X43.53197 Y11.68973
X43.73428 Y11.87220
X43.89575 Y12.09171
X44.00721 Y12.33342
X44.00436 Y14.71815
X43.95900 Y14.83898
X43.82059 Y15.07367
X43.63776 Y15.27573
X43.47777 Y15.39958
X43.17028 Y15.55038
X42.90485 Y15.61175
X42.63246 Y15.61845
X42.43246 Y15.58782
X42.17454 Y15.49986
X41.88397 Y15.31876
X41.73731 Y15.17936
X41.57584 Y14.95985
X41.46403 Y14.71139
X41.46723 Y12.33342
X41.51260 Y12.21259
X41.61079 Y12.03568
X41.78280 Y11.82435
X41.99382 Y11.65199
X42.13782 Y11.57342
X42.13782 Y8.45240
X42.01242 Y8.37465
X41.85887 Y8.24285
X41.64925 Y7.97206
X41.56014 Y7.79040
X41.48501 Y7.52845
X41.46764 Y7.18651
X41.51595 Y6.91834
X41.61722 Y6.66538
X41.72425 Y6.49368
X41.96017 Y6.24550
X42.12623 Y6.12990
X42.36794 Y6.01844
X43.25270 Y6.02129
X43.37353 Y6.06665
X43.60822 Y6.20506
X43.81028 Y6.38789
X43.97139 Y6.60765
X44.08208 Y6.84773
X44.07853 Y7.73195
X44.03441 Y7.85111
X43.89639 Y8.08603
X43.71391 Y8.28834
X43.49440 Y8.44981
X43.33375 Y8.52649
X43.42074 Y8.58382
X43.42074 Y11.51787
X43.64754 Y11.66977
X43.79420 Y11.80916
X44.00743 Y12.11462
X44.00413 Y14.93689
X43.88661 Y15.13034
X43.75481 Y15.28388
X43.45630 Y15.51495
X43.27464 Y15.60405
X42.99618 Y15.68530
X42.61930 Y15.70443
X42.33406 Y15.65172
X42.06530 Y15.54268
X41.89360 Y15.43565
X41.67739 Y15.24240
X41.46416 Y14.93694
X41.46746 Y12.11467
X41.58499 Y11.92123
X41.71679 Y11.76768
X41.94059 Y11.58320
X42.05082 Y11.51920
X42.05082 Y8.50361
X41.80221 Y8.30886
X41.57114 Y8.01036
X41.48204 Y7.82870
X41.40078 Y7.55024
X41.38166 Y7.17336
X41.43436 Y6.88812
X41.54341 Y6.61936
X41.65044 Y6.44765
X41.84368 Y6.23145
X42.14914 Y6.01822
X43.47144 Y6.02152
X43.66489 Y6.13904
X43.81843 Y6.27084
X44.04950 Y6.56935
X44.07873 Y6.62891
X44.08193 Y7.95077
X43.97020 Y8.13205
X43.77695 Y8.34826
X43.54411 Y8.52121
X43.42074 Y8.58382
G04 P0 ( dwell for no time -- G64 should not smooth over this point )
G00 Z3.00000 ( retract )

G00 X45.61276 Y8.34036 ( rapid move to begin. )
F25.00000
G01 Z-0.15000
G04 P0 ( dwell for no time -- G64 should not smooth over this point )
F50.00000
X45.61276 Y8.34036
X45.61276 Y11.74701
X45.76219 Y11.80418
X45.93390 Y11.91122
X46.09448 Y12.06138
X46.22155 Y12.24081
X46.31513 Y12.45894
X46.35765 Y12.67439
X46.36234 Y14.28457
X46.33832 Y14.50311
X46.27080 Y14.71233
X46.16255 Y14.90367
X46.01800 Y15.06935
X45.84307 Y15.20253
X45.64490 Y15.29772
X45.43161 Y15.35109
X45.21198 Y15.36046
X44.99494 Y15.32541
X44.78940 Y15.24738
X44.60378 Y15.12958
X44.45712 Y14.99018
X44.32150 Y14.79536
X44.23647 Y14.59262
X44.19395 Y14.37718
X44.18882 Y12.77606
X44.21328 Y12.54845
X44.28079 Y12.33923
X44.37899 Y12.16232
X44.52084 Y11.99435
X44.70852 Y11.84904
X44.93880 Y11.74556
X44.93880 Y8.29459
X44.72242 Y8.17661
X44.55673 Y8.03205
X44.43288 Y7.87206
X44.32836 Y7.65895
X44.27500 Y7.44567
X44.26562 Y7.22604
X44.29626 Y7.02604
X44.37096 Y6.81926
X44.49651 Y6.61783
X44.64927 Y6.45969
X44.81533 Y6.34410
X45.03347 Y6.25052
X45.24477 Y6.20811
X45.35912 Y6.20331
X45.56042 Y6.22378
X45.78688 Y6.29485
X45.97822 Y6.40310
X46.14390 Y6.54765
X46.27708 Y6.72258
X46.37228 Y6.92075
X46.42564 Y7.13404
X46.43590 Y7.33609
X46.39996 Y7.57071
X46.32193 Y7.77625
X46.20413 Y7.96187
X46.05137 Y8.12002
X45.88531 Y8.23561
X45.68396 Y8.32393
X45.61276 Y8.34036
X45.69976 Y8.40965
X45.69976 Y11.68640
X45.80822 Y11.73035
X45.97992 Y11.83738
X46.15442 Y11.99832
X46.29295 Y12.19110
X46.40034 Y12.44142
X46.44464 Y12.67411
X46.44977 Y14.27522
X46.42841 Y14.49468
X46.36074 Y14.72221
X46.24868 Y14.93146
X46.09676 Y15.11388
X45.91127 Y15.26199
X45.66669 Y15.38195
X45.43603 Y15.43798
X45.19880 Y15.44647
X44.96471 Y15.40700
X44.74337 Y15.32122
X44.54383 Y15.19265
X44.39717 Y15.05325
X44.24155 Y14.82965
X44.15125 Y14.61015
X44.10695 Y14.37746
X44.10182 Y12.77634
X44.13027 Y12.52239
X44.20472 Y12.29702
X44.30291 Y12.12011
X44.45483 Y11.93769
X44.64033 Y11.78958
X44.85181 Y11.68188
X44.85181 Y8.34999
X44.66575 Y8.24262
X44.51221 Y8.11082
X44.34546 Y7.89543
X44.25635 Y7.71377
X44.19344 Y7.48486
X44.17962 Y7.21285
X44.21025 Y7.01285
X44.28937 Y6.78903
X44.43344 Y6.55789
X44.57284 Y6.41123
X44.76562 Y6.27270
X45.01594 Y6.16531
X45.21414 Y6.12457
X45.34149 Y6.11608
X45.56923 Y6.13724
X45.82910 Y6.21877
X46.03489 Y6.33709
X46.21269 Y6.49439
X46.35518 Y6.68428
X46.45650 Y6.89896
X46.51253 Y7.12962
X46.52280 Y7.33168
X46.48155 Y7.60094
X46.39577 Y7.82228
X46.28873 Y7.99398
X46.10108 Y8.19141
X45.90420 Y8.32410
X45.69976 Y8.40965
X45.78675 Y8.46914
X45.78675 Y11.62585
X46.02595 Y11.76357
X46.21434 Y11.93527
X46.36435 Y12.14139
X46.48556 Y12.42392
X46.53164 Y12.67383
X46.53677 Y14.27494
X46.51497 Y14.50347
X46.44375 Y14.74825
X46.32473 Y14.97367
X46.16278 Y15.17055
X45.96450 Y15.33080
X45.68848 Y15.46618
X45.44045 Y15.52485
X45.18564 Y15.53245
X44.93448 Y15.48858
X44.74475 Y15.41830
X44.52564 Y15.28800
X44.33725 Y15.11629
X44.16161 Y14.86397
X44.06603 Y14.62765
X44.01996 Y14.37774
X44.01483 Y12.77662
X44.04726 Y12.49636
X44.12867 Y12.25480
X44.25701 Y12.03456
X44.42709 Y11.84462
X44.58709 Y11.72077
X44.76481 Y11.62765
X44.76481 Y8.40119
X44.60908 Y8.30864
X44.45554 Y8.17683
X44.26735 Y7.93373
X44.17825 Y7.75207
X44.10921 Y7.50666
X44.09364 Y7.19970
X44.13751 Y6.94854
X44.20779 Y6.75880
X44.37040 Y6.49797
X44.54985 Y6.31689
X44.71592 Y6.20130
X44.99844 Y6.08009
X45.23596 Y6.03434
X45.37672 Y6.03020
X45.57802 Y6.05068
X45.82280 Y6.12190
X46.09155 Y6.27107
X46.28150 Y6.44115
X46.43329 Y6.64598
X46.54073 Y6.87717
X46.59143 Y7.07305
X46.60966 Y7.32726
X46.56313 Y7.63117
X46.49285 Y7.82090
X46.36255 Y8.04001
X46.15079 Y8.26281
X45.98472 Y8.37841
X45.78675 Y8.46914
X45.87375 Y8.52649
X45.87375 Y11.56969
X46.07197 Y11.68973
X46.27428 Y11.87220
X46.43575 Y12.09171
X46.54721 Y12.33342
X46.54436 Y14.71815
X46.49900 Y14.83898
X46.36059 Y15.07367
X46.17776 Y15.27573
X46.01777 Y15.39958
X45.71028 Y15.55038
X45.44485 Y15.61175
X45.17246 Y15.61845
X44.97246 Y15.58782
X44.71454 Y15.49986
X44.42397 Y15.31876
X44.27731 Y15.17936
X44.11584 Y14.95985
X44.00403 Y14.71139
X44.00723 Y12.33342
X44.05260 Y12.21259
X44.15079 Y12.03568
X44.32280 Y11.82435
X44.53382 Y11.65199
X44.67782 Y11.57342
X44.67782 Y8.45240
X44.55242 Y8.37465
X44.35036 Y8.19182
X44.18925 Y7.97206
X44.10014 Y7.79040
X44.07855 Y7.73198
X44.08211 Y6.84775
X44.15722 Y6.66538
X44.26425 Y6.49368
X44.44673 Y6.29137
X44.66623 Y6.12990
X44.90794 Y6.01844
X45.79270 Y6.02129
X45.91353 Y6.06665
X46.09044 Y6.16485
X46.35028 Y6.38789
X46.51139 Y6.60765
X46.62493 Y6.85537
X46.67563 Y7.05126
X46.69239 Y7.24082
X46.69239 Y7.39718
X46.64469 Y7.66137
X46.54342 Y7.91433
X46.43639 Y8.08603
X46.20047 Y8.33421
X46.03440 Y8.44981
X45.87375 Y8.52649
X45.96074 Y8.58382
X45.96074 Y11.51787
X46.18754 Y11.66977
X46.33420 Y11.80916
X46.54743 Y12.11462
X46.54413 Y14.93689
X46.42661 Y15.13034
X46.29481 Y15.28388
X45.99630 Y15.51495
X45.81464 Y15.60405
X45.53618 Y15.68530
X45.15930 Y15.70443
X44.87406 Y15.65172
X44.60530 Y15.54268
X44.43360 Y15.43565
X44.21739 Y15.24240
X44.00416 Y14.93694
X44.00746 Y12.11467
X44.12499 Y11.92123
X44.25679 Y11.76768
X44.48059 Y11.58320
X44.59082 Y11.51920
X44.59082 Y8.50361
X44.49575 Y8.44066
X44.28158 Y8.24506
X44.15773 Y8.08506
X44.08191 Y7.95080
X44.07871 Y6.62893
X44.19044 Y6.44765
X44.38368 Y6.23145
X44.68914 Y6.01822
X46.01144 Y6.02152
X46.20489 Y6.13904
X46.35843 Y6.27084
X46.58950 Y6.56935
X46.65810 Y6.84679
X46.68388 Y7.04913
X46.69447 Y7.32296
X46.66778 Y7.66993
X46.60540 Y7.97935
X46.45635 Y8.20160
X46.31695 Y8.34826
X46.08411 Y8.52121
X45.96074 Y8.58382
G04 P0 ( dwell for no time -- G64 should not smooth over this point )
G00 Z3.00000 ( retract )

G00 X48.15276 Y8.22685 ( rapid move to begin. )
F25.00000
G01 Z-0.15000
G04 P0 ( dwell for no time -- G64 should not smooth over this point )
F50.00000
X48.15276 Y8.22685
X48.15276 Y11.74701
X48.30219 Y11.80418
X48.47390 Y11.91122
X48.63448 Y12.06138
X48.76155 Y12.24081
X48.85513 Y12.45894
X48.89765 Y12.67439
X48.90234 Y14.28457
X48.87832 Y14.50311
X48.81080 Y14.71233
X48.70255 Y14.90367
X48.55800 Y15.06935
X48.38307 Y15.20253
X48.18490 Y15.29772
X47.97161 Y15.35109
X47.75198 Y15.36046
X47.53494 Y15.32541
X47.32940 Y15.24738
X47.14378 Y15.12958
X46.99712 Y14.99018
X46.86150 Y14.79536
X46.77647 Y14.59262
X46.73395 Y14.37718
X46.72882 Y12.77606
X46.75328 Y12.54845
X46.82079 Y12.33923
X46.91899 Y12.16232
X47.06084 Y11.99435
X47.24852 Y11.84904
X47.47880 Y11.74556
X47.47880 Y8.22685
X47.02338 Y8.22517
X46.97885 Y8.20135
X46.95503 Y8.15682
X46.95335 Y6.43988
X46.99204 Y6.36754
X47.04035 Y6.35289
X48.74032 Y6.35289
X48.80184 Y6.37836
X48.82731 Y6.43988
X48.82071 Y8.17313
X48.78865 Y8.21217
X48.74032 Y8.22685
X48.15276 Y8.22685
X48.23976 Y8.31384
X48.23976 Y11.68640
X48.34822 Y11.73035
X48.51992 Y11.83738
X48.69442 Y11.99832
X48.83295 Y12.19110
X48.94034 Y12.44142
X48.98464 Y12.67411
X48.98977 Y14.27522
X48.96841 Y14.49468
X48.90074 Y14.72221
X48.78868 Y14.93146
X48.63676 Y15.11388
X48.45127 Y15.26199
X48.20669 Y15.38195
X47.97603 Y15.43798
X47.73880 Y15.44647
X47.50471 Y15.40700
X47.28337 Y15.32122
X47.08383 Y15.19265
X46.93717 Y15.05325
X46.78155 Y14.82965
X46.69125 Y14.61015
X46.64695 Y14.37746
X46.64182 Y12.77634
X46.67027 Y12.52239
X46.74472 Y12.29702
X46.84291 Y12.12011
X46.99483 Y11.93769
X47.18033 Y11.78958
X47.39181 Y11.68188
X47.39181 Y8.31384
X47.00641 Y8.31049
X46.91733 Y8.26286
X46.86971 Y8.17379
X46.86636 Y6.43988
X46.87962 Y6.37328
X46.94370 Y6.29520
X47.04035 Y6.26589
X48.74032 Y6.26589
X48.80692 Y6.27912
X48.86336 Y6.31684
X48.90107 Y6.37328
X48.91431 Y6.43988
X48.91431 Y8.13985
X48.90107 Y8.20643
X48.83699 Y8.28451
X48.77428 Y8.31049
X48.23976 Y8.31384
X48.32675 Y8.40084
X48.32675 Y11.62585
X48.56595 Y11.76357
X48.75434 Y11.93527
X48.90435 Y12.14139
X49.02556 Y12.42392
X49.07164 Y12.67383
X49.07677 Y14.27494
X49.05497 Y14.50347
X48.98375 Y14.74825
X48.86473 Y14.97367
X48.70278 Y15.17055
X48.50450 Y15.33080
X48.22848 Y15.46618
X47.98045 Y15.52485
X47.72564 Y15.53245
X47.47448 Y15.48858
X47.28475 Y15.41830
X47.06564 Y15.28800
X46.87725 Y15.11629
X46.70161 Y14.86397
X46.60603 Y14.62765
X46.55996 Y14.37774
X46.55483 Y12.77662
X46.58726 Y12.49636
X46.66867 Y12.25480
X46.79701 Y12.03456
X46.96709 Y11.84462
X47.12709 Y11.72077
X47.30481 Y11.62765
X47.30481 Y8.40084
X47.04035 Y8.40084
X46.94047 Y8.38095
X46.82335 Y8.28484
X46.77936 Y8.13985
X46.77936 Y6.43988
X46.82335 Y6.29487
X46.89536 Y6.22286
X47.04035 Y6.17890
X48.79124 Y6.18390
X48.88533 Y6.22286
X48.95734 Y6.29487
X49.00130 Y6.43988
X49.00130 Y8.13985
X48.98144 Y8.23973
X48.88533 Y8.35684
X48.79124 Y8.39581
X48.32675 Y8.40084
X48.41375 Y8.48783
X48.41375 Y11.56969
X48.61197 Y11.68973
X48.81428 Y11.87220
X48.97575 Y12.09171
X49.08721 Y12.33342
X49.08436 Y14.71815
X49.03900 Y14.83898
X48.90059 Y15.07367
X48.71776 Y15.27573
X48.55777 Y15.39958
X48.25028 Y15.55038
X47.98485 Y15.61175
X47.71246 Y15.61845
X47.44428 Y15.57014
X47.19132 Y15.46887
X47.01962 Y15.36183
X46.77144 Y15.12592
X46.65584 Y14.95985
X46.54439 Y14.71815
X46.54723 Y12.33342
X46.59260 Y12.21259
X46.69079 Y12.03568
X46.86280 Y11.82435
X47.07382 Y11.65199
X47.21782 Y11.57342
X47.21782 Y8.48783
X46.97248 Y8.48113
X46.84703 Y8.42918
X46.75101 Y8.33317
X46.71886 Y8.27300
X46.69237 Y8.13985
X46.69237 Y6.43988
X46.71886 Y6.30671
X46.75101 Y6.24654
X46.84703 Y6.15052
X46.90720 Y6.11837
X47.04035 Y6.09190
X48.80821 Y6.09858
X48.93366 Y6.15052
X49.02967 Y6.24654
X49.06183 Y6.30671
X49.08830 Y6.43988
X49.08830 Y8.13985
X49.06183 Y8.27300
X48.98639 Y8.38590
X48.87349 Y8.46134
X48.74032 Y8.48783
X48.41375 Y8.48783
X48.50074 Y8.57483
X48.50074 Y11.51787
X48.72754 Y11.66977
X48.87420 Y11.80916
X49.08743 Y12.11462
X49.08413 Y14.93689
X48.96661 Y15.13034
X48.83481 Y15.28388
X48.53630 Y15.51495
X48.35464 Y15.60405
X48.07618 Y15.68530
X47.69930 Y15.70443
X47.41406 Y15.65172
X47.14530 Y15.54268
X46.97360 Y15.43565
X46.75739 Y15.24240
X46.54416 Y14.93694
X46.54746 Y12.11467
X46.66499 Y11.92123
X46.79679 Y11.76768
X47.02059 Y11.58320
X47.13082 Y11.51920
X47.13082 Y8.57483
X46.95551 Y8.56645
X46.87390 Y8.54171
X46.73278 Y8.44742
X46.63849 Y8.30630
X46.60537 Y8.13985
X46.60537 Y7.97940
X46.66778 Y7.66993
X46.69447 Y7.32296
X46.68388 Y7.04913
X46.60537 Y6.60170
X46.60537 Y6.43988
X46.63849 Y6.27341
X46.73278 Y6.13229
X46.79869 Y6.07821
X46.87390 Y6.03800
X47.04035 Y6.00491
X47.20527 Y6.00491
X47.58020 Y6.07628
X47.90783 Y6.09464
X48.26452 Y6.06813
X48.58139 Y6.00491
X48.74032 Y6.00491
X48.90679 Y6.03800
X49.04791 Y6.13229
X49.10199 Y6.19820
X49.14220 Y6.27341
X49.17529 Y6.43988
X49.16694 Y8.22469
X49.14220 Y8.30630
X49.04791 Y8.44742
X48.90679 Y8.54171
X48.74032 Y8.57483
X48.50074 Y8.57483
G04 P0 ( dwell for no time -- G64 should not smooth over this point )
G00 Z3.00000 ( retract )

G00 X49.26925 Y12.76700 ( rapid move to begin. )
F25.00000
G01 Z-0.15000
G04 P0 ( dwell for no time -- G64 should not smooth over this point )
F50.00000
X49.26925 Y12.76700
X49.28972 Y12.56570
X49.35385 Y12.35541
X49.46904 Y12.14790
X49.61359 Y11.98221
X49.77359 Y11.85836
X49.98670 Y11.75384
X50.19998 Y11.70048
X50.40204 Y11.69021
X50.63666 Y11.72615
X50.84219 Y11.80418
X51.02782 Y11.92199
X51.18596 Y12.07474
X51.30155 Y12.24081
X51.38987 Y12.44216
X51.43765 Y12.67439
X51.44278 Y14.27550
X51.42187 Y14.48586
X51.35080 Y14.71233
X51.25261 Y14.88924
X51.11075 Y15.05721
X50.92307 Y15.20253
X50.72490 Y15.29772
X50.51161 Y15.35109
X50.29198 Y15.36046
X50.09198 Y15.32983
X49.88520 Y15.25513
X49.69769 Y15.14035
X49.53712 Y14.99018
X49.40150 Y14.79536
X49.31647 Y14.59262
X49.27395 Y14.37718
X49.26925 Y12.76700
X49.18271 Y12.75818
X49.21027 Y12.52239
X49.28472 Y12.29702
X49.38291 Y12.12011
X49.56033 Y11.91343
X49.75022 Y11.77093
X49.93188 Y11.68183
X50.19556 Y11.61358
X50.43280 Y11.60510
X50.63280 Y11.63573
X50.88822 Y11.73035
X51.08776 Y11.85892
X51.23442 Y11.99832
X51.37295 Y12.19110
X51.46983 Y12.40787
X51.52464 Y12.67411
X51.52977 Y14.27522
X51.50841 Y14.49468
X51.42688 Y14.75455
X51.32868 Y14.93146
X51.17676 Y15.11388
X50.96137 Y15.28063
X50.74669 Y15.38195
X50.51603 Y15.43798
X50.31397 Y15.44825
X50.04471 Y15.40700
X49.82337 Y15.32122
X49.62383 Y15.19265
X49.47717 Y15.05325
X49.33864 Y14.86046
X49.24176 Y14.64370
X49.18695 Y14.37746
X49.18271 Y12.75818
X49.09615 Y12.74939
X49.12726 Y12.49636
X49.18784 Y12.30332
X49.30686 Y12.07789
X49.50709 Y11.84462
X49.66709 Y11.72077
X49.89358 Y11.60373
X50.13899 Y11.53469
X50.44595 Y11.51912
X50.69711 Y11.56299
X50.88685 Y11.63327
X51.14768 Y11.79588
X51.32876 Y11.97533
X51.44435 Y12.14139
X51.54976 Y12.37355
X51.61164 Y12.67383
X51.61677 Y14.27494
X51.59497 Y14.50347
X51.50292 Y14.79676
X51.37458 Y15.01700
X51.24278 Y15.17055
X51.04450 Y15.33080
X50.76848 Y15.46618
X50.52045 Y15.52485
X50.26564 Y15.53245
X50.01448 Y15.48858
X49.82475 Y15.41830
X49.60564 Y15.28800
X49.41725 Y15.11629
X49.24161 Y14.86397
X49.14603 Y14.62765
X49.09996 Y14.37774
X49.08723 Y12.33342
X49.13260 Y12.21259
X49.23079 Y12.03568
X49.45383 Y11.77584
X49.67359 Y11.61472
X49.85525 Y11.52562
X50.18675 Y11.43982
X50.45914 Y11.43311
X50.65914 Y11.46375
X50.98027 Y11.58270
X51.15197 Y11.68973
X51.35428 Y11.87220
X51.51575 Y12.09171
X51.62756 Y12.34017
X51.62436 Y14.71815
X51.57900 Y14.83898
X51.48080 Y15.01589
X51.30879 Y15.22721
X51.09777 Y15.39958
X50.85634 Y15.52594
X50.59439 Y15.60108
X50.32279 Y15.62201
X49.98428 Y15.57014
X49.73132 Y15.46887
X49.50397 Y15.31876
X49.31144 Y15.12592
X49.16165 Y14.89826
X49.08403 Y14.71139
X49.08746 Y12.11467
X49.20499 Y11.92123
X49.33679 Y11.76768
X49.56059 Y11.58320
X49.81695 Y11.44752
X50.18233 Y11.35295
X50.47229 Y11.34714
X50.67229 Y11.37777
X50.94727 Y11.47012
X51.19800 Y11.61592
X51.47155 Y11.87594
X51.62743 Y12.11462
X51.62413 Y14.93689
X51.50661 Y15.13034
X51.37481 Y15.28388
X51.15101 Y15.46836
X50.89464 Y15.60405
X50.61618 Y15.68530
X50.32721 Y15.70887
X50.03930 Y15.67380
X49.68530 Y15.54268
X49.44405 Y15.38180
X49.24004 Y15.17563
X49.08416 Y14.93694
X49.08406 Y12.74815
G04 P0 ( dwell for no time -- G64 should not smooth over this point )
G00 Z3.00000 ( retract )

G00 X51.80925 Y12.76700 ( rapid move to begin. )
F25.00000
G01 Z-0.15000
G04 P0 ( dwell for no time -- G64 should not smooth over this point )
F50.00000
X51.80925 Y12.76700
X51.82972 Y12.56570
X51.89385 Y12.35541
X52.00904 Y12.14790
X52.15359 Y11.98221
X52.31359 Y11.85836
X52.52670 Y11.75384
X52.73998 Y11.70048
X52.94204 Y11.69021
X53.17666 Y11.72615
X53.38219 Y11.80418
X53.56782 Y11.92199
X53.72596 Y12.07474
X53.84155 Y12.24081
X53.92987 Y12.44216
X53.97765 Y12.67439
X53.98278 Y14.27550
X53.96187 Y14.48586
X53.89080 Y14.71233
X53.79261 Y14.88924
X53.65075 Y15.05721
X53.46307 Y15.20253
X53.26490 Y15.29772
X53.05161 Y15.35109
X52.83198 Y15.36046
X52.63198 Y15.32983
X52.42520 Y15.25513
X52.23769 Y15.14035
X52.07712 Y14.99018
X51.94150 Y14.79536
X51.85647 Y14.59262
X51.81395 Y14.37718
X51.80925 Y12.76700
X51.72271 Y12.75818
X51.75027 Y12.52239
X51.82472 Y12.29702
X51.92291 Y12.12011
X52.10033 Y11.91343
X52.29022 Y11.77093
X52.47188 Y11.68183
X52.73556 Y11.61358
X52.97280 Y11.60510
X53.17280 Y11.63573
X53.42822 Y11.73035
X53.62776 Y11.85892
X53.77442 Y11.99832
X53.91295 Y12.19110
X54.00983 Y12.40787
X54.06464 Y12.67411
X54.06977 Y14.27522
X54.04841 Y14.49468
X53.96688 Y14.75455
X53.86868 Y14.93146
X53.71676 Y15.11388
X53.50137 Y15.28063
X53.28669 Y15.38195
X53.05603 Y15.43798
X52.85397 Y15.44825
X52.58471 Y15.40700
X52.36337 Y15.32122
X52.16383 Y15.19265
X52.01717 Y15.05325
X51.87864 Y14.86046
X51.78176 Y14.64370
X51.72695 Y14.37746
X51.72271 Y12.75818
X51.63615 Y12.74939
X51.66726 Y12.49636
X51.72784 Y12.30332
X51.84686 Y12.07789
X52.04709 Y11.84462
X52.20709 Y11.72077
X52.43358 Y11.60373
X52.67899 Y11.53469
X52.98595 Y11.51912
X53.23711 Y11.56299
X53.42685 Y11.63327
X53.68768 Y11.79588
X53.86876 Y11.97533
X53.98435 Y12.14139
X54.08976 Y12.37355
X54.15164 Y12.67383
X54.15677 Y14.27494
X54.13497 Y14.50347
X54.04292 Y14.79676
X53.91458 Y15.01700
X53.78278 Y15.17055
X53.58450 Y15.33080
X53.30848 Y15.46618
X53.06045 Y15.52485
X52.80564 Y15.53245
X52.55448 Y15.48858
X52.36475 Y15.41830
X52.14564 Y15.28800
X51.95725 Y15.11629
X51.78161 Y14.86397
X51.68603 Y14.62765
X51.63996 Y14.37774
X51.62723 Y12.33342
X51.67260 Y12.21259
X51.77079 Y12.03568
X51.99383 Y11.77584
X52.21359 Y11.61472
X52.39525 Y11.52562
X52.72675 Y11.43982
X52.99914 Y11.43311
X53.19914 Y11.46375
X53.52027 Y11.58270
X53.69197 Y11.68973
X53.89428 Y11.87220
X54.05575 Y12.09171
X54.16756 Y12.34017
X54.16436 Y14.71815
X54.11900 Y14.83898
X54.02080 Y15.01589
X53.84879 Y15.22721
X53.63777 Y15.39958
X53.39634 Y15.52594
X53.13439 Y15.60108
X52.86279 Y15.62201
X52.52428 Y15.57014
X52.27132 Y15.46887
X52.04397 Y15.31876
X51.85144 Y15.12592
X51.70165 Y14.89826
X51.62403 Y14.71139
X51.62746 Y12.11467
X51.74499 Y11.92123
X51.87679 Y11.76768
X52.10059 Y11.58320
X52.35695 Y11.44752
X52.72233 Y11.35295
X53.01229 Y11.34714
X53.21229 Y11.37777
X53.48727 Y11.47012
X53.73800 Y11.61592
X54.01155 Y11.87594
X54.16743 Y12.11462
X54.16413 Y14.93689
X54.04661 Y15.13034
X53.91481 Y15.28388
X53.69101 Y15.46836
X53.43464 Y15.60405
X53.15618 Y15.68530
X52.86721 Y15.70887
X52.57930 Y15.67380
X52.22530 Y15.54268
X51.98405 Y15.38180
X51.78004 Y15.17563
X51.62416 Y14.93694
X51.62406 Y12.74815
G04 P0 ( dwell for no time -- G64 should not smooth over this point )
G00 Z3.00000 ( retract )

G00 X54.43482 Y7.62685 ( rapid move to begin. )
F25.00000
G01 Z-0.15000
G04 P0 ( dwell for no time -- G64 should not smooth over this point )
F50.00000
X54.43482 Y7.62685
X53.80330 Y7.62685
X53.80330 Y8.28986
X53.78864 Y8.33818
X53.73330 Y8.37518
X51.68303 Y8.37023
X51.64399 Y8.33818
X51.62931 Y8.28986
X51.63594 Y6.25657
X51.66800 Y6.21753
X51.71631 Y6.20287
X53.74960 Y6.20948
X53.78864 Y6.24153
X53.80330 Y6.28987
X53.80330 Y6.95289
X54.58341 Y6.95334
X54.65318 Y6.96259
X54.75201 Y7.00374
X55.67409 Y7.91301
X55.74348 Y8.01461
X55.77276 Y8.15131
X55.77276 Y11.74701
X55.92219 Y11.80418
X56.09390 Y11.91122
X56.25448 Y12.06138
X56.38155 Y12.24081
X56.47513 Y12.45894
X56.51765 Y12.67439
X56.52278 Y14.27550
X56.50187 Y14.48586
X56.43774 Y14.69615
X56.33261 Y14.88924
X56.19075 Y15.05721
X56.00307 Y15.20253
X55.80490 Y15.29772
X55.59161 Y15.35109
X55.37198 Y15.36046
X55.15494 Y15.32541
X54.94940 Y15.24738
X54.76378 Y15.12958
X54.60563 Y14.97682
X54.48150 Y14.79536
X54.39647 Y14.59262
X54.35395 Y14.37718
X54.34882 Y12.77606
X54.37328 Y12.54845
X54.44079 Y12.33923
X54.53899 Y12.16232
X54.68084 Y11.99435
X54.86852 Y11.84904
X55.09880 Y11.74556
X55.09880 Y8.29086
X54.43482 Y7.62685
X54.39878 Y7.71384
X53.89029 Y7.71384
X53.88697 Y8.32380
X53.83934 Y8.41288
X53.75026 Y8.46050
X51.71631 Y8.46385
X51.61966 Y8.43452
X51.57166 Y8.38651
X51.54232 Y8.28986
X51.54232 Y6.28987
X51.55558 Y6.22327
X51.61966 Y6.14519
X51.71631 Y6.11588
X53.71630 Y6.11588
X53.78290 Y6.12911
X53.86098 Y6.19320
X53.88697 Y6.25591
X53.89029 Y6.86589
X54.59250 Y6.86683
X54.68003 Y6.87983
X54.79354 Y6.92728
X54.87414 Y6.99005
X55.73560 Y7.85149
X55.82021 Y7.97361
X55.85976 Y8.15131
X55.85976 Y11.68640
X55.96822 Y11.73035
X56.13992 Y11.83738
X56.31442 Y11.99832
X56.45295 Y12.19110
X56.56034 Y12.44142
X56.60464 Y12.67411
X56.60977 Y14.27522
X56.58841 Y14.49468
X56.52074 Y14.72221
X56.40868 Y14.93146
X56.25676 Y15.11388
X56.04137 Y15.28063
X55.82669 Y15.38195
X55.59603 Y15.43798
X55.35880 Y15.44647
X55.12471 Y15.40700
X54.90337 Y15.32122
X54.70383 Y15.19265
X54.53424 Y15.02653
X54.40155 Y14.82965
X54.31125 Y14.61015
X54.26695 Y14.37746
X54.26182 Y12.77634
X54.29027 Y12.52239
X54.36472 Y12.29702
X54.46291 Y12.12011
X54.61483 Y11.93769
X54.80033 Y11.78958
X55.01181 Y11.68188
X55.01181 Y8.32690
X54.39878 Y7.71384
X54.36273 Y7.80084
X53.97729 Y7.80084
X53.97229 Y8.34077
X53.90086 Y8.47440
X53.76723 Y8.54582
X51.71631 Y8.55085
X51.57133 Y8.50686
X51.49932 Y8.43485
X51.45532 Y8.28986
X51.45532 Y6.28987
X51.47521 Y6.18997
X51.57133 Y6.07285
X51.71631 Y6.02888
X53.71630 Y6.02888
X53.81620 Y6.04875
X53.93332 Y6.14486
X53.97229 Y6.23894
X53.97729 Y6.77890
X54.60160 Y6.78032
X54.70688 Y6.79708
X54.83505 Y6.85083
X54.93566 Y6.92853
X55.79712 Y7.78997
X55.89695 Y7.93261
X55.93073 Y8.02675
X55.94675 Y8.15131
X55.94675 Y11.62585
X56.18595 Y11.76357
X56.37434 Y11.93527
X56.52435 Y12.14139
X56.64556 Y12.42392
X56.69164 Y12.67383
X56.69677 Y14.27494
X56.67497 Y14.50347
X56.60375 Y14.74825
X56.48473 Y14.97367
X56.32278 Y15.17055
X56.07967 Y15.35874
X55.84848 Y15.46618
X55.60045 Y15.52485
X55.34564 Y15.53245
X55.09448 Y15.48858
X54.85735 Y15.39503
X54.64391 Y15.25569
X54.46284 Y15.07624
X54.32161 Y14.86397
X54.22603 Y14.62765
X54.17996 Y14.37774
X54.17483 Y12.77662
X54.20726 Y12.49636
X54.28867 Y12.25480
X54.41701 Y12.03456
X54.58709 Y11.84462
X54.74709 Y11.72077
X54.92481 Y11.62765
X54.92481 Y8.36294
X54.36273 Y7.80084
X54.32669 Y7.88783
X54.06428 Y7.88783
X54.06428 Y8.28986
X54.03782 Y8.42301
X54.00566 Y8.48318
X53.90965 Y8.57920
X53.78420 Y8.63114
X51.71631 Y8.63784
X51.58316 Y8.61135
X51.52299 Y8.57920
X51.42698 Y8.48318
X51.39482 Y8.42301
X51.36833 Y8.28986
X51.36833 Y6.28987
X51.39482 Y6.15670
X51.42698 Y6.09652
X51.52299 Y6.00051
X51.58316 Y5.96836
X51.71631 Y5.94189
X52.09700 Y5.94189
X52.42913 Y6.00303
X52.73000 Y6.01969
X53.07526 Y5.99388
X53.34257 Y5.94189
X53.71630 Y5.94189
X53.84948 Y5.96836
X53.90965 Y6.00051
X54.00566 Y6.09652
X54.05760 Y6.22197
X54.06428 Y6.69190
X54.61069 Y6.69378
X54.73373 Y6.71433
X54.87658 Y6.77437
X54.99718 Y6.86701
X55.85864 Y7.72845
X55.97365 Y7.89159
X56.01399 Y8.00147
X56.03375 Y8.15131
X56.03375 Y11.56969
X56.23197 Y11.68973
X56.43428 Y11.87220
X56.59575 Y12.09171
X56.70721 Y12.33342
X56.70436 Y14.71815
X56.65900 Y14.83898
X56.56080 Y15.01589
X56.33776 Y15.27573
X56.11800 Y15.43684
X55.93634 Y15.52594
X55.60485 Y15.61175
X55.33246 Y15.61845
X55.13246 Y15.58782
X54.81132 Y15.46887
X54.63962 Y15.36183
X54.43731 Y15.17936
X54.27584 Y14.95985
X54.16439 Y14.71815
X54.16723 Y12.33342
X54.21260 Y12.21259
X54.31079 Y12.03568
X54.48280 Y11.82435
X54.69382 Y11.65199
X54.83782 Y11.57342
X54.83782 Y8.39898
X54.32669 Y7.88783
X54.29067 Y7.97483
X54.15128 Y7.97483
X54.14292 Y8.37470
X54.07798 Y8.53152
X53.95799 Y8.65151
X53.80117 Y8.71646
X51.71631 Y8.72484
X51.54986 Y8.69172
X51.47465 Y8.65151
X51.40874 Y8.59743
X51.31446 Y8.45631
X51.28133 Y8.28986
X51.28133 Y6.28987
X51.31446 Y6.12340
X51.40874 Y5.98227
X51.47465 Y5.92820
X51.54986 Y5.88799
X51.71631 Y5.85489
X51.80843 Y5.85489
X52.22682 Y5.97204
X52.48659 Y6.00889
X52.68893 Y6.01916
X53.13604 Y5.98456
X53.41049 Y5.92426
X53.62862 Y5.85489
X53.80117 Y5.86325
X53.88278 Y5.88799
X54.02390 Y5.98227
X54.11818 Y6.12340
X54.15128 Y6.28987
X54.15128 Y6.60491
X54.67175 Y6.61273
X54.81028 Y6.64773
X54.91811 Y6.69795
X55.05869 Y6.80549
X55.92016 Y7.66693
X56.05039 Y7.85060
X56.09722 Y7.97623
X56.12074 Y8.15131
X56.12074 Y11.51787
X56.34754 Y11.66977
X56.49420 Y11.80916
X56.70743 Y12.11462
X56.70746 Y14.86587
X56.70413 Y14.93689
X56.63687 Y15.05810
X56.39100 Y15.34451
X56.15630 Y15.51495
X55.97464 Y15.60405
X55.69618 Y15.68530
X55.31930 Y15.70443
X55.11930 Y15.67380
X54.84432 Y15.58144
X54.52405 Y15.38180
X54.32004 Y15.17563
X54.16416 Y14.93694
X54.16746 Y12.11467
X54.28499 Y11.92123
X54.41679 Y11.76768
X54.64059 Y11.58320
X54.75082 Y11.51920
X54.75082 Y8.43500
X54.29067 Y7.97483
G04 P0 ( dwell for no time -- G64 should not smooth over this point )
G00 Z3.00000 ( retract )

G00 X58.31276 Y8.34036 ( rapid move to begin. )
F25.00000
G01 Z-0.15000
G04 P0 ( dwell for no time -- G64 should not smooth over this point )
F50.00000
X58.31276 Y8.34036
X58.31276 Y11.74701
X58.46219 Y11.80418
X58.63390 Y11.91122
X58.79448 Y12.06138
X58.92155 Y12.24081
X59.01513 Y12.45894
X59.05765 Y12.67439
X59.06234 Y14.28457
X59.03832 Y14.50311
X58.97080 Y14.71233
X58.86255 Y14.90367
X58.71800 Y15.06935
X58.54307 Y15.20253
X58.34490 Y15.29772
X58.13161 Y15.35109
X57.91198 Y15.36046
X57.69494 Y15.32541
X57.48940 Y15.24738
X57.30378 Y15.12958
X57.15712 Y14.99018
X57.02150 Y14.79536
X56.93647 Y14.59262
X56.89395 Y14.37718
X56.88882 Y12.77606
X56.91328 Y12.54845
X56.98079 Y12.33923
X57.07899 Y12.16232
X57.22084 Y11.99435
X57.40852 Y11.84904
X57.63880 Y11.74556
X57.63880 Y8.29459
X57.42242 Y8.17661
X57.25673 Y8.03205
X57.13288 Y7.87206
X57.02836 Y7.65895
X56.97500 Y7.44567
X56.96562 Y7.22604
X56.99626 Y7.02604
X57.07096 Y6.81926
X57.19651 Y6.61783
X57.34927 Y6.45969
X57.51533 Y6.34410
X57.73347 Y6.25052
X57.94477 Y6.20811
X58.05912 Y6.20331
X58.26042 Y6.22378
X58.48688 Y6.29485
X58.67822 Y6.40310
X58.84390 Y6.54765
X58.97708 Y6.72258
X59.07228 Y6.92075
X59.12564 Y7.13404
X59.13590 Y7.33609
X59.09996 Y7.57071
X59.02193 Y7.77625
X58.90413 Y7.96187
X58.75137 Y8.12002
X58.58531 Y8.23561
X58.38396 Y8.32393
X58.31276 Y8.34036
X58.39976 Y8.40965
X58.39976 Y11.68640
X58.50822 Y11.73035
X58.67992 Y11.83738
X58.85442 Y11.99832
X58.99295 Y12.19110
X59.10034 Y12.44142
X59.14464 Y12.67411
X59.14977 Y14.27522
X59.12841 Y14.49468
X59.06074 Y14.72221
X58.94868 Y14.93146
X58.79676 Y15.11388
X58.61127 Y15.26199
X58.36669 Y15.38195
X58.13603 Y15.43798
X57.89880 Y15.44647
X57.66471 Y15.40700
X57.44337 Y15.32122
X57.24383 Y15.19265
X57.09717 Y15.05325
X56.94155 Y14.82965
X56.85125 Y14.61015
X56.80695 Y14.37746
X56.80182 Y12.77634
X56.83027 Y12.52239
X56.90472 Y12.29702
X57.00291 Y12.12011
X57.15483 Y11.93769
X57.34033 Y11.78958
X57.55181 Y11.68188
X57.55181 Y8.34999
X57.36575 Y8.24262
X57.21221 Y8.11082
X57.04546 Y7.89543
X56.95635 Y7.71377
X56.89344 Y7.48486
X56.87962 Y7.21285
X56.91025 Y7.01285
X56.98937 Y6.78903
X57.13344 Y6.55789
X57.27284 Y6.41123
X57.46562 Y6.27270
X57.71594 Y6.16531
X57.91414 Y6.12457
X58.04149 Y6.11608
X58.26923 Y6.13724
X58.52910 Y6.21877
X58.73489 Y6.33709
X58.91269 Y6.49439
X59.05518 Y6.68428
X59.15650 Y6.89896
X59.21253 Y7.12962
X59.22280 Y7.33168
X59.18155 Y7.60094
X59.09577 Y7.82228
X58.98873 Y7.99398
X58.80108 Y8.19141
X58.60420 Y8.32410
X58.39976 Y8.40965
X58.48675 Y8.46914
X58.48675 Y11.62585
X58.72595 Y11.76357
X58.91434 Y11.93527
X59.06435 Y12.14139
X59.18556 Y12.42392
X59.23164 Y12.67383
X59.23677 Y14.27494
X59.21497 Y14.50347
X59.14375 Y14.74825
X59.02473 Y14.97367
X58.86278 Y15.17055
X58.66450 Y15.33080
X58.38848 Y15.46618
X58.14045 Y15.52485
X57.88564 Y15.53245
X57.63448 Y15.48858
X57.44475 Y15.41830
X57.22564 Y15.28800
X57.03725 Y15.11629
X56.86161 Y14.86397
X56.76603 Y14.62765
X56.71996 Y14.37774
X56.71483 Y12.77662
X56.74726 Y12.49636
X56.82867 Y12.25480
X56.95701 Y12.03456
X57.12709 Y11.84462
X57.28709 Y11.72077
X57.46481 Y11.62765
X57.46481 Y8.40119
X57.30908 Y8.30864
X57.15554 Y8.17683
X56.96735 Y7.93373
X56.87825 Y7.75207
X56.80921 Y7.50666
X56.79364 Y7.19970
X56.83751 Y6.94854
X56.90779 Y6.75880
X57.07040 Y6.49797
X57.24985 Y6.31689
X57.41592 Y6.20130
X57.69844 Y6.08009
X57.93596 Y6.03434
X58.07672 Y6.03020
X58.27802 Y6.05068
X58.52280 Y6.12190
X58.79155 Y6.27107
X58.98150 Y6.44115
X59.13329 Y6.64598
X59.24073 Y6.87717
X59.29143 Y7.07305
X59.30966 Y7.32726
X59.26313 Y7.63117
X59.19285 Y7.82090
X59.06255 Y8.04001
X58.85079 Y8.26281
X58.68472 Y8.37841
X58.48675 Y8.46914
X58.57375 Y8.52649
X58.57375 Y11.56969
X58.77197 Y11.68973
X58.97428 Y11.87220
X59.13575 Y12.09171
X59.24721 Y12.33342
X59.24436 Y14.71815
X59.19900 Y14.83898
X59.06059 Y15.07367
X58.87776 Y15.27573
X58.71777 Y15.39958
X58.41028 Y15.55038
X58.14485 Y15.61175
X57.87246 Y15.61845
X57.67246 Y15.58782
X57.41454 Y15.49986
X57.12397 Y15.31876
X56.97731 Y15.17936
X56.81584 Y14.95985
X56.70403 Y14.71139
X56.70723 Y12.33342
X56.75260 Y12.21259
X56.85079 Y12.03568
X57.02280 Y11.82435
X57.23382 Y11.65199
X57.37782 Y11.57342
X57.37782 Y8.45240
X57.25242 Y8.37465
X57.09887 Y8.24285
X56.88925 Y7.97206
X56.80014 Y7.79040
X56.72501 Y7.52845
X56.70764 Y7.18651
X56.75595 Y6.91834
X56.85722 Y6.66538
X56.96425 Y6.49368
X57.20017 Y6.24550
X57.36623 Y6.12990
X57.60794 Y6.01844
X58.49270 Y6.02129
X58.61353 Y6.06665
X58.84822 Y6.20506
X59.05028 Y6.38789
X59.21139 Y6.60765
X59.32208 Y6.84773
X59.31855 Y7.73190
X59.27441 Y7.85111
X59.13639 Y8.08603
X58.95391 Y8.28834
X58.73440 Y8.44981
X58.57375 Y8.52649
X58.66074 Y8.58382
X58.66074 Y11.51787
X58.88754 Y11.66977
X59.03420 Y11.80916
X59.24743 Y12.11462
X59.24413 Y14.93689
X59.12661 Y15.13034
X58.99481 Y15.28388
X58.69630 Y15.51495
X58.51464 Y15.60405
X58.23618 Y15.68530
X57.85930 Y15.70443
X57.57406 Y15.65172
X57.30530 Y15.54268
X57.13360 Y15.43565
X56.91739 Y15.24240
X56.70416 Y14.93694
X56.70746 Y12.11467
X56.82499 Y11.92123
X56.95679 Y11.76768
X57.18059 Y11.58320
X57.29082 Y11.51920
X57.29082 Y8.50361
X57.04221 Y8.30886
X56.81114 Y8.01036
X56.72204 Y7.82870
X56.64078 Y7.55024
X56.62166 Y7.17336
X56.67436 Y6.88812
X56.78341 Y6.61936
X56.89044 Y6.44765
X57.08368 Y6.23145
X57.38914 Y6.01822
X58.71144 Y6.02152
X58.90489 Y6.13904
X59.05843 Y6.27084
X59.28950 Y6.56935
X59.31873 Y6.62891
X59.32196 Y7.95072
X59.21020 Y8.13205
X59.01695 Y8.34826
X58.78411 Y8.52121
X58.66074 Y8.58382
G04 P0 ( dwell for no time -- G64 should not smooth over this point )
G00 Z3.00000 ( retract )

G00 X60.85276 Y8.34036 ( rapid move to begin. )
F25.00000
G01 Z-0.15000
G04 P0 ( dwell for no time -- G64 should not smooth over this point )
F50.00000
X60.85276 Y8.34036
X60.85276 Y11.74701
X61.00219 Y11.80418
X61.17390 Y11.91122
X61.33448 Y12.06138
X61.46155 Y12.24081
X61.55513 Y12.45894
X61.59765 Y12.67439
X61.60234 Y14.28457
X61.57832 Y14.50311
X61.51080 Y14.71233
X61.40255 Y14.90367
X61.25800 Y15.06935
X61.08307 Y15.20253
X60.88490 Y15.29772
X60.67161 Y15.35109
X60.45198 Y15.36046
X60.23494 Y15.32541
X60.02940 Y15.24738
X59.84378 Y15.12958
X59.69712 Y14.99018
X59.56150 Y14.79536
X59.47647 Y14.59262
X59.43395 Y14.37718
X59.42882 Y12.77606
X59.45328 Y12.54845
X59.52079 Y12.33923
X59.61899 Y12.16232
X59.76084 Y11.99435
X59.94852 Y11.84904
X60.17880 Y11.74556
X60.17880 Y8.29459
X59.96244 Y8.17661
X59.79676 Y8.03205
X59.67291 Y7.87206
X59.56839 Y7.65895
X59.51502 Y7.44567
X59.50565 Y7.22604
X59.53628 Y7.02604
X59.61098 Y6.81926
X59.73654 Y6.61783
X59.88929 Y6.45969
X60.05536 Y6.34410
X60.27349 Y6.25052
X60.48479 Y6.20811
X60.59915 Y6.20331
X60.80044 Y6.22378
X61.02691 Y6.29485
X61.21825 Y6.40310
X61.38393 Y6.54765
X61.51710 Y6.72258
X61.61230 Y6.92075
X61.66567 Y7.13404
X61.67593 Y7.33609
X61.63999 Y7.57071
X61.56196 Y7.77625
X61.44415 Y7.96187
X61.29140 Y8.12002
X61.12533 Y8.23561
X60.92399 Y8.32393
X60.85276 Y8.34036
X60.93976 Y8.40968
X60.93976 Y11.68640
X61.04822 Y11.73035
X61.21992 Y11.83738
X61.39442 Y11.99832
X61.53295 Y12.19110
X61.64034 Y12.44142
X61.68464 Y12.67411
X61.68977 Y14.27522
X61.66841 Y14.49468
X61.60074 Y14.72221
X61.48868 Y14.93146
X61.33676 Y15.11388
X61.15127 Y15.26199
X60.90669 Y15.38195
X60.67603 Y15.43798
X60.43880 Y15.44647
X60.20471 Y15.40700
X59.98337 Y15.32122
X59.78383 Y15.19265
X59.63717 Y15.05325
X59.48155 Y14.82965
X59.39125 Y14.61015
X59.34695 Y14.37746
X59.34182 Y12.77634
X59.37027 Y12.52239
X59.44472 Y12.29702
X59.54291 Y12.12011
X59.69483 Y11.93769
X59.88033 Y11.78958
X60.09181 Y11.68188
X60.09181 Y8.34999
X59.90578 Y8.24262
X59.75223 Y8.11082
X59.58548 Y7.89543
X59.49638 Y7.71377
X59.43346 Y7.48486
X59.41965 Y7.21285
X59.45028 Y7.01285
X59.52940 Y6.78903
X59.67347 Y6.55789
X59.81286 Y6.41123
X60.00565 Y6.27270
X60.25597 Y6.16531
X60.45416 Y6.12457
X60.58152 Y6.11608
X60.80925 Y6.13724
X61.06912 Y6.21877
X61.27491 Y6.33709
X61.45271 Y6.49439
X61.59521 Y6.68428
X61.69653 Y6.89896
X61.75256 Y7.12962
X61.76282 Y7.33168
X61.72157 Y7.60094
X61.63580 Y7.82228
X61.52876 Y7.99398
X61.34111 Y8.19141
X61.14423 Y8.32410
X60.93976 Y8.40968
X61.02675 Y8.46914
X61.02675 Y11.62585
X61.26595 Y11.76357
X61.45434 Y11.93527
X61.60435 Y12.14139
X61.72556 Y12.42392
X61.77164 Y12.67383
X61.77677 Y14.27494
X61.75497 Y14.50347
X61.68375 Y14.74825
X61.56473 Y14.97367
X61.40278 Y15.17055
X61.20450 Y15.33080
X60.92848 Y15.46618
X60.68045 Y15.52485
X60.42564 Y15.53245
X60.17448 Y15.48858
X59.98475 Y15.41830
X59.76564 Y15.28800
X59.57725 Y15.11629
X59.40161 Y14.86397
X59.30603 Y14.62765
X59.25996 Y14.37774
X59.25483 Y12.77662
X59.28726 Y12.49636
X59.36867 Y12.25480
X59.49701 Y12.03456
X59.66709 Y11.84462
X59.82709 Y11.72077
X60.00481 Y11.62765
X60.00481 Y8.40117
X59.84911 Y8.30864
X59.69557 Y8.17683
X59.50738 Y7.93373
X59.41827 Y7.75207
X59.34924 Y7.50666
X59.33367 Y7.19970
X59.37753 Y6.94854
X59.44781 Y6.75880
X59.61043 Y6.49797
X59.78988 Y6.31689
X59.95594 Y6.20130
X60.23847 Y6.08009
X60.47598 Y6.03434
X60.61675 Y6.03020
X60.81804 Y6.05068
X61.06282 Y6.12190
X61.33158 Y6.27107
X61.52152 Y6.44115
X61.67331 Y6.64598
X61.78075 Y6.87717
X61.83145 Y7.07305
X61.84969 Y7.32726
X61.80316 Y7.63117
X61.73287 Y7.82090
X61.60257 Y8.04001
X61.39081 Y8.26281
X61.22475 Y8.37841
X61.02675 Y8.46914
X61.11375 Y8.52649
X61.11375 Y11.56969
X61.31197 Y11.68973
X61.51428 Y11.87220
X61.67575 Y12.09171
X61.78721 Y12.33342
X61.78436 Y14.71815
X61.73900 Y14.83898
X61.60059 Y15.07367
X61.41776 Y15.27573
X61.25777 Y15.39958
X60.95028 Y15.55038
X60.68485 Y15.61175
X60.41246 Y15.61845
X60.21246 Y15.58782
X59.95454 Y15.49986
X59.66397 Y15.31876
X59.51731 Y15.17936
X59.35584 Y14.95985
X59.24403 Y14.71139
X59.24723 Y12.33342
X59.29260 Y12.21259
X59.39079 Y12.03568
X59.56280 Y11.82435
X59.77382 Y11.65199
X59.91782 Y11.57342
X59.91782 Y8.45240
X59.79244 Y8.37465
X59.59038 Y8.19182
X59.42927 Y7.97206
X59.34017 Y7.79040
X59.31858 Y7.73198
X59.32211 Y6.84781
X59.39724 Y6.66538
X59.50428 Y6.49368
X59.68675 Y6.29137
X59.90626 Y6.12990
X60.14797 Y6.01844
X61.03272 Y6.02129
X61.15355 Y6.06665
X61.38825 Y6.20506
X61.59030 Y6.38789
X61.75142 Y6.60765
X61.86208 Y6.84765
X61.85855 Y7.73198
X61.81443 Y7.85111
X61.67641 Y8.08603
X61.49394 Y8.28834
X61.27443 Y8.44981
X61.11375 Y8.52649
X61.20074 Y8.58382
X61.20074 Y11.51787
X61.42754 Y11.66977
X61.57420 Y11.80916
X61.78743 Y12.11462
X61.78413 Y14.93689
X61.66661 Y15.13034
X61.53481 Y15.28388
X61.23630 Y15.51495
X61.05464 Y15.60405
X60.77618 Y15.68530
X60.39930 Y15.70443
X60.11406 Y15.65172
