( pcb2gcode 1.3.2 )
( Software-independent Gcode )

( This file uses 3 drill bit sizes. )
( Bit sizes: [0.8mm] [1mm] [2.2mm] )

G94       (Millimeters per minute feed rate.)
G21       (Units == Millimeters.)
G90       (Absolute coordinates.)
S12000     (RPM spindle speed.)

G00 Z5.00000 (Retract)
T1
M5      (Spindle stop.)
G04 P1.00000(MSG, Change tool bit to drill size 0.80000 mm)
M6      (Tool change.)
M0      (Temporary machine stop.)
M3      (Spindle on clockwise.)
G04 P1.00000

F20.00000
G0 X10.08034 Y40.78087
G1 Z-2.50000
G1 Z3.00000
G0 X12.62034 Y40.78087
G1 Z-2.50000
G1 Z3.00000
G0 X15.16034 Y40.78087
G1 Z-2.50000
G1 Z3.00000
G0 X17.70034 Y40.78087
G1 Z-2.50000
G1 Z3.00000
G0 X20.24034 Y40.78087
G1 Z-2.50000
G1 Z3.00000
G0 X22.78034 Y40.78087
G1 Z-2.50000
G1 Z3.00000
G0 X25.32034 Y40.78087
G1 Z-2.50000
G1 Z3.00000
G0 X27.86034 Y40.78087
G1 Z-2.50000
G1 Z3.00000
G0 X34.48534 Y40.66487
G1 Z-2.50000
G1 Z3.00000
G0 X37.02534 Y40.66487
G1 Z-2.50000
G1 Z3.00000
G0 X39.56534 Y40.66487
G1 Z-2.50000
G1 Z3.00000
G0 X42.10534 Y40.66487
G1 Z-2.50000
G1 Z3.00000
G0 X44.64534 Y40.66487
G1 Z-2.50000
G1 Z3.00000
G0 X47.18534 Y40.66487
G1 Z-2.50000
G1 Z3.00000
G0 X49.72534 Y40.66487
G1 Z-2.50000
G1 Z3.00000
G0 X52.26534 Y40.66487
G1 Z-2.50000
G1 Z3.00000
G0 X58.48334 Y40.77587
G1 Z-2.50000
G1 Z3.00000
G0 X61.02334 Y40.77587
G1 Z-2.50000
G1 Z3.00000
G0 X63.56334 Y40.77587
G1 Z-2.50000
G1 Z3.00000
G0 X66.10334 Y40.77587
G1 Z-2.50000
G1 Z3.00000
G0 X68.64334 Y40.77587
G1 Z-2.50000
G1 Z3.00000
G0 X71.18334 Y40.77587
G1 Z-2.50000
G1 Z3.00000
G0 X73.72334 Y40.77587
G1 Z-2.50000
G1 Z3.00000
G0 X76.26334 Y40.77587
G1 Z-2.50000
G1 Z3.00000
G0 X76.26334 Y53.47587
G1 Z-2.50000
G1 Z3.00000
G0 X73.72334 Y53.47587
G1 Z-2.50000
G1 Z3.00000
G0 X71.18334 Y53.47587
G1 Z-2.50000
G1 Z3.00000
G0 X68.64334 Y53.47587
G1 Z-2.50000
G1 Z3.00000
G0 X66.10334 Y53.47587
G1 Z-2.50000
G1 Z3.00000
G0 X63.56334 Y53.47587
G1 Z-2.50000
G1 Z3.00000
G0 X61.02334 Y53.47587
G1 Z-2.50000
G1 Z3.00000
G0 X58.48334 Y53.47587
G1 Z-2.50000
G1 Z3.00000
G0 X58.22934 Y48.70487
G1 Z-2.50000
G1 Z3.00000
G0 X58.22934 Y46.20487
G1 Z-2.50000
G1 Z3.00000
G0 X52.26534 Y53.36487
G1 Z-2.50000
G1 Z3.00000
G0 X49.72534 Y53.36487
G1 Z-2.50000
G1 Z3.00000
G0 X47.18534 Y53.36487
G1 Z-2.50000
G1 Z3.00000
G0 X44.64534 Y53.36487
G1 Z-2.50000
G1 Z3.00000
G0 X42.10534 Y53.36487
G1 Z-2.50000
G1 Z3.00000
G0 X39.56534 Y53.36487
G1 Z-2.50000
G1 Z3.00000
G0 X37.02534 Y53.36487
G1 Z-2.50000
G1 Z3.00000
G0 X34.48534 Y53.36487
G1 Z-2.50000
G1 Z3.00000
G0 X34.09934 Y48.06987
G1 Z-2.50000
G1 Z3.00000
G0 X34.09934 Y45.56987
G1 Z-2.50000
G1 Z3.00000
G0 X27.86034 Y53.48087
G1 Z-2.50000
G1 Z3.00000
G0 X25.32034 Y53.48087
G1 Z-2.50000
G1 Z3.00000
G0 X22.78034 Y53.48087
G1 Z-2.50000
G1 Z3.00000
G0 X20.24034 Y53.48087
G1 Z-2.50000
G1 Z3.00000
G0 X17.70034 Y53.48087
G1 Z-2.50000
G1 Z3.00000
G0 X15.16034 Y53.48087
G1 Z-2.50000
G1 Z3.00000
G0 X12.62034 Y53.48087
G1 Z-2.50000
G1 Z3.00000
G0 X10.08034 Y53.48087
G1 Z-2.50000
G1 Z3.00000
G0 X9.96934 Y57.21387
G1 Z-2.50000
G1 Z3.00000
G0 X5.21834 Y57.21387
G1 Z-2.50000
G1 Z3.00000
G0 X9.96934 Y48.06987
G1 Z-2.50000
G1 Z3.00000
G0 X9.96934 Y45.56987
G1 Z-2.50000
G1 Z3.00000
G0 X25.28434 Y60.62987
G1 Z-2.50000
G1 Z3.00000
G0 X30.54334 Y60.62987
G1 Z-2.50000
G1 Z3.00000
G0 X48.57734 Y60.62987
G1 Z-2.50000
G1 Z3.00000
G0 X58.48334 Y59.24587
G1 Z-2.50000
G1 Z3.00000

G00 Z5.00000 (Retract)
T2
M5      (Spindle stop.)
G04 P1.00000(MSG, Change tool bit to drill size 1.00000 mm)
M6      (Tool change.)
M0      (Temporary machine stop.)
M3      (Spindle on clockwise.)
G04 P1.00000

F20.00000
G0 X9.71534 Y13.52587
G1 Z-2.50000
G1 Z3.00000
G0 X12.25534 Y13.52587
G1 Z-2.50000
G1 Z3.00000
G0 X14.79534 Y13.52587
G1 Z-2.50000
G1 Z3.00000
G0 X17.33534 Y13.52587
G1 Z-2.50000
G1 Z3.00000
G0 X19.87534 Y13.52587
G1 Z-2.50000
G1 Z3.00000
G0 X22.41534 Y13.52587
G1 Z-2.50000
G1 Z3.00000
G0 X24.95534 Y13.52587
G1 Z-2.50000
G1 Z3.00000
G0 X27.49534 Y13.52587
G1 Z-2.50000
G1 Z3.00000
G0 X30.03534 Y13.52587
G1 Z-2.50000
G1 Z3.00000
G0 X32.57534 Y13.52587
G1 Z-2.50000
G1 Z3.00000
G0 X35.11534 Y13.52587
G1 Z-2.50000
G1 Z3.00000
G0 X37.65534 Y13.52587
G1 Z-2.50000
G1 Z3.00000
G0 X40.19534 Y13.52587
G1 Z-2.50000
G1 Z3.00000
G0 X42.73534 Y13.52587
G1 Z-2.50000
G1 Z3.00000
G0 X45.27534 Y13.52587
G1 Z-2.50000
G1 Z3.00000
G0 X47.81534 Y13.52587
G1 Z-2.50000
G1 Z3.00000
G0 X50.35534 Y13.52587
G1 Z-2.50000
G1 Z3.00000
G0 X52.89534 Y13.52587
G1 Z-2.50000
G1 Z3.00000
G0 X55.43534 Y13.52587
G1 Z-2.50000
G1 Z3.00000
G0 X57.97534 Y13.52587
G1 Z-2.50000
G1 Z3.00000
G0 X60.51534 Y13.52587
G1 Z-2.50000
G1 Z3.00000
G0 X63.05534 Y13.52587
G1 Z-2.50000
G1 Z3.00000
G0 X65.59534 Y13.52587
G1 Z-2.50000
G1 Z3.00000
G0 X68.13534 Y13.52587
G1 Z-2.50000
G1 Z3.00000
G0 X70.67534 Y13.52587
G1 Z-2.50000
G1 Z3.00000
G0 X73.21534 Y13.52587
G1 Z-2.50000
G1 Z3.00000
G0 X65.67034 Y7.28987
G1 Z-2.50000
G1 Z3.00000
G0 X63.13034 Y7.28987
G1 Z-2.50000
G1 Z3.00000
G0 X60.59034 Y7.28987
G1 Z-2.50000
G1 Z3.00000
G0 X58.05034 Y7.28987
G1 Z-2.50000
G1 Z3.00000
G0 X58.05034 Y4.74987
G1 Z-2.50000
G1 Z3.00000
G0 X60.59034 Y4.74987
G1 Z-2.50000
G1 Z3.00000
G0 X63.13034 Y4.74987
G1 Z-2.50000
G1 Z3.00000
G0 X65.67034 Y4.74987
G1 Z-2.50000
G1 Z3.00000
G0 X52.71634 Y4.74987
G1 Z-2.50000
G1 Z3.00000
G0 X52.71634 Y7.28987
G1 Z-2.50000
G1 Z3.00000
G0 X47.89034 Y7.28987
G1 Z-2.50000
G1 Z3.00000
G0 X45.35034 Y7.28987
G1 Z-2.50000
G1 Z3.00000
G0 X42.81034 Y7.28987
G1 Z-2.50000
G1 Z3.00000
G0 X42.81034 Y4.74987
G1 Z-2.50000
G1 Z3.00000
G0 X45.35034 Y4.74987
G1 Z-2.50000
G1 Z3.00000
G0 X47.89034 Y4.74987
G1 Z-2.50000
G1 Z3.00000
G0 X38.74634 Y4.74987
G1 Z-2.50000
G1 Z3.00000
G0 X38.74634 Y7.28987
G1 Z-2.50000
G1 Z3.00000
G0 X32.90434 Y7.28987
G1 Z-2.50000
G1 Z3.00000
G0 X30.36434 Y7.28987
G1 Z-2.50000
G1 Z3.00000
G0 X27.82434 Y7.28987
G1 Z-2.50000
G1 Z3.00000
G0 X25.28434 Y7.28987
G1 Z-2.50000
G1 Z3.00000
G0 X22.74434 Y7.28987
G1 Z-2.50000
G1 Z3.00000
G0 X22.74434 Y4.74987
G1 Z-2.50000
G1 Z3.00000
G0 X25.28434 Y4.74987
G1 Z-2.50000
G1 Z3.00000
G0 X27.82434 Y4.74987
G1 Z-2.50000
G1 Z3.00000
G0 X30.36434 Y4.74987
G1 Z-2.50000
G1 Z3.00000
G0 X32.90434 Y4.74987
G1 Z-2.50000
G1 Z3.00000
G0 X17.41034 Y4.74987
G1 Z-2.50000
G1 Z3.00000
G0 X14.87034 Y4.74987
G1 Z-2.50000
G1 Z3.00000
G0 X14.87034 Y7.28987
G1 Z-2.50000
G1 Z3.00000
G0 X17.41034 Y7.28987
G1 Z-2.50000
G1 Z3.00000
G0 X17.33534 Y33.84587
G1 Z-2.50000
G1 Z3.00000
G0 X14.79534 Y33.84587
G1 Z-2.50000
G1 Z3.00000
G0 X12.25534 Y33.84587
G1 Z-2.50000
G1 Z3.00000
G0 X9.71534 Y33.84587
G1 Z-2.50000
G1 Z3.00000
G0 X19.87534 Y33.84587
G1 Z-2.50000
G1 Z3.00000
G0 X22.41534 Y33.84587
G1 Z-2.50000
G1 Z3.00000
G0 X24.95534 Y33.84587
G1 Z-2.50000
G1 Z3.00000
G0 X27.49534 Y33.84587
G1 Z-2.50000
G1 Z3.00000
G0 X30.03534 Y33.84587
G1 Z-2.50000
G1 Z3.00000
G0 X32.57534 Y33.84587
G1 Z-2.50000
G1 Z3.00000
G0 X35.11534 Y33.84587
G1 Z-2.50000
G1 Z3.00000
G0 X37.65534 Y33.84587
G1 Z-2.50000
G1 Z3.00000
G0 X40.19534 Y33.84587
G1 Z-2.50000
G1 Z3.00000
G0 X42.73534 Y33.84587
G1 Z-2.50000
G1 Z3.00000
G0 X45.27534 Y33.84587
G1 Z-2.50000
G1 Z3.00000
G0 X47.81534 Y33.84587
G1 Z-2.50000
G1 Z3.00000
G0 X50.35534 Y33.84587
G1 Z-2.50000
G1 Z3.00000
G0 X52.89534 Y33.84587
G1 Z-2.50000
G1 Z3.00000
G0 X55.43534 Y33.84587
G1 Z-2.50000
G1 Z3.00000
G0 X57.97534 Y33.84587
G1 Z-2.50000
G1 Z3.00000
G0 X60.51534 Y33.84587
G1 Z-2.50000
G1 Z3.00000
G0 X63.05534 Y33.84587
G1 Z-2.50000
G1 Z3.00000
G0 X65.59534 Y33.84587
G1 Z-2.50000
G1 Z3.00000
G0 X68.13534 Y33.84587
G1 Z-2.50000
G1 Z3.00000
G0 X70.67534 Y33.84587
G1 Z-2.50000
G1 Z3.00000
G0 X73.21534 Y33.84587
G1 Z-2.50000
G1 Z3.00000
G0 X73.79834 Y45.64387
G1 Z-2.50000
G1 Z3.00000
G0 X71.25834 Y45.64387
G1 Z-2.50000
G1 Z3.00000
G0 X68.71834 Y45.64387
G1 Z-2.50000
G1 Z3.00000
G0 X68.71834 Y48.18387
G1 Z-2.50000
G1 Z3.00000
G0 X71.25834 Y48.18387
G1 Z-2.50000
G1 Z3.00000
G0 X73.79834 Y48.18387
G1 Z-2.50000
G1 Z3.00000
G0 X71.18334 Y57.59487
G1 Z-2.50000
G1 Z3.00000
G0 X68.64334 Y57.59487
G1 Z-2.50000
G1 Z3.00000
G0 X66.10334 Y57.59487
G1 Z-2.50000
G1 Z3.00000
G0 X63.56334 Y57.59487
G1 Z-2.50000
G1 Z3.00000
G0 X55.00234 Y59.86787
G1 Z-2.50000
G1 Z3.00000
G0 X52.46234 Y59.86787
G1 Z-2.50000
G1 Z3.00000
G0 X47.18534 Y57.59487
G1 Z-2.50000
G1 Z3.00000
G0 X44.64534 Y57.59487
G1 Z-2.50000
G1 Z3.00000
G0 X42.10534 Y57.59487
G1 Z-2.50000
G1 Z3.00000
G0 X39.56534 Y57.59487
G1 Z-2.50000
G1 Z3.00000
G0 X44.58834 Y48.43787
G1 Z-2.50000
G1 Z3.00000
G0 X44.58834 Y45.89787
G1 Z-2.50000
G1 Z3.00000
G0 X47.12834 Y45.89787
G1 Z-2.50000
G1 Z3.00000
G0 X47.12834 Y48.43787
G1 Z-2.50000
G1 Z3.00000
G0 X49.66834 Y48.43787
G1 Z-2.50000
G1 Z3.00000
G0 X49.66834 Y45.89787
G1 Z-2.50000
G1 Z3.00000
G0 X25.32034 Y45.86087
G1 Z-2.50000
G1 Z3.00000
G0 X22.78034 Y45.86087
G1 Z-2.50000
G1 Z3.00000
G0 X20.24034 Y45.86087
G1 Z-2.50000
G1 Z3.00000
G0 X20.24034 Y48.40087
G1 Z-2.50000
G1 Z3.00000
G0 X22.78034 Y48.40087
G1 Z-2.50000
G1 Z3.00000
G0 X25.32034 Y48.40087
G1 Z-2.50000
G1 Z3.00000
G0 X22.66934 Y57.59487
G1 Z-2.50000
G1 Z3.00000
G0 X20.12934 Y57.59487
G1 Z-2.50000
G1 Z3.00000
G0 X17.58934 Y57.59487
G1 Z-2.50000
G1 Z3.00000
G0 X15.04934 Y57.59487
G1 Z-2.50000
G1 Z3.00000

G00 Z5.00000 (Retract)
T3
M5      (Spindle stop.)
G04 P1.00000(MSG, Change tool bit to drill size 2.20000 mm)
M6      (Tool change.)
M0      (Temporary machine stop.)
M3      (Spindle on clockwise.)
G04 P1.00000

F20.00000
G0 X4.63534 Y4.63587
G1 Z-2.50000
G1 Z3.00000
G0 X4.63534 Y61.15087
G1 Z-2.50000
G1 Z3.00000
G0 X75.12034 Y61.15087
G1 Z-2.50000
G1 Z3.00000
G0 X75.18534 Y4.57087
G1 Z-2.50000
G1 Z3.00000

G00 Z5.000 ( All done -- retract )

M5      (Spindle off.)
G04 P1.000000
M9      (Coolant off.)
M2      (Program end.)

