( pcb2gcode 1.3.2 )
( Software-independent Gcode )

( This file uses 4 drill bit sizes. )
( Bit sizes: [0.8mm] [1mm] [1.52mm] [2.2mm] )

G94       (Millimeters per minute feed rate.)
G21       (Units == Millimeters.)
G90       (Absolute coordinates.)
S10000     (RPM spindle speed.)

G00 Z5.00000 (Retract)
T1
M5      (Spindle stop.)
G04 P1.00000(MSG, Change tool bit to drill size 0.80000 mm)
M6      (Tool change.)
M0      (Temporary machine stop.)
M3      (Spindle on clockwise.)
G04 P1.00000

F40.00000
G0 X6.61734 Y31.92787
G1 Z-2.50000
G1 Z3.00000
G0 X6.61734 Y35.99187
G1 Z-2.50000
G1 Z3.00000
G0 X10.08034 Y40.78087
G1 Z-2.50000
G1 Z3.00000
G0 X12.62034 Y40.78087
G1 Z-2.50000
G1 Z3.00000
G0 X15.16034 Y40.78087
G1 Z-2.50000
G1 Z3.00000
G0 X17.70034 Y40.78087
G1 Z-2.50000
G1 Z3.00000
G0 X20.24034 Y40.78087
G1 Z-2.50000
G1 Z3.00000
G0 X22.78034 Y40.78087
G1 Z-2.50000
G1 Z3.00000
G0 X25.32034 Y40.78087
G1 Z-2.50000
G1 Z3.00000
G0 X27.86034 Y40.78087
G1 Z-2.50000
G1 Z3.00000
G0 X31.38234 Y40.96187
G1 Z-2.50000
G1 Z3.00000
G0 X34.48534 Y40.66487
G1 Z-2.50000
G1 Z3.00000
G0 X37.02534 Y40.66487
G1 Z-2.50000
G1 Z3.00000
G0 X39.56534 Y40.66487
G1 Z-2.50000
G1 Z3.00000
G0 X42.10534 Y40.66487
G1 Z-2.50000
G1 Z3.00000
G0 X44.64534 Y40.66487
G1 Z-2.50000
G1 Z3.00000
G0 X47.18534 Y40.66487
G1 Z-2.50000
G1 Z3.00000
G0 X49.72534 Y40.66487
G1 Z-2.50000
G1 Z3.00000
G0 X52.26534 Y40.66487
G1 Z-2.50000
G1 Z3.00000
G0 X55.51234 Y42.21487
G1 Z-2.50000
G1 Z3.00000
G0 X58.48334 Y40.77587
G1 Z-2.50000
G1 Z3.00000
G0 X61.02334 Y40.77587
G1 Z-2.50000
G1 Z3.00000
G0 X63.56334 Y40.77587
G1 Z-2.50000
G1 Z3.00000
G0 X66.10334 Y40.77587
G1 Z-2.50000
G1 Z3.00000
G0 X68.64334 Y40.77587
G1 Z-2.50000
G1 Z3.00000
G0 X71.18334 Y40.77587
G1 Z-2.50000
G1 Z3.00000
G0 X73.72334 Y40.77587
G1 Z-2.50000
G1 Z3.00000
G0 X76.26334 Y40.77587
G1 Z-2.50000
G1 Z3.00000
G0 X76.26334 Y53.47587
G1 Z-2.50000
G1 Z3.00000
G0 X73.72334 Y53.47587
G1 Z-2.50000
G1 Z3.00000
G0 X71.18334 Y53.47587
G1 Z-2.50000
G1 Z3.00000
G0 X68.64334 Y53.47587
G1 Z-2.50000
G1 Z3.00000
G0 X66.10334 Y53.47587
G1 Z-2.50000
G1 Z3.00000
G0 X63.56334 Y53.47587
G1 Z-2.50000
G1 Z3.00000
G0 X61.02334 Y53.47587
G1 Z-2.50000
G1 Z3.00000
G0 X58.48334 Y53.47587
G1 Z-2.50000
G1 Z3.00000
G0 X58.56034 Y51.10487
G1 Z-2.50000
G1 Z3.00000
G0 X55.38534 Y48.70487
G1 Z-2.50000
G1 Z3.00000
G0 X55.38534 Y46.20487
G1 Z-2.50000
G1 Z3.00000
G0 X60.97334 Y48.31087
G1 Z-2.50000
G1 Z3.00000
G0 X52.26534 Y53.36487
G1 Z-2.50000
G1 Z3.00000
G0 X49.72534 Y53.36487
G1 Z-2.50000
G1 Z3.00000
G0 X47.18534 Y53.36487
G1 Z-2.50000
G1 Z3.00000
G0 X44.64534 Y53.36487
G1 Z-2.50000
G1 Z3.00000
G0 X42.10534 Y53.36487
G1 Z-2.50000
G1 Z3.00000
G0 X39.56534 Y53.36487
G1 Z-2.50000
G1 Z3.00000
G0 X37.02534 Y53.36487
G1 Z-2.50000
G1 Z3.00000
G0 X34.48534 Y53.36487
G1 Z-2.50000
G1 Z3.00000
G0 X34.52934 Y51.20387
G1 Z-2.50000
G1 Z3.00000
G0 X35.31934 Y48.31087
G1 Z-2.50000
G1 Z3.00000
G0 X31.38234 Y48.06987
G1 Z-2.50000
G1 Z3.00000
G0 X31.38234 Y45.56987
G1 Z-2.50000
G1 Z3.00000
G0 X27.86034 Y53.48087
G1 Z-2.50000
G1 Z3.00000
G0 X25.32034 Y53.48087
G1 Z-2.50000
G1 Z3.00000
G0 X22.78034 Y53.48087
G1 Z-2.50000
G1 Z3.00000
G0 X20.24034 Y53.48087
G1 Z-2.50000
G1 Z3.00000
G0 X17.70034 Y53.48087
G1 Z-2.50000
G1 Z3.00000
G0 X15.16034 Y53.48087
G1 Z-2.50000
G1 Z3.00000
G0 X12.62034 Y53.48087
G1 Z-2.50000
G1 Z3.00000
G0 X10.08034 Y53.48087
G1 Z-2.50000
G1 Z3.00000
G0 X9.96934 Y57.21387
G1 Z-2.50000
G1 Z3.00000
G0 X5.21834 Y57.21387
G1 Z-2.50000
G1 Z3.00000
G0 X7.63334 Y48.06987
G1 Z-2.50000
G1 Z3.00000
G0 X7.63334 Y45.56987
G1 Z-2.50000
G1 Z3.00000
G0 X9.79234 Y43.48487
G1 Z-2.50000
G1 Z3.00000
G0 X10.04634 Y48.31087
G1 Z-2.50000
G1 Z3.00000
G0 X25.28434 Y60.62987
G1 Z-2.50000
G1 Z3.00000
G0 X30.54334 Y60.62987
G1 Z-2.50000
G1 Z3.00000
G0 X52.84534 Y28.24487
G1 Z-2.50000
G1 Z3.00000
G0 X60.46534 Y28.24487
G1 Z-2.50000
G1 Z3.00000
G0 X64.91034 Y28.24487
G1 Z-2.50000
G1 Z3.00000
G0 X70.62534 Y25.70487
G1 Z-2.50000
G1 Z3.00000
G0 X72.53034 Y28.24487
G1 Z-2.50000
G1 Z3.00000
G0 X76.34034 Y25.06987
G1 Z-2.50000
G1 Z3.00000
G0 X70.62534 Y18.08487
G1 Z-2.50000
G1 Z3.00000
G0 X76.34034 Y15.54487
G1 Z-2.50000
G1 Z3.00000
G0 X47.76534 Y17.19587
G1 Z-2.50000
G1 Z3.00000
G0 X47.76534 Y19.69587
G1 Z-2.50000
G1 Z3.00000
G0 X44.20934 Y19.69587
G1 Z-2.50000
G1 Z3.00000
G0 X44.20934 Y17.19587
G1 Z-2.50000
G1 Z3.00000
G0 X40.65334 Y17.19587
G1 Z-2.50000
G1 Z3.00000
G0 X40.65334 Y19.69587
G1 Z-2.50000
G1 Z3.00000

G00 Z5.00000 (Retract)
T2
M5      (Spindle stop.)
G04 P1.00000(MSG, Change tool bit to drill size 1.00000 mm)
M6      (Tool change.)
M0      (Temporary machine stop.)
M3      (Spindle on clockwise.)
G04 P1.00000

F40.00000
G0 X9.71534 Y13.52587
G1 Z-2.50000
G1 Z3.00000
G0 X12.25534 Y13.52587
G1 Z-2.50000
G1 Z3.00000
G0 X14.79534 Y13.52587
G1 Z-2.50000
G1 Z3.00000
G0 X17.33534 Y13.52587
G1 Z-2.50000
G1 Z3.00000
G0 X19.87534 Y13.52587
G1 Z-2.50000
G1 Z3.00000
G0 X22.41534 Y13.52587
G1 Z-2.50000
G1 Z3.00000
G0 X24.95534 Y13.52587
G1 Z-2.50000
G1 Z3.00000
G0 X27.49534 Y13.52587
G1 Z-2.50000
G1 Z3.00000
G0 X30.03534 Y13.52587
G1 Z-2.50000
G1 Z3.00000
G0 X32.57534 Y13.52587
G1 Z-2.50000
G1 Z3.00000
G0 X35.11534 Y13.52587
G1 Z-2.50000
G1 Z3.00000
G0 X37.65534 Y13.52587
G1 Z-2.50000
G1 Z3.00000
G0 X40.19534 Y13.52587
G1 Z-2.50000
G1 Z3.00000
G0 X42.73534 Y13.52587
G1 Z-2.50000
G1 Z3.00000
G0 X45.27534 Y13.52587
G1 Z-2.50000
G1 Z3.00000
G0 X47.81534 Y13.52587
G1 Z-2.50000
G1 Z3.00000
G0 X50.35534 Y13.52587
G1 Z-2.50000
G1 Z3.00000
G0 X52.89534 Y13.52587
G1 Z-2.50000
G1 Z3.00000
G0 X55.43534 Y13.52587
G1 Z-2.50000
G1 Z3.00000
G0 X57.97534 Y13.52587
G1 Z-2.50000
G1 Z3.00000
G0 X60.51534 Y13.52587
G1 Z-2.50000
G1 Z3.00000
G0 X63.05534 Y13.52587
G1 Z-2.50000
G1 Z3.00000
G0 X65.59534 Y13.52587
G1 Z-2.50000
G1 Z3.00000
G0 X68.13534 Y13.52587
G1 Z-2.50000
G1 Z3.00000
G0 X70.67534 Y13.52587
G1 Z-2.50000
G1 Z3.00000
G0 X73.21534 Y13.52587
G1 Z-2.50000
G1 Z3.00000
G0 X70.62534 Y7.28987
G1 Z-2.50000
G1 Z3.00000
G0 X68.08534 Y7.28987
G1 Z-2.50000
G1 Z3.00000
G0 X65.54534 Y7.28987
G1 Z-2.50000
G1 Z3.00000
G0 X63.00534 Y7.28987
G1 Z-2.50000
G1 Z3.00000
G0 X63.00534 Y4.74987
G1 Z-2.50000
G1 Z3.00000
G0 X65.54534 Y4.74987
G1 Z-2.50000
G1 Z3.00000
G0 X68.08534 Y4.74987
G1 Z-2.50000
G1 Z3.00000
G0 X70.62534 Y4.74987
G1 Z-2.50000
G1 Z3.00000
G0 X79.51534 Y15.54487
G1 Z-2.50000
G1 Z3.00000
G0 X79.51534 Y18.08487
G1 Z-2.50000
G1 Z3.00000
G0 X79.51534 Y20.62487
G1 Z-2.50000
G1 Z3.00000
G0 X79.51534 Y23.16487
G1 Z-2.50000
G1 Z3.00000
G0 X79.59534 Y28.32487
G1 Z-2.50000
G1 Z3.00000
G0 X79.59534 Y30.86487
G1 Z-2.50000
G1 Z3.00000
G0 X73.21534 Y33.84587
G1 Z-2.50000
G1 Z3.00000
G0 X70.67534 Y33.84587
G1 Z-2.50000
G1 Z3.00000
G0 X68.13534 Y33.84587
G1 Z-2.50000
G1 Z3.00000
G0 X65.59534 Y33.84587
G1 Z-2.50000
G1 Z3.00000
G0 X63.05534 Y33.84587
G1 Z-2.50000
G1 Z3.00000
G0 X60.51534 Y33.84587
G1 Z-2.50000
G1 Z3.00000
G0 X57.97534 Y33.84587
G1 Z-2.50000
G1 Z3.00000
G0 X55.43534 Y33.84587
G1 Z-2.50000
G1 Z3.00000
G0 X52.89534 Y33.84587
G1 Z-2.50000
G1 Z3.00000
G0 X50.35534 Y33.84587
G1 Z-2.50000
G1 Z3.00000
G0 X47.81534 Y33.84587
G1 Z-2.50000
G1 Z3.00000
G0 X45.27534 Y33.84587
G1 Z-2.50000
G1 Z3.00000
G0 X42.73534 Y33.84587
G1 Z-2.50000
G1 Z3.00000
G0 X40.19534 Y33.84587
G1 Z-2.50000
G1 Z3.00000
G0 X37.65534 Y33.84587
G1 Z-2.50000
G1 Z3.00000
G0 X35.11534 Y33.84587
G1 Z-2.50000
G1 Z3.00000
G0 X32.57534 Y33.84587
G1 Z-2.50000
G1 Z3.00000
G0 X30.03534 Y33.84587
G1 Z-2.50000
G1 Z3.00000
G0 X27.49534 Y33.84587
G1 Z-2.50000
G1 Z3.00000
G0 X24.95534 Y33.84587
G1 Z-2.50000
G1 Z3.00000
G0 X22.41534 Y33.84587
G1 Z-2.50000
G1 Z3.00000
G0 X19.87534 Y33.84587
G1 Z-2.50000
G1 Z3.00000
G0 X17.33534 Y33.84587
G1 Z-2.50000
G1 Z3.00000
G0 X14.79534 Y33.84587
G1 Z-2.50000
G1 Z3.00000
G0 X12.25534 Y33.84587
G1 Z-2.50000
G1 Z3.00000
G0 X9.71534 Y33.84587
G1 Z-2.50000
G1 Z3.00000
G0 X20.24034 Y45.86087
G1 Z-2.50000
G1 Z3.00000
G0 X20.24034 Y48.40087
G1 Z-2.50000
G1 Z3.00000
G0 X22.78034 Y48.40087
G1 Z-2.50000
G1 Z3.00000
G0 X22.78034 Y45.86087
G1 Z-2.50000
G1 Z3.00000
G0 X25.32034 Y45.86087
G1 Z-2.50000
G1 Z3.00000
G0 X25.32034 Y48.40087
G1 Z-2.50000
G1 Z3.00000
G0 X22.66934 Y57.59487
G1 Z-2.50000
G1 Z3.00000
G0 X20.12934 Y57.59487
G1 Z-2.50000
G1 Z3.00000
G0 X17.58934 Y57.59487
G1 Z-2.50000
G1 Z3.00000
G0 X15.04934 Y57.59487
G1 Z-2.50000
G1 Z3.00000
G0 X39.56534 Y57.59487
G1 Z-2.50000
G1 Z3.00000
G0 X42.10534 Y57.59487
G1 Z-2.50000
G1 Z3.00000
G0 X44.64534 Y57.59487
G1 Z-2.50000
G1 Z3.00000
G0 X47.18534 Y57.59487
G1 Z-2.50000
G1 Z3.00000
G0 X47.12834 Y48.43787
G1 Z-2.50000
G1 Z3.00000
G0 X44.58834 Y48.43787
G1 Z-2.50000
G1 Z3.00000
G0 X44.58834 Y45.89787
G1 Z-2.50000
G1 Z3.00000
G0 X47.12834 Y45.89787
G1 Z-2.50000
G1 Z3.00000
G0 X49.66834 Y45.89787
G1 Z-2.50000
G1 Z3.00000
G0 X49.66834 Y48.43787
G1 Z-2.50000
G1 Z3.00000
G0 X63.56334 Y57.59487
G1 Z-2.50000
G1 Z3.00000
G0 X66.10334 Y57.59487
G1 Z-2.50000
G1 Z3.00000
G0 X68.64334 Y57.59487
G1 Z-2.50000
G1 Z3.00000
G0 X71.18334 Y57.59487
G1 Z-2.50000
G1 Z3.00000
G0 X71.25834 Y48.18387
G1 Z-2.50000
G1 Z3.00000
G0 X68.71834 Y48.18387
G1 Z-2.50000
G1 Z3.00000
G0 X68.71834 Y45.64387
G1 Z-2.50000
G1 Z3.00000
G0 X71.25834 Y45.64387
G1 Z-2.50000
G1 Z3.00000
G0 X73.79834 Y45.64387
G1 Z-2.50000
G1 Z3.00000
G0 X73.79834 Y48.18387
G1 Z-2.50000
G1 Z3.00000
G0 X55.38534 Y7.28987
G1 Z-2.50000
G1 Z3.00000
G0 X55.38534 Y4.74987
G1 Z-2.50000
G1 Z3.00000
G0 X47.76534 Y4.74987
G1 Z-2.50000
G1 Z3.00000
G0 X45.22534 Y4.74987
G1 Z-2.50000
G1 Z3.00000
G0 X42.68534 Y4.74987
G1 Z-2.50000
G1 Z3.00000
G0 X40.14534 Y4.74987
G1 Z-2.50000
G1 Z3.00000
G0 X37.60534 Y4.74987
G1 Z-2.50000
G1 Z3.00000
G0 X35.06534 Y4.74987
G1 Z-2.50000
G1 Z3.00000
G0 X35.06534 Y7.28987
G1 Z-2.50000
G1 Z3.00000
G0 X37.60534 Y7.28987
G1 Z-2.50000
G1 Z3.00000
G0 X40.14534 Y7.28987
G1 Z-2.50000
G1 Z3.00000
G0 X42.68534 Y7.28987
G1 Z-2.50000
G1 Z3.00000
G0 X45.22534 Y7.28987
G1 Z-2.50000
G1 Z3.00000
G0 X47.76534 Y7.28987
G1 Z-2.50000
G1 Z3.00000
G0 X24.90534 Y7.28987
G1 Z-2.50000
G1 Z3.00000
G0 X24.90534 Y4.74987
G1 Z-2.50000
G1 Z3.00000
G0 X16.65034 Y4.74987
G1 Z-2.50000
G1 Z3.00000
G0 X14.11034 Y4.74987
G1 Z-2.50000
G1 Z3.00000
G0 X14.11034 Y7.28987
G1 Z-2.50000
G1 Z3.00000
G0 X16.65034 Y7.28987
G1 Z-2.50000
G1 Z3.00000

G00 Z5.00000 (Retract)
T3
M5      (Spindle stop.)
G04 P1.00000(MSG, Change tool bit to drill size 1.52000 mm)
M6      (Tool change.)
M0      (Temporary machine stop.)
M3      (Spindle on clockwise.)
G04 P1.00000

F40.00000
G0 X52.84534 Y59.35987
G1 Z-2.50000
G1 Z3.00000
G0 X57.92534 Y59.35987
G1 Z-2.50000
G1 Z3.00000

G00 Z5.00000 (Retract)
T4
M5      (Spindle stop.)
G04 P1.00000(MSG, Change tool bit to drill size 2.20000 mm)
M6      (Tool change.)
M0      (Temporary machine stop.)
M3      (Spindle on clockwise.)
G04 P1.00000

F40.00000
G0 X4.63534 Y4.63587
G1 Z-2.50000
G1 Z3.00000
G0 X4.63534 Y61.15087
G1 Z-2.50000
G1 Z3.00000
G0 X80.78534 Y61.39187
G1 Z-2.50000
G1 Z3.00000
G0 X80.78534 Y4.74987
G1 Z-2.50000
G1 Z3.00000

G00 Z5.000 ( All done -- retract )

M5      (Spindle off.)
G04 P1.000000
M9      (Coolant off.)
M2      (Program end.)

