( pcb2gcode 1.3.2 )
( Software-independent Gcode )

G94 ( Millimeters per minute feed rate. )
G21 ( Units == Millimeters. )

G90 ( Absolute coordinates. )
S12000 ( RPM spindle speed. )
F50.00000 ( Feedrate. )

F50.00000 ( Feedrate. )
M3 ( Spindle on clockwise. )
G04 P1.00000
G04 P0 ( dwell for no time -- G64 should not smooth over this point )
G00 Z3.00000 ( retract )

G00 X79.54076 Y65.63575 ( rapid move to begin. )
G01 Z-0.50000 F25.00000 ( plunge. )
G04 P0 ( dwell for no time -- G64 should not smooth over this point )
F50.00000
X79.54076 Y65.63575
X41.14578 Y65.63554
Z-0.30000
X39.24578 Y65.63553
Z-0.50000 F25.00000
F50.00000X0.85080 Y65.63532
X0.71425 Y65.62188
X0.58293 Y65.58205
X0.46193 Y65.51736
X0.35583 Y65.43031
X0.26879 Y65.32422
X0.20409 Y65.20321
X0.16427 Y65.07190
X0.15080 Y64.93534
X0.15080 Y33.84308
Z-0.30000
X0.15080 Y31.94308
Z-0.50000 F25.00000
F50.00000X0.15080 Y0.85081
X0.16427 Y0.71424
X0.20409 Y0.58292
X0.26879 Y0.46192
X0.35583 Y0.35582
X0.46193 Y0.26877
X0.58293 Y0.20408
X0.71425 Y0.16425
X0.85080 Y0.15082
X39.24578 Y0.15082
Z-0.30000
X41.14578 Y0.15082
Z-0.50000 F25.00000
F50.00000X79.54076 Y0.15082
X79.67734 Y0.16425
X79.80866 Y0.20408
X79.92966 Y0.26877
X80.03576 Y0.35582
X80.12280 Y0.46192
X80.18750 Y0.58292
X80.22733 Y0.71424
X80.24076 Y0.85081
X80.24076 Y31.94330
Z-0.30000
X80.24076 Y33.84330
Z-0.50000 F25.00000
F50.00000X80.24076 Y64.93578
X80.22733 Y65.07233
X80.18750 Y65.20364
X80.12280 Y65.32465
X80.03576 Y65.43075
X79.92966 Y65.51779
X79.80866 Y65.58249
X79.67734 Y65.62231
X79.54076 Y65.63575
G01 Z-1.00000 F25.00000 ( plunge. )
G04 P0 ( dwell for no time -- G64 should not smooth over this point )
F50.00000
X79.54076 Y65.63575
X41.14578 Y65.63554
Z-0.30000
X39.24578 Y65.63553
Z-1.00000 F25.00000
F50.00000X0.85080 Y65.63532
X0.71425 Y65.62188
X0.58293 Y65.58205
X0.46193 Y65.51736
X0.35583 Y65.43031
X0.26879 Y65.32422
X0.20409 Y65.20321
X0.16427 Y65.07190
X0.15080 Y64.93534
X0.15080 Y33.84308
Z-0.30000
X0.15080 Y31.94308
Z-1.00000 F25.00000
F50.00000X0.15080 Y0.85081
X0.16427 Y0.71424
X0.20409 Y0.58292
X0.26879 Y0.46192
X0.35583 Y0.35582
X0.46193 Y0.26877
X0.58293 Y0.20408
X0.71425 Y0.16425
X0.85080 Y0.15082
X39.24578 Y0.15082
Z-0.30000
X41.14578 Y0.15082
Z-1.00000 F25.00000
F50.00000X79.54076 Y0.15082
X79.67734 Y0.16425
X79.80866 Y0.20408
X79.92966 Y0.26877
X80.03576 Y0.35582
X80.12280 Y0.46192
X80.18750 Y0.58292
X80.22733 Y0.71424
X80.24076 Y0.85081
X80.24076 Y31.94330
Z-0.30000
X80.24076 Y33.84330
Z-1.00000 F25.00000
F50.00000X80.24076 Y64.93578
X80.22733 Y65.07233
X80.18750 Y65.20364
X80.12280 Y65.32465
X80.03576 Y65.43075
X79.92966 Y65.51779
X79.80866 Y65.58249
X79.67734 Y65.62231
X79.54076 Y65.63575
G01 Z-1.50000 F25.00000 ( plunge. )
G04 P0 ( dwell for no time -- G64 should not smooth over this point )
F50.00000
X79.54076 Y65.63575
X41.14578 Y65.63554
Z-0.30000
X39.24578 Y65.63553
Z-1.50000 F25.00000
F50.00000X0.85080 Y65.63532
X0.71425 Y65.62188
X0.58293 Y65.58205
X0.46193 Y65.51736
X0.35583 Y65.43031
X0.26879 Y65.32422
X0.20409 Y65.20321
X0.16427 Y65.07190
X0.15080 Y64.93534
X0.15080 Y33.84308
Z-0.30000
X0.15080 Y31.94308
Z-1.50000 F25.00000
F50.00000X0.15080 Y0.85081
X0.16427 Y0.71424
X0.20409 Y0.58292
X0.26879 Y0.46192
X0.35583 Y0.35582
X0.46193 Y0.26877
X0.58293 Y0.20408
X0.71425 Y0.16425
X0.85080 Y0.15082
X39.24578 Y0.15082
Z-0.30000
X41.14578 Y0.15082
Z-1.50000 F25.00000
F50.00000X79.54076 Y0.15082
X79.67734 Y0.16425
X79.80866 Y0.20408
X79.92966 Y0.26877
X80.03576 Y0.35582
X80.12280 Y0.46192
X80.18750 Y0.58292
X80.22733 Y0.71424
X80.24076 Y0.85081
X80.24076 Y31.94330
Z-0.30000
X80.24076 Y33.84330
Z-1.50000 F25.00000
F50.00000X80.24076 Y64.93578
X80.22733 Y65.07233
X80.18750 Y65.20364
X80.12280 Y65.32465
X80.03576 Y65.43075
X79.92966 Y65.51779
X79.80866 Y65.58249
X79.67734 Y65.62231
X79.54076 Y65.63575
G01 Z-2.00000 F25.00000 ( plunge. )
G04 P0 ( dwell for no time -- G64 should not smooth over this point )
F50.00000
X79.54076 Y65.63575
X41.14578 Y65.63554
Z-0.30000
X39.24578 Y65.63553
Z-2.00000 F25.00000
F50.00000X0.85080 Y65.63532
X0.71425 Y65.62188
X0.58293 Y65.58205
X0.46193 Y65.51736
X0.35583 Y65.43031
X0.26879 Y65.32422
X0.20409 Y65.20321
X0.16427 Y65.07190
X0.15080 Y64.93534
X0.15080 Y33.84308
Z-0.30000
X0.15080 Y31.94308
Z-2.00000 F25.00000
F50.00000X0.15080 Y0.85081
X0.16427 Y0.71424
X0.20409 Y0.58292
X0.26879 Y0.46192
X0.35583 Y0.35582
X0.46193 Y0.26877
X0.58293 Y0.20408
X0.71425 Y0.16425
X0.85080 Y0.15082
X39.24578 Y0.15082
Z-0.30000
X41.14578 Y0.15082
Z-2.00000 F25.00000
F50.00000X79.54076 Y0.15082
X79.67734 Y0.16425
X79.80866 Y0.20408
X79.92966 Y0.26877
X80.03576 Y0.35582
X80.12280 Y0.46192
X80.18750 Y0.58292
X80.22733 Y0.71424
X80.24076 Y0.85081
X80.24076 Y31.94330
Z-0.30000
X80.24076 Y33.84330
Z-2.00000 F25.00000
F50.00000X80.24076 Y64.93578
X80.22733 Y65.07233
X80.18750 Y65.20364
X80.12280 Y65.32465
X80.03576 Y65.43075
X79.92966 Y65.51779
X79.80866 Y65.58249
X79.67734 Y65.62231
X79.54076 Y65.63575

G04 P0 ( dwell for no time -- G64 should not smooth over this point )
G00 Z5.000 ( retract )

M5 ( Spindle off. )
G04 P1.000000
M9 ( Coolant off. )
M2 ( Program end. )

