( pcb2gcode 1.3.2 )
( Software-independent Gcode )

G94 ( Millimeters per minute feed rate. )
G21 ( Units == Millimeters. )

G90 ( Absolute coordinates. )
S10000 ( RPM spindle speed. )
F100.00000 ( Feedrate. )

F100.00000 ( Feedrate. )
M3 ( Spindle on clockwise. )
G04 P1.00000
G04 P0 ( dwell for no time -- G64 should not smooth over this point )
G00 Z3.00000 ( retract )

G00 X84.57041 Y65.62280 ( rapid move to begin. )
G01 Z-0.50000 F50.00000 ( plunge. )
G04 P0 ( dwell for no time -- G64 should not smooth over this point )
F100.00000
X84.57041 Y65.62280
X43.76066 Y65.62890
Z-0.30000
X41.66066 Y65.62922
Z-0.50000 F50.00000
F100.00000X0.85091 Y65.63532
X0.71434 Y65.62191
X0.58302 Y65.58208
X0.46196 Y65.51741
X0.35587 Y65.43034
X0.26880 Y65.32427
X0.20410 Y65.20324
X0.16425 Y65.07192
X0.15079 Y64.93535
X0.15079 Y33.94308
Z-0.30000
X0.15079 Y31.84308
Z-0.50000 F50.00000
F100.00000X0.15079 Y0.85082
X0.16428 Y0.71411
X0.20418 Y0.58270
X0.26897 Y0.46161
X0.35617 Y0.35549
X0.46240 Y0.26845
X0.58358 Y0.20380
X0.71508 Y0.16410
X0.85175 Y0.15082
X41.66150 Y0.20640
Z-0.30000
X43.76150 Y0.20926
Z-0.50000 F50.00000
F100.00000X84.57124 Y0.26484
X84.70769 Y0.27845
X84.83883 Y0.31838
X84.95969 Y0.38313
X85.06560 Y0.47020
X85.15252 Y0.57622
X85.21709 Y0.69717
X85.25687 Y0.82839
X85.27028 Y0.96484
X85.27028 Y31.89383
Z-0.30000
X85.27028 Y33.99383
Z-0.50000 F50.00000
F100.00000X85.27028 Y64.92283
X85.25684 Y65.05935
X85.21701 Y65.19067
X85.15235 Y65.31167
X85.06530 Y65.41774
X84.95926 Y65.50479
X84.83825 Y65.56948
X84.70696 Y65.60934
X84.57041 Y65.62280
G01 Z-1.00000 F50.00000 ( plunge. )
G04 P0 ( dwell for no time -- G64 should not smooth over this point )
F100.00000
X84.57041 Y65.62280
X43.76066 Y65.62890
Z-0.30000
X41.66066 Y65.62922
Z-1.00000 F50.00000
F100.00000X0.85091 Y65.63532
X0.71434 Y65.62191
X0.58302 Y65.58208
X0.46196 Y65.51741
X0.35587 Y65.43034
X0.26880 Y65.32427
X0.20410 Y65.20324
X0.16425 Y65.07192
X0.15079 Y64.93535
X0.15079 Y33.94308
Z-0.30000
X0.15079 Y31.84308
Z-1.00000 F50.00000
F100.00000X0.15079 Y0.85082
X0.16428 Y0.71411
X0.20418 Y0.58270
X0.26897 Y0.46161
X0.35617 Y0.35549
X0.46240 Y0.26845
X0.58358 Y0.20380
X0.71508 Y0.16410
X0.85175 Y0.15082
X41.66150 Y0.20640
Z-0.30000
X43.76150 Y0.20926
Z-1.00000 F50.00000
F100.00000X84.57124 Y0.26484
X84.70769 Y0.27845
X84.83883 Y0.31838
X84.95969 Y0.38313
X85.06560 Y0.47020
X85.15252 Y0.57622
X85.21709 Y0.69717
X85.25687 Y0.82839
X85.27028 Y0.96484
X85.27028 Y31.89383
Z-0.30000
X85.27028 Y33.99383
Z-1.00000 F50.00000
F100.00000X85.27028 Y64.92283
X85.25684 Y65.05935
X85.21701 Y65.19067
X85.15235 Y65.31167
X85.06530 Y65.41774
X84.95926 Y65.50479
X84.83825 Y65.56948
X84.70696 Y65.60934
X84.57041 Y65.62280
G01 Z-1.50000 F50.00000 ( plunge. )
G04 P0 ( dwell for no time -- G64 should not smooth over this point )
F100.00000
X84.57041 Y65.62280
X43.76066 Y65.62890
Z-0.30000
X41.66066 Y65.62922
Z-1.50000 F50.00000
F100.00000X0.85091 Y65.63532
X0.71434 Y65.62191
X0.58302 Y65.58208
X0.46196 Y65.51741
X0.35587 Y65.43034
X0.26880 Y65.32427
X0.20410 Y65.20324
X0.16425 Y65.07192
X0.15079 Y64.93535
X0.15079 Y33.94308
Z-0.30000
X0.15079 Y31.84308
Z-1.50000 F50.00000
F100.00000X0.15079 Y0.85082
X0.16428 Y0.71411
X0.20418 Y0.58270
X0.26897 Y0.46161
X0.35617 Y0.35549
X0.46240 Y0.26845
X0.58358 Y0.20380
X0.71508 Y0.16410
X0.85175 Y0.15082
X41.66150 Y0.20640
Z-0.30000
X43.76150 Y0.20926
Z-1.50000 F50.00000
F100.00000X84.57124 Y0.26484
X84.70769 Y0.27845
X84.83883 Y0.31838
X84.95969 Y0.38313
X85.06560 Y0.47020
X85.15252 Y0.57622
X85.21709 Y0.69717
X85.25687 Y0.82839
X85.27028 Y0.96484
X85.27028 Y31.89383
Z-0.30000
X85.27028 Y33.99383
Z-1.50000 F50.00000
F100.00000X85.27028 Y64.92283
X85.25684 Y65.05935
X85.21701 Y65.19067
X85.15235 Y65.31167
X85.06530 Y65.41774
X84.95926 Y65.50479
X84.83825 Y65.56948
X84.70696 Y65.60934
X84.57041 Y65.62280
G01 Z-2.00000 F50.00000 ( plunge. )
G04 P0 ( dwell for no time -- G64 should not smooth over this point )
F100.00000
X84.57041 Y65.62280
X43.76066 Y65.62890
Z-0.30000
X41.66066 Y65.62922
Z-2.00000 F50.00000
F100.00000X0.85091 Y65.63532
X0.71434 Y65.62191
X0.58302 Y65.58208
X0.46196 Y65.51741
X0.35587 Y65.43034
X0.26880 Y65.32427
X0.20410 Y65.20324
X0.16425 Y65.07192
X0.15079 Y64.93535
X0.15079 Y33.94308
Z-0.30000
X0.15079 Y31.84308
Z-2.00000 F50.00000
F100.00000X0.15079 Y0.85082
X0.16428 Y0.71411
X0.20418 Y0.58270
X0.26897 Y0.46161
X0.35617 Y0.35549
X0.46240 Y0.26845
X0.58358 Y0.20380
X0.71508 Y0.16410
X0.85175 Y0.15082
X41.66150 Y0.20640
Z-0.30000
X43.76150 Y0.20926
Z-2.00000 F50.00000
F100.00000X84.57124 Y0.26484
X84.70769 Y0.27845
X84.83883 Y0.31838
X84.95969 Y0.38313
X85.06560 Y0.47020
X85.15252 Y0.57622
X85.21709 Y0.69717
X85.25687 Y0.82839
X85.27028 Y0.96484
X85.27028 Y31.89383
Z-0.30000
X85.27028 Y33.99383
Z-2.00000 F50.00000
F100.00000X85.27028 Y64.92283
X85.25684 Y65.05935
X85.21701 Y65.19067
X85.15235 Y65.31167
X85.06530 Y65.41774
X84.95926 Y65.50479
X84.83825 Y65.56948
X84.70696 Y65.60934
X84.57041 Y65.62280

G04 P0 ( dwell for no time -- G64 should not smooth over this point )
G00 Z5.000 ( retract )

M5 ( Spindle off. )
G04 P1.000000
M9 ( Coolant off. )
M2 ( Program end. )

